luts/Cinematic_Teal_Orange.cube
TITLE "Cinematic_Teal_Orange"
LUT_3D_SIZE 16
0.000000 0.000000 0.000000
0.016000 0.000000 0.000000
0.082000 0.000000 0.000000
0.148000 0.000000 0.000000
0.214000 0.000000 0.000000
0.280000 0.000000 0.000000
0.346000 0.000000 0.000000
0.412000 0.000000 0.000000
0.478000 0.000000 0.000000
0.544000 0.000000 0.000000
0.610000 0.000000 0.000000
0.676000 0.000000 0.000000
0.742000 0.000000 0.000000
0.808000 0.000000 0.000000
0.874000 0.000000 0.000000
0.940000 0.000000 0.000000
0.000000 0.027000 0.000000
0.016000 0.027000 0.000000
0.082000 0.027000 0.000000
0.148000 0.027000 0.000000
0.214000 0.027000 0.000000
0.280000 0.027000 0.000000
0.346000 0.027000 0.000000
0.412000 0.027000 0.000000
0.478000 0.027000 0.000000
0.544000 0.027000 0.000000
0.610000 0.027000 0.000000
0.676000 0.027000 0.000000
0.742000 0.027000 0.000000
0.808000 0.027000 0.000000
0.874000 0.027000 0.000000
0.940000 0.027000 0.000000
0.000000 0.104000 0.000000
0.016000 0.104000 0.000000
0.082000 0.104000 0.000000
0.148000 0.104000 0.000000
0.214000 0.104000 0.000000
0.280000 0.104000 0.000000
0.346000 0.104000 0.000000
0.412000 0.104000 0.000000
0.478000 0.104000 0.000000
0.544000 0.104000 0.000000
0.610000 0.104000 0.000000
0.676000 0.104000 0.000000
0.742000 0.104000 0.000000
0.808000 0.104000 0.000000
0.874000 0.104000 0.000000
0.940000 0.104000 0.000000
0.000000 0.181000 0.000000
0.016000 0.181000 0.000000
0.082000 0.181000 0.000000
0.148000 0.181000 0.000000
0.214000 0.181000 0.000000
0.280000 0.181000 0.000000
0.346000 0.181000 0.000000
0.412000 0.181000 0.000000
0.478000 0.181000 0.000000
0.544000 0.181000 0.000000
0.610000 0.181000 0.000000
0.676000 0.181000 0.000000
0.742000 0.181000 0.000000
0.808000 0.181000 0.000000
0.874000 0.181000 0.000000
0.940000 0.181000 0.000000
0.000000 0.258000 0.000000
0.016000 0.258000 0.000000
0.082000 0.258000 0.000000
0.148000 0.258000 0.000000
0.214000 0.258000 0.000000
0.280000 0.258000 0.000000
0.346000 0.258000 0.000000
0.412000 0.258000 0.000000
0.478000 0.258000 0.000000
0.544000 0.258000 0.000000
0.610000 0.258000 0.000000
0.676000 0.258000 0.000000
0.742000 0.258000 0.000000
0.808000 0.258000 0.000000
0.874000 0.258000 0.000000
0.940000 0.258000 0.000000
0.000000 0.335000 0.000000
0.016000 0.335000 0.000000
0.082000 0.335000 0.000000
0.148000 0.335000 0.000000
0.214000 0.335000 0.000000
0.280000 0.335000 0.000000
0.346000 0.335000 0.000000
0.412000 0.335000 0.000000
0.478000 0.335000 0.000000
0.544000 0.335000 0.000000
0.610000 0.335000 0.000000
0.676000 0.335000 0.000000
0.742000 0.335000 0.000000
0.808000 0.335000 0.000000
0.874000 0.335000 0.000000
0.940000 0.335000 0.000000
0.000000 0.412000 0.000000
0.016000 0.412000 0.000000
0.082000 0.412000 0.000000
0.148000 0.412000 0.000000
0.214000 0.412000 0.000000
0.280000 0.412000 0.000000
0.346000 0.412000 0.000000
0.412000 0.412000 0.000000
0.478000 0.412000 0.000000
0.544000 0.412000 0.000000
0.610000 0.412000 0.000000
0.676000 0.412000 0.000000
0.742000 0.412000 0.000000
0.808000 0.412000 0.000000
1.000000 0.412000 0.000000
1.000000 0.412000 0.000000
0.000000 0.489000 0.000000
0.016000 0.489000 0.000000
0.082000 0.489000 0.000000
0.148000 0.489000 0.000000
0.214000 0.489000 0.000000
0.280000 0.489000 0.000000
0.346000 0.489000 0.000000
0.412000 0.489000 0.000000
0.478000 0.489000 0.000000
0.544000 0.489000 0.000000
0.610000 0.489000 0.000000
0.676000 0.489000 0.000000
0.918000 0.489000 0.000000
0.998667 0.489000 0.000000
1.000000 0.489000 0.000000
1.000000 0.489000 0.000000
0.000000 0.566000 0.000000
0.016000 0.566000 0.000000
0.082000 0.566000 0.000000
0.148000 0.566000 0.000000
0.214000 0.566000 0.000000
0.280000 0.566000 0.000000
0.346000 0.566000 0.000000
0.412000 0.566000 0.000000
0.478000 0.566000 0.000000
0.544000 0.566000 0.000000
0.756667 0.566000 0.000000
0.837333 0.566000 0.000000
0.918000 0.566000 0.000000
0.998667 0.566000 0.000000
1.000000 0.566000 0.000000
1.000000 0.566000 0.000000
0.000000 0.643000 0.000000
0.016000 0.643000 0.000000
0.082000 0.643000 0.000000
0.148000 0.643000 0.000000
0.214000 0.643000 0.000000
0.280000 0.643000 0.000000
0.346000 0.643000 0.000000
0.412000 0.643000 0.000000
0.595333 0.643000 0.000000
0.676000 0.643000 0.000000
0.756667 0.643000 0.000000
0.837333 0.643000 0.000000
0.918000 0.643000 0.000000
0.998667 0.643000 0.000000
1.000000 0.643000 0.000000
1.000000 0.643000 0.000000
0.000000 0.720000 0.000000
0.016000 0.720000 0.000000
0.082000 0.720000 0.000000
0.148000 0.720000 0.000000
0.214000 0.720000 0.000000
0.280000 0.720000 0.000000
0.434000 0.720000 0.000000
0.514667 0.720000 0.000000
0.595333 0.720000 0.000000
0.676000 0.720000 0.000000
0.756667 0.720000 0.000000
0.837333 0.720000 0.000000
0.918000 0.720000 0.000000
0.998667 0.720000 0.000000
1.000000 0.720000 0.000000
1.000000 0.720000 0.000000
0.000000 0.797000 0.000000
0.016000 0.797000 0.000000
0.082000 0.797000 0.000000
0.148000 0.797000 0.000000
0.272667 0.797000 0.000000
0.353333 0.797000 0.000000
0.434000 0.797000 0.000000
0.514667 0.797000 0.000000
0.595333 0.797000 0.000000
0.676000 0.797000 0.000000
0.756667 0.797000 0.000000
0.837333 0.797000 0.000000
0.918000 0.797000 0.000000
0.998667 0.797000 0.000000
1.000000 0.797000 0.000000
1.000000 0.797000 0.000000
0.000000 0.874000 0.000000
0.016000 0.874000 0.000000
0.111333 0.874000 0.000000
0.192000 0.874000 0.000000
0.272667 0.874000 0.000000
0.353333 0.874000 0.000000
0.434000 0.874000 0.000000
0.514667 0.874000 0.000000
0.595333 0.874000 0.000000
0.676000 0.874000 0.000000
0.756667 0.874000 0.000000
0.837333 0.874000 0.000000
0.918000 0.874000 0.000000
0.998667 0.874000 0.000000
1.000000 0.874000 0.000000
1.000000 0.874000 0.000000
0.000000 0.951000 0.000000
0.030667 0.951000 0.000000
0.111333 0.951000 0.000000
0.192000 0.951000 0.000000
0.272667 0.951000 0.000000
0.353333 0.951000 0.000000
0.434000 0.951000 0.000000
0.514667 0.951000 0.000000
0.595333 0.951000 0.000000
0.676000 0.951000 0.000000
0.756667 0.951000 0.000000
0.837333 0.951000 0.000000
0.918000 0.951000 0.000000
0.998667 0.951000 0.000000
1.000000 0.951000 0.000000
1.000000 0.951000 0.000000
0.000000 1.000000 0.000000
0.030667 1.000000 0.000000
0.111333 1.000000 0.000000
0.192000 1.000000 0.000000
0.272667 1.000000 0.000000
0.353333 1.000000 0.000000
0.434000 1.000000 0.000000
0.514667 1.000000 0.000000
0.595333 1.000000 0.000000
0.676000 1.000000 0.000000
0.756667 1.000000 0.000000
0.837333 1.000000 0.000000
0.918000 1.000000 0.000000
0.998667 1.000000 0.000000
1.000000 1.000000 0.000000
1.000000 1.000000 0.000000
0.000000 1.000000 0.000000
0.030667 1.000000 0.000000
0.111333 1.000000 0.000000
0.192000 1.000000 0.000000
0.272667 1.000000 0.000000
0.353333 1.000000 0.000000
0.434000 1.000000 0.000000
0.514667 1.000000 0.000000
0.595333 1.000000 0.000000
0.676000 1.000000 0.000000
0.756667 1.000000 0.000000
0.837333 1.000000 0.000000
0.918000 1.000000 0.000000
0.998667 1.000000 0.000000
1.000000 1.000000 0.000000
1.000000 1.000000 0.000000
0.000000 0.000000 0.034333
0.016000 0.000000 0.034333
0.082000 0.000000 0.034333
0.148000 0.000000 0.034333
0.214000 0.000000 0.034333
0.280000 0.000000 0.034333
0.346000 0.000000 0.034333
0.412000 0.000000 0.034333
0.478000 0.000000 0.034333
0.544000 0.000000 0.034333
0.610000 0.000000 0.034333
0.676000 0.000000 0.034333
0.742000 0.000000 0.034333
0.808000 0.000000 0.034333
0.874000 0.000000 0.034333
0.940000 0.000000 0.034333
0.000000 0.027000 0.034333
0.016000 0.027000 0.034333
0.082000 0.027000 0.034333
0.148000 0.027000 0.034333
0.214000 0.027000 0.034333
0.280000 0.027000 0.034333
0.346000 0.027000 0.034333
0.412000 0.027000 0.034333
0.478000 0.027000 0.034333
0.544000 0.027000 0.034333
0.610000 0.027000 0.034333
0.676000 0.027000 0.034333
0.742000 0.027000 0.034333
0.808000 0.027000 0.034333
0.874000 0.027000 0.034333
0.940000 0.027000 0.034333
0.000000 0.104000 0.034333
0.016000 0.104000 0.034333
0.082000 0.104000 0.034333
0.148000 0.104000 0.034333
0.214000 0.104000 0.034333
0.280000 0.104000 0.034333
0.346000 0.104000 0.034333
0.412000 0.104000 0.034333
0.478000 0.104000 0.034333
0.544000 0.104000 0.034333
0.610000 0.104000 0.034333
0.676000 0.104000 0.034333
0.742000 0.104000 0.034333
0.808000 0.104000 0.034333
0.874000 0.104000 0.034333
0.940000 0.104000 0.034333
0.000000 0.181000 0.034333
0.016000 0.181000 0.034333
0.082000 0.181000 0.034333
0.148000 0.181000 0.034333
0.214000 0.181000 0.034333
0.280000 0.181000 0.034333
0.346000 0.181000 0.034333
0.412000 0.181000 0.034333
0.478000 0.181000 0.034333
0.544000 0.181000 0.034333
0.610000 0.181000 0.034333
0.676000 0.181000 0.034333
0.742000 0.181000 0.034333
0.808000 0.181000 0.034333
0.874000 0.181000 0.034333
0.940000 0.181000 0.034333
0.000000 0.258000 0.034333
0.016000 0.258000 0.034333
0.082000 0.258000 0.034333
0.148000 0.258000 0.034333
0.214000 0.258000 0.034333
0.280000 0.258000 0.034333
0.346000 0.258000 0.034333
0.412000 0.258000 0.034333
0.478000 0.258000 0.034333
0.544000 0.258000 0.034333
0.610000 0.258000 0.034333
0.676000 0.258000 0.034333
0.742000 0.258000 0.034333
0.808000 0.258000 0.034333
0.874000 0.258000 0.034333
0.940000 0.258000 0.034333
0.000000 0.335000 0.034333
0.016000 0.335000 0.034333
0.082000 0.335000 0.034333
0.148000 0.335000 0.034333
0.214000 0.335000 0.034333
0.280000 0.335000 0.034333
0.346000 0.335000 0.034333
0.412000 0.335000 0.034333
0.478000 0.335000 0.034333
0.544000 0.335000 0.034333
0.610000 0.335000 0.034333
0.676000 0.335000 0.034333
0.742000 0.335000 0.034333
0.808000 0.335000 0.034333
0.874000 0.335000 0.034333
1.000000 0.335000 0.016000
0.000000 0.412000 0.034333
0.016000 0.412000 0.034333
0.082000 0.412000 0.034333
0.148000 0.412000 0.034333
0.214000 0.412000 0.034333
0.280000 0.412000 0.034333
0.346000 0.412000 0.034333
0.412000 0.412000 0.034333
0.478000 0.412000 0.034333
0.544000 0.412000 0.034333
0.610000 0.412000 0.034333
0.676000 0.412000 0.034333
0.742000 0.412000 0.034333
0.998667 0.412000 0.016000
1.000000 0.412000 0.016000
1.000000 0.412000 0.016000
0.000000 0.489000 0.034333
0.016000 0.489000 0.034333
0.082000 0.489000 0.034333
0.148000 0.489000 0.034333
0.214000 0.489000 0.034333
0.280000 0.489000 0.034333
0.346000 0.489000 0.034333
0.412000 0.489000 0.034333
0.478000 0.489000 0.034333
0.544000 0.489000 0.034333
0.610000 0.489000 0.034333
0.837333 0.489000 0.016000
0.918000 0.489000 0.016000
0.998667 0.489000 0.016000
1.000000 0.489000 0.016000
1.000000 0.489000 0.016000
0.000000 0.566000 0.034333
0.016000 0.566000 0.034333
0.082000 0.566000 0.034333
0.148000 0.566000 0.034333
0.214000 0.566000 0.034333
0.280000 0.566000 0.034333
0.346000 0.566000 0.034333
0.412000 0.566000 0.034333
0.478000 0.566000 0.034333
0.676000 0.566000 0.016000
0.756667 0.566000 0.016000
0.837333 0.566000 0.016000
0.918000 0.566000 0.016000
0.998667 0.566000 0.016000
1.000000 0.566000 0.016000
1.000000 0.566000 0.016000
0.000000 0.643000 0.034333
0.016000 0.643000 0.034333
0.082000 0.643000 0.034333
0.148000 0.643000 0.034333
0.214000 0.643000 0.034333
0.280000 0.643000 0.034333
0.346000 0.643000 0.034333
0.412000 0.643000 0.034333
0.595333 0.643000 0.016000
0.676000 0.643000 0.016000
0.756667 0.643000 0.016000
0.837333 0.643000 0.016000
0.918000 0.643000 0.016000
0.998667 0.643000 0.016000
1.000000 0.643000 0.016000
1.000000 0.643000 0.016000
0.000000 0.720000 0.034333
0.016000 0.720000 0.034333
0.082000 0.720000 0.034333
0.148000 0.720000 0.034333
0.214000 0.720000 0.034333
0.280000 0.720000 0.034333
0.434000 0.720000 0.016000
0.514667 0.720000 0.016000
0.595333 0.720000 0.016000
0.676000 0.720000 0.016000
0.756667 0.720000 0.016000
0.837333 0.720000 0.016000
0.918000 0.720000 0.016000
0.998667 0.720000 0.016000
1.000000 0.720000 0.016000
1.000000 0.720000 0.016000
0.000000 0.797000 0.034333
0.016000 0.797000 0.034333
0.082000 0.797000 0.034333
0.148000 0.797000 0.034333
0.272667 0.797000 0.016000
0.353333 0.797000 0.016000
0.434000 0.797000 0.016000
0.514667 0.797000 0.016000
0.595333 0.797000 0.016000
0.676000 0.797000 0.016000
0.756667 0.797000 0.016000
0.837333 0.797000 0.016000
0.918000 0.797000 0.016000
0.998667 0.797000 0.016000
1.000000 0.797000 0.016000
1.000000 0.797000 0.016000
0.000000 0.874000 0.034333
0.016000 0.874000 0.034333
0.111333 0.874000 0.016000
0.192000 0.874000 0.016000
0.272667 0.874000 0.016000
0.353333 0.874000 0.016000
0.434000 0.874000 0.016000
0.514667 0.874000 0.016000
0.595333 0.874000 0.016000
0.676000 0.874000 0.016000
0.756667 0.874000 0.016000
0.837333 0.874000 0.016000
0.918000 0.874000 0.016000
0.998667 0.874000 0.016000
1.000000 0.874000 0.016000
1.000000 0.874000 0.016000
0.000000 0.951000 0.016000
0.030667 0.951000 0.016000
0.111333 0.951000 0.016000
0.192000 0.951000 0.016000
0.272667 0.951000 0.016000
0.353333 0.951000 0.016000
0.434000 0.951000 0.016000
0.514667 0.951000 0.016000
0.595333 0.951000 0.016000
0.676000 0.951000 0.016000
0.756667 0.951000 0.016000
0.837333 0.951000 0.016000
0.918000 0.951000 0.016000
0.998667 0.951000 0.016000
1.000000 0.951000 0.016000
1.000000 0.951000 0.016000
0.000000 1.000000 0.016000
0.030667 1.000000 0.016000
0.111333 1.000000 0.016000
0.192000 1.000000 0.016000
0.272667 1.000000 0.016000
0.353333 1.000000 0.016000
0.434000 1.000000 0.016000
0.514667 1.000000 0.016000
0.595333 1.000000 0.016000
0.676000 1.000000 0.016000
0.756667 1.000000 0.016000
0.837333 1.000000 0.016000
0.918000 1.000000 0.016000
0.998667 1.000000 0.016000
1.000000 1.000000 0.016000
1.000000 1.000000 0.016000
0.000000 1.000000 0.016000
0.030667 1.000000 0.016000
0.111333 1.000000 0.016000
0.192000 1.000000 0.016000
0.272667 1.000000 0.016000
0.353333 1.000000 0.016000
0.434000 1.000000 0.016000
0.514667 1.000000 0.016000
0.595333 1.000000 0.016000
0.676000 1.000000 0.016000
0.756667 1.000000 0.016000
0.837333 1.000000 0.016000
0.918000 1.000000 0.016000
0.998667 1.000000 0.016000
1.000000 1.000000 0.016000
1.000000 1.000000 0.016000
0.000000 0.000000 0.118667
0.016000 0.000000 0.118667
0.082000 0.000000 0.118667
0.148000 0.000000 0.118667
0.214000 0.000000 0.118667
0.280000 0.000000 0.118667
0.346000 0.000000 0.118667
0.412000 0.000000 0.118667
0.478000 0.000000 0.118667
0.544000 0.000000 0.118667
0.610000 0.000000 0.118667
0.676000 0.000000 0.118667
0.742000 0.000000 0.118667
0.808000 0.000000 0.118667
0.874000 0.000000 0.118667
0.940000 0.000000 0.118667
0.000000 0.027000 0.118667
0.016000 0.027000 0.118667
0.082000 0.027000 0.118667
0.148000 0.027000 0.118667
0.214000 0.027000 0.118667
0.280000 0.027000 0.118667
0.346000 0.027000 0.118667
0.412000 0.027000 0.118667
0.478000 0.027000 0.118667
0.544000 0.027000 0.118667
0.610000 0.027000 0.118667
0.676000 0.027000 0.118667
0.742000 0.027000 0.118667
0.808000 0.027000 0.118667
0.874000 0.027000 0.118667
0.940000 0.027000 0.118667
0.000000 0.104000 0.118667
0.016000 0.104000 0.118667
0.082000 0.104000 0.118667
0.148000 0.104000 0.118667
0.214000 0.104000 0.118667
0.280000 0.104000 0.118667
0.346000 0.104000 0.118667
0.412000 0.104000 0.118667
0.478000 0.104000 0.118667
0.544000 0.104000 0.118667
0.610000 0.104000 0.118667
0.676000 0.104000 0.118667
0.742000 0.104000 0.118667
0.808000 0.104000 0.118667
0.874000 0.104000 0.118667
0.940000 0.104000 0.118667
0.000000 0.181000 0.118667
0.016000 0.181000 0.118667
0.082000 0.181000 0.118667
0.148000 0.181000 0.118667
0.214000 0.181000 0.118667
0.280000 0.181000 0.118667
0.346000 0.181000 0.118667
0.412000 0.181000 0.118667
0.478000 0.181000 0.118667
0.544000 0.181000 0.118667
0.610000 0.181000 0.118667
0.676000 0.181000 0.118667
0.742000 0.181000 0.118667
0.808000 0.181000 0.118667
0.874000 0.181000 0.118667
0.940000 0.181000 0.118667
0.000000 0.258000 0.118667
0.016000 0.258000 0.118667
0.082000 0.258000 0.118667
0.148000 0.258000 0.118667
0.214000 0.258000 0.118667
0.280000 0.258000 0.118667
0.346000 0.258000 0.118667
0.412000 0.258000 0.118667
0.478000 0.258000 0.118667
0.544000 0.258000 0.118667
0.610000 0.258000 0.118667
0.676000 0.258000 0.118667
0.742000 0.258000 0.118667
0.808000 0.258000 0.118667
0.874000 0.258000 0.118667
0.940000 0.258000 0.118667
0.000000 0.335000 0.118667
0.016000 0.335000 0.118667
0.082000 0.335000 0.118667
0.148000 0.335000 0.118667
0.214000 0.335000 0.118667
0.280000 0.335000 0.118667
0.346000 0.335000 0.118667
0.412000 0.335000 0.118667
0.478000 0.335000 0.118667
0.544000 0.335000 0.118667
0.610000 0.335000 0.118667
0.676000 0.335000 0.118667
0.742000 0.335000 0.118667
0.808000 0.335000 0.118667
0.874000 0.335000 0.118667
1.000000 0.335000 0.082000
0.000000 0.412000 0.118667
0.016000 0.412000 0.118667
0.082000 0.412000 0.118667
0.148000 0.412000 0.118667
0.214000 0.412000 0.118667
0.280000 0.412000 0.118667
0.346000 0.412000 0.118667
0.412000 0.412000 0.118667
0.478000 0.412000 0.118667
0.544000 0.412000 0.118667
0.610000 0.412000 0.118667
0.676000 0.412000 0.118667
0.742000 0.412000 0.118667
0.998667 0.412000 0.082000
1.000000 0.412000 0.082000
1.000000 0.412000 0.082000
0.000000 0.489000 0.118667
0.016000 0.489000 0.118667
0.082000 0.489000 0.118667
0.148000 0.489000 0.118667
0.214000 0.489000 0.118667
0.280000 0.489000 0.118667
0.346000 0.489000 0.118667
0.412000 0.489000 0.118667
0.478000 0.489000 0.118667
0.544000 0.489000 0.118667
0.610000 0.489000 0.118667
0.837333 0.489000 0.082000
0.918000 0.489000 0.082000
0.998667 0.489000 0.082000
1.000000 0.489000 0.082000
1.000000 0.489000 0.082000
0.000000 0.566000 0.118667
0.016000 0.566000 0.118667
0.082000 0.566000 0.118667
0.148000 0.566000 0.118667
0.214000 0.566000 0.118667
0.280000 0.566000 0.118667
0.346000 0.566000 0.118667
0.412000 0.566000 0.118667
0.478000 0.566000 0.118667
0.676000 0.566000 0.082000
0.756667 0.566000 0.082000
0.837333 0.566000 0.082000
0.918000 0.566000 0.082000
0.998667 0.566000 0.082000
1.000000 0.566000 0.082000
1.000000 0.566000 0.082000
0.000000 0.643000 0.118667
0.016000 0.643000 0.118667
0.082000 0.643000 0.118667
0.148000 0.643000 0.118667
0.214000 0.643000 0.118667
0.280000 0.643000 0.118667
0.346000 0.643000 0.118667
0.514667 0.643000 0.082000
0.595333 0.643000 0.082000
0.676000 0.643000 0.082000
0.756667 0.643000 0.082000
0.837333 0.643000 0.082000
0.918000 0.643000 0.082000
0.998667 0.643000 0.082000
1.000000 0.643000 0.082000
1.000000 0.643000 0.082000
0.000000 0.720000 0.118667
0.016000 0.720000 0.118667
0.082000 0.720000 0.118667
0.148000 0.720000 0.118667
0.214000 0.720000 0.118667
0.353333 0.720000 0.082000
0.434000 0.720000 0.082000
0.514667 0.720000 0.082000
0.595333 0.720000 0.082000
0.676000 0.720000 0.082000
0.756667 0.720000 0.082000
0.837333 0.720000 0.082000
0.918000 0.720000 0.082000
0.998667 0.720000 0.082000
1.000000 0.720000 0.082000
1.000000 0.720000 0.082000
0.000000 0.797000 0.118667
0.016000 0.797000 0.118667
0.082000 0.797000 0.118667
0.192000 0.797000 0.082000
0.272667 0.797000 0.082000
0.353333 0.797000 0.082000
0.434000 0.797000 0.082000
0.514667 0.797000 0.082000
0.595333 0.797000 0.082000
0.676000 0.797000 0.082000
0.756667 0.797000 0.082000
0.837333 0.797000 0.082000
0.918000 0.797000 0.082000
0.998667 0.797000 0.082000
1.000000 0.797000 0.082000
1.000000 0.797000 0.082000
0.000000 0.874000 0.118667
0.030667 0.874000 0.082000
0.111333 0.874000 0.082000
0.192000 0.874000 0.082000
0.272667 0.874000 0.082000
0.353333 0.874000 0.082000
0.434000 0.874000 0.082000
0.514667 0.874000 0.082000
0.595333 0.874000 0.082000
0.676000 0.874000 0.082000
0.756667 0.874000 0.082000
0.837333 0.874000 0.082000
0.918000 0.874000 0.082000
0.998667 0.874000 0.082000
1.000000 0.874000 0.082000
1.000000 0.874000 0.082000
0.000000 0.951000 0.082000
0.030667 0.951000 0.082000
0.111333 0.951000 0.082000
0.192000 0.951000 0.082000
0.272667 0.951000 0.082000
0.353333 0.951000 0.082000
0.434000 0.951000 0.082000
0.514667 0.951000 0.082000
0.595333 0.951000 0.082000
0.676000 0.951000 0.082000
0.756667 0.951000 0.082000
0.837333 0.951000 0.082000
0.918000 0.951000 0.082000
0.998667 0.951000 0.082000
1.000000 0.951000 0.082000
1.000000 0.951000 0.082000
0.000000 1.000000 0.082000
0.030667 1.000000 0.082000
0.111333 1.000000 0.082000
0.192000 1.000000 0.082000
0.272667 1.000000 0.082000
0.353333 1.000000 0.082000
0.434000 1.000000 0.082000
0.514667 1.000000 0.082000
0.595333 1.000000 0.082000
0.676000 1.000000 0.082000
0.756667 1.000000 0.082000
0.837333 1.000000 0.082000
0.918000 1.000000 0.082000
0.998667 1.000000 0.082000
1.000000 1.000000 0.082000
1.000000 1.000000 0.082000
0.000000 1.000000 0.082000
0.030667 1.000000 0.082000
0.111333 1.000000 0.082000
0.192000 1.000000 0.082000
0.272667 1.000000 0.082000
0.353333 1.000000 0.082000
0.434000 1.000000 0.082000
0.514667 1.000000 0.082000
0.595333 1.000000 0.082000
0.676000 1.000000 0.082000
0.756667 1.000000 0.082000
0.837333 1.000000 0.082000
0.918000 1.000000 0.082000
0.998667 1.000000 0.082000
1.000000 1.000000 0.082000
1.000000 1.000000 0.082000
0.000000 0.000000 0.203000
0.016000 0.000000 0.203000
0.082000 0.000000 0.203000
0.148000 0.000000 0.203000
0.214000 0.000000 0.203000
0.280000 0.000000 0.203000
0.346000 0.000000 0.203000
0.412000 0.000000 0.203000
0.478000 0.000000 0.203000
0.544000 0.000000 0.203000
0.610000 0.000000 0.203000
0.676000 0.000000 0.203000
0.742000 0.000000 0.203000
0.808000 0.000000 0.203000
0.874000 0.000000 0.203000
0.940000 0.000000 0.203000
0.000000 0.027000 0.203000
0.016000 0.027000 0.203000
0.082000 0.027000 0.203000
0.148000 0.027000 0.203000
0.214000 0.027000 0.203000
0.280000 0.027000 0.203000
0.346000 0.027000 0.203000
0.412000 0.027000 0.203000
0.478000 0.027000 0.203000
0.544000 0.027000 0.203000
0.610000 0.027000 0.203000
0.676000 0.027000 0.203000
0.742000 0.027000 0.203000
0.808000 0.027000 0.203000
0.874000 0.027000 0.203000
0.940000 0.027000 0.203000
0.000000 0.104000 0.203000
0.016000 0.104000 0.203000
0.082000 0.104000 0.203000
0.148000 0.104000 0.203000
0.214000 0.104000 0.203000
0.280000 0.104000 0.203000
0.346000 0.104000 0.203000
0.412000 0.104000 0.203000
0.478000 0.104000 0.203000
0.544000 0.104000 0.203000
0.610000 0.104000 0.203000
0.676000 0.104000 0.203000
0.742000 0.104000 0.203000
0.808000 0.104000 0.203000
0.874000 0.104000 0.203000
0.940000 0.104000 0.203000
0.000000 0.181000 0.203000
0.016000 0.181000 0.203000
0.082000 0.181000 0.203000
0.148000 0.181000 0.203000
0.214000 0.181000 0.203000
0.280000 0.181000 0.203000
0.346000 0.181000 0.203000
0.412000 0.181000 0.203000
0.478000 0.181000 0.203000
0.544000 0.181000 0.203000
0.610000 0.181000 0.203000
0.676000 0.181000 0.203000
0.742000 0.181000 0.203000
0.808000 0.181000 0.203000
0.874000 0.181000 0.203000
0.940000 0.181000 0.203000
0.000000 0.258000 0.203000
0.016000 0.258000 0.203000
0.082000 0.258000 0.203000
0.148000 0.258000 0.203000
0.214000 0.258000 0.203000
0.280000 0.258000 0.203000
0.346000 0.258000 0.203000
0.412000 0.258000 0.203000
0.478000 0.258000 0.203000
0.544000 0.258000 0.203000
0.610000 0.258000 0.203000
0.676000 0.258000 0.203000
0.742000 0.258000 0.203000
0.808000 0.258000 0.203000
0.874000 0.258000 0.203000
0.940000 0.258000 0.203000
0.000000 0.335000 0.203000
0.016000 0.335000 0.203000
0.082000 0.335000 0.203000
0.148000 0.335000 0.203000
0.214000 0.335000 0.203000
0.280000 0.335000 0.203000
0.346000 0.335000 0.203000
0.412000 0.335000 0.203000
0.478000 0.335000 0.203000
0.544000 0.335000 0.203000
0.610000 0.335000 0.203000
0.676000 0.335000 0.203000
0.742000 0.335000 0.203000
0.808000 0.335000 0.203000
0.874000 0.335000 0.203000
1.000000 0.335000 0.148000
0.000000 0.412000 0.203000
0.016000 0.412000 0.203000
0.082000 0.412000 0.203000
0.148000 0.412000 0.203000
0.214000 0.412000 0.203000
0.280000 0.412000 0.203000
0.346000 0.412000 0.203000
0.412000 0.412000 0.203000
0.478000 0.412000 0.203000
0.544000 0.412000 0.203000
0.610000 0.412000 0.203000
0.676000 0.412000 0.203000
0.742000 0.412000 0.203000
0.998667 0.412000 0.148000
1.000000 0.412000 0.148000
1.000000 0.412000 0.148000
0.000000 0.489000 0.203000
0.016000 0.489000 0.203000
0.082000 0.489000 0.203000
0.148000 0.489000 0.203000
0.214000 0.489000 0.203000
0.280000 0.489000 0.203000
0.346000 0.489000 0.203000
