luts/Cinematic_Teal_Orange.cube
TITLE "Cinematic_Teal_Orange"
LUT_3D_SIZE 6
0.000000 0.000000 0.000000
0.148000 0.000000 0.000000
0.346000 0.000000 0.000000
0.544000 0.000000 0.000000
0.742000 0.000000 0.000000
0.940000 0.000000 0.000000
0.000000 0.181000 0.000000
0.148000 0.181000 0.000000
0.346000 0.181000 0.000000
0.544000 0.181000 0.000000
0.742000 0.181000 0.000000
0.940000 0.181000 0.000000
0.000000 0.412000 0.000000
0.148000 0.412000 0.000000
0.346000 0.412000 0.000000
0.544000 0.412000 0.000000
0.742000 0.412000 0.000000
1.000000 0.412000 0.000000
0.000000 0.643000 0.000000
0.148000 0.643000 0.000000
0.346000 0.643000 0.000000
0.676000 0.643000 0.000000
0.918000 0.643000 0.000000
1.000000 0.643000 0.000000
0.000000 0.874000 0.000000
0.192000 0.874000 0.000000
0.434000 0.874000 0.000000
0.676000 0.874000 0.000000
0.918000 0.874000 0.000000
1.000000 0.874000 0.000000
0.000000 1.000000 0.000000
0.192000 1.000000 0.000000
0.434000 1.000000 0.000000
0.676000 1.000000 0.000000
0.918000 1.000000 0.000000
1.000000 1.000000 0.000000
0.000000 0.000000 0.203000
0.148000 0.000000 0.203000
0.346000 0.000000 0.203000
0.544000 0.000000 0.203000
0.742000 0.000000 0.203000
0.940000 0.000000 0.203000
0.000000 0.181000 0.203000
0.148000 0.181000 0.203000
0.346000 0.181000 0.203000
0.544000 0.181000 0.203000
0.742000 0.181000 0.203000
0.940000 0.181000 0.203000
0.000000 0.412000 0.203000
0.148000 0.412000 0.203000
0.346000 0.412000 0.203000
0.544000 0.412000 0.203000
0.742000 0.412000 0.203000
1.000000 0.412000 0.148000
0.000000 0.643000 0.203000
0.148000 0.643000 0.203000
0.346000 0.643000 0.203000
0.676000 0.643000 0.148000
0.918000 0.643000 0.148000
1.000000 0.643000 0.148000
0.000000 0.874000 0.203000
0.192000 0.874000 0.148000
0.434000 0.874000 0.148000
0.676000 0.874000 0.148000
0.918000 0.874000 0.148000
1.000000 0.874000 0.148000
0.000000 1.000000 0.148000
0.192000 1.000000 0.148000
0.434000 1.000000 0.148000
0.676000 1.000000 0.148000
0.918000 1.000000 0.148000
1.000000 1.000000 0.148000
0.000000 0.000000 0.456000
0.148000 0.000000 0.456000
0.346000 0.000000 0.456000
0.544000 0.000000 0.456000
0.742000 0.000000 0.456000
0.940000 0.000000 0.456000
0.000000 0.181000 0.456000
0.148000 0.181000 0.456000
0.346000 0.181000 0.456000
0.544000 0.181000 0.456000
0.742000 0.181000 0.456000
0.940000 0.181000 0.456000
0.000000 0.412000 0.456000
0.148000 0.412000 0.456000
0.346000 0.412000 0.456000
0.544000 0.412000 0.456000
0.918000 0.412000 0.346000
1.000000 0.412000 0.346000
0.000000 0.643000 0.456000
0.148000 0.643000 0.456000
0.434000 0.643000 0.346000
0.676000 0.643000 0.346000
0.918000 0.643000 0.346000
1.000000 0.643000 0.346000
0.000000 0.874000 0.346000
0.192000 0.874000 0.346000
0.434000 0.874000 0.346000
0.676000 0.874000 0.346000
0.918000 0.874000 0.346000
1.000000 0.874000 0.346000
0.000000 1.000000 0.346000
0.192000 1.000000 0.346000
0.434000 1.000000 0.346000
0.676000 1.000000 0.346000
0.918000 1.000000 0.346000
1.000000 1.000000 0.346000
0.000000 0.000000 0.709000
0.148000 0.000000 0.709000
0.346000 0.000000 0.709000
0.544000 0.000000 0.709000
0.742000 0.000000 0.709000
0.940000 0.000000 0.709000
0.000000 0.181000 0.709000
0.148000 0.181000 0.709000
0.346000 0.181000 0.709000
0.544000 0.181000 0.709000
0.742000 0.181000 0.709000
0.940000 0.181000 0.709000
0.000000 0.412000 0.709000
0.148000 0.412000 0.709000
0.346000 0.412000 0.709000
0.544000 0.412000 0.709000
0.918000 0.412000 0.544000
1.000000 0.412000 0.544000
0.000000 0.643000 0.709000
0.148000 0.643000 0.709000
0.434000 0.643000 0.544000
0.676000 0.643000 0.544000
0.918000 0.643000 0.544000
1.000000 0.643000 0.544000
0.000000 0.874000 0.544000
0.192000 0.874000 0.544000
0.434000 0.874000 0.544000
0.676000 0.874000 0.544000
0.918000 0.874000 0.544000
1.000000 0.874000 0.544000
0.000000 1.000000 0.544000
0.192000 1.000000 0.544000
0.434000 1.000000 0.544000
0.676000 1.000000 0.544000
0.918000 1.000000 0.544000
1.000000 1.000000 0.544000
0.000000 0.000000 0.962000
0.148000 0.000000 0.962000
0.346000 0.000000 0.962000
0.544000 0.000000 0.962000
0.742000 0.000000 0.962000
0.940000 0.000000 0.962000
0.000000 0.181000 0.962000
0.148000 0.181000 0.962000
0.346000 0.181000 0.962000
0.544000 0.181000 0.962000
0.742000 0.181000 0.962000
1.000000 0.181000 0.742000
0.000000 0.412000 0.962000
0.148000 0.412000 0.962000
0.346000 0.412000 0.962000
0.676000 0.412000 0.742000
0.918000 0.412000 0.742000
1.000000 0.412000 0.742000
0.000000 0.643000 0.962000
0.192000 0.643000 0.742000
0.434000 0.643000 0.742000
0.676000 0.643000 0.742000
0.918000 0.643000 0.742000
1.000000 0.643000 0.742000
0.000000 0.874000 0.742000
0.192000 0.874000 0.742000
0.434000 0.874000 0.742000
0.676000 0.874000 0.742000
0.918000 0.874000 0.742000
1.000000 0.874000 0.742000
0.000000 1.000000 0.742000
0.192000 1.000000 0.742000
0.434000 1.000000 0.742000
0.676000 1.000000 0.742000
0.918000 1.000000 0.742000
1.000000 1.000000 0.742000
0.000000 0.000000 1.000000
0.148000 0.000000 1.000000
0.346000 0.000000 1.000000
0.544000 0.000000 1.000000
0.742000 0.000000 1.000000
0.940000 0.000000 1.000000
0.000000 0.181000 1.000000
0.148000 0.181000 1.000000
0.346000 0.181000 1.000000
0.544000 0.181000 1.000000
0.742000 0.181000 1.000000
1.000000 0.181000 0.940000
0.000000 0.412000 1.000000
0.148000 0.412000 1.000000
0.346000 0.412000 1.000000
0.676000 0.412000 0.940000
0.918000 0.412000 0.940000
1.000000 0.412000 0.940000
0.000000 0.643000 1.000000
0.192000 0.643000 0.940000
0.434000 0.643000 0.940000
0.676000 0.643000 0.940000
0.918000 0.643000 0.940000
1.000000 0.643000 0.940000
0.000000 0.874000 0.940000
0.192000 0.874000 0.940000
0.434000 0.874000 0.940000
0.676000 0.874000 0.940000
0.918000 0.874000 0.940000
1.000000 0.874000 0.940000
0.000000 1.000000 0.940000
0.192000 1.000000 0.940000
0.434000 1.000000 0.940000
0.676000 1.000000 0.940000
0.918000 1.000000 0.940000
1.000000 1.000000 0.940000
