luts/Cool_Tone.cube
TITLE "Cool_Tone"
LUT_3D_SIZE 16
0.000000 0.000000 0.000000
0.056667 0.000000 0.000000
0.113333 0.000000 0.000000
0.170000 0.000000 0.000000
0.226667 0.000000 0.000000
0.283333 0.000000 0.000000
0.340000 0.000000 0.000000
0.396667 0.000000 0.000000
0.453333 0.000000 0.000000
0.510000 0.000000 0.000000
0.566667 0.000000 0.000000
0.623333 0.000000 0.000000
0.680000 0.000000 0.000000
0.736667 0.000000 0.000000
0.793333 0.000000 0.000000
0.850000 0.000000 0.000000
0.000000 0.066667 0.000000
0.056667 0.066667 0.000000
0.113333 0.066667 0.000000
0.170000 0.066667 0.000000
0.226667 0.066667 0.000000
0.283333 0.066667 0.000000
0.340000 0.066667 0.000000
0.396667 0.066667 0.000000
0.453333 0.066667 0.000000
0.510000 0.066667 0.000000
0.566667 0.066667 0.000000
0.623333 0.066667 0.000000
0.680000 0.066667 0.000000
0.736667 0.066667 0.000000
0.793333 0.066667 0.000000
0.850000 0.066667 0.000000
0.000000 0.133333 0.000000
0.056667 0.133333 0.000000
0.113333 0.133333 0.000000
0.170000 0.133333 0.000000
0.226667 0.133333 0.000000
0.283333 0.133333 0.000000
0.340000 0.133333 0.000000
0.396667 0.133333 0.000000
0.453333 0.133333 0.000000
0.510000 0.133333 0.000000
0.566667 0.133333 0.000000
0.623333 0.133333 0.000000
0.680000 0.133333 0.000000
0.736667 0.133333 0.000000
0.793333 0.133333 0.000000
0.850000 0.133333 0.000000
0.000000 0.200000 0.000000
0.056667 0.200000 0.000000
0.113333 0.200000 0.000000
0.170000 0.200000 0.000000
0.226667 0.200000 0.000000
0.283333 0.200000 0.000000
0.340000 0.200000 0.000000
0.396667 0.200000 0.000000
0.453333 0.200000 0.000000
0.510000 0.200000 0.000000
0.566667 0.200000 0.000000
0.623333 0.200000 0.000000
0.680000 0.200000 0.000000
0.736667 0.200000 0.000000
0.793333 0.200000 0.000000
0.850000 0.200000 0.000000
0.000000 0.266667 0.000000
0.056667 0.266667 0.000000
0.113333 0.266667 0.000000
0.170000 0.266667 0.000000
0.226667 0.266667 0.000000
0.283333 0.266667 0.000000
0.340000 0.266667 0.000000
0.396667 0.266667 0.000000
0.453333 0.266667 0.000000
0.510000 0.266667 0.000000
0.566667 0.266667 0.000000
0.623333 0.266667 0.000000
0.680000 0.266667 0.000000
0.736667 0.266667 0.000000
0.793333 0.266667 0.000000
0.850000 0.266667 0.000000
0.000000 0.333333 0.000000
0.056667 0.333333 0.000000
0.113333 0.333333 0.000000
0.170000 0.333333 0.000000
0.226667 0.333333 0.000000
0.283333 0.333333 0.000000
0.340000 0.333333 0.000000
0.396667 0.333333 0.000000
0.453333 0.333333 0.000000
0.510000 0.333333 0.000000
0.566667 0.333333 0.000000
0.623333 0.333333 0.000000
0.680000 0.333333 0.000000
0.736667 0.333333 0.000000
0.793333 0.333333 0.000000
0.850000 0.333333 0.000000
0.000000 0.400000 0.000000
0.056667 0.400000 0.000000
0.113333 0.400000 0.000000
0.170000 0.400000 0.000000
0.226667 0.400000 0.000000
0.283333 0.400000 0.000000
0.340000 0.400000 0.000000
0.396667 0.400000 0.000000
0.453333 0.400000 0.000000
0.510000 0.400000 0.000000
0.566667 0.400000 0.000000
0.623333 0.400000 0.000000
0.680000 0.400000 0.000000
0.736667 0.400000 0.000000
0.793333 0.400000 0.000000
0.850000 0.400000 0.000000
0.000000 0.466667 0.000000
0.056667 0.466667 0.000000
0.113333 0.466667 0.000000
0.170000 0.466667 0.000000
0.226667 0.466667 0.000000
0.283333 0.466667 0.000000
0.340000 0.466667 0.000000
0.396667 0.466667 0.000000
0.453333 0.466667 0.000000
0.510000 0.466667 0.000000
0.566667 0.466667 0.000000
0.623333 0.466667 0.000000
0.680000 0.466667 0.000000
0.736667 0.466667 0.000000
0.793333 0.466667 0.000000
0.850000 0.466667 0.000000
0.000000 0.533333 0.000000
0.056667 0.533333 0.000000
0.113333 0.533333 0.000000
0.170000 0.533333 0.000000
0.226667 0.533333 0.000000
0.283333 0.533333 0.000000
0.340000 0.533333 0.000000
0.396667 0.533333 0.000000
0.453333 0.533333 0.000000
0.510000 0.533333 0.000000
0.566667 0.533333 0.000000
0.623333 0.533333 0.000000
0.680000 0.533333 0.000000
0.736667 0.533333 0.000000
0.793333 0.533333 0.000000
0.850000 0.533333 0.000000
0.000000 0.600000 0.000000
0.056667 0.600000 0.000000
0.113333 0.600000 0.000000
0.170000 0.600000 0.000000
0.226667 0.600000 0.000000
0.283333 0.600000 0.000000
0.340000 0.600000 0.000000
0.396667 0.600000 0.000000
0.453333 0.600000 0.000000
0.510000 0.600000 0.000000
0.566667 0.600000 0.000000
0.623333 0.600000 0.000000
0.680000 0.600000 0.000000
0.736667 0.600000 0.000000
0.793333 0.600000 0.000000
0.850000 0.600000 0.000000
0.000000 0.666667 0.000000
0.056667 0.666667 0.000000
0.113333 0.666667 0.000000
0.170000 0.666667 0.000000
0.226667 0.666667 0.000000
0.283333 0.666667 0.000000
0.340000 0.666667 0.000000
0.396667 0.666667 0.000000
0.453333 0.666667 0.000000
0.510000 0.666667 0.000000
0.566667 0.666667 0.000000
0.623333 0.666667 0.000000
0.680000 0.666667 0.000000
0.736667 0.666667 0.000000
0.793333 0.666667 0.000000
0.850000 0.666667 0.000000
0.000000 0.733333 0.000000
0.056667 0.733333 0.000000
0.113333 0.733333 0.000000
0.170000 0.733333 0.000000
0.226667 0.733333 0.000000
0.283333 0.733333 0.000000
0.340000 0.733333 0.000000
0.396667 0.733333 0.000000
0.453333 0.733333 0.000000
0.510000 0.733333 0.000000
0.566667 0.733333 0.000000
0.623333 0.733333 0.000000
0.680000 0.733333 0.000000
0.736667 0.733333 0.000000
0.793333 0.733333 0.000000
0.850000 0.733333 0.000000
0.000000 0.800000 0.000000
0.056667 0.800000 0.000000
0.113333 0.800000 0.000000
0.170000 0.800000 0.000000
0.226667 0.800000 0.000000
0.283333 0.800000 0.000000
0.340000 0.800000 0.000000
0.396667 0.800000 0.000000
0.453333 0.800000 0.000000
0.510000 0.800000 0.000000
0.566667 0.800000 0.000000
0.623333 0.800000 0.000000
0.680000 0.800000 0.000000
0.736667 0.800000 0.000000
0.793333 0.800000 0.000000
0.850000 0.800000 0.000000
0.000000 0.866667 0.000000
0.056667 0.866667 0.000000
0.113333 0.866667 0.000000
0.170000 0.866667 0.000000
0.226667 0.866667 0.000000
0.283333 0.866667 0.000000
0.340000 0.866667 0.000000
0.396667 0.866667 0.000000
0.453333 0.866667 0.000000
0.510000 0.866667 0.000000
0.566667 0.866667 0.000000
0.623333 0.866667 0.000000
0.680000 0.866667 0.000000
0.736667 0.866667 0.000000
0.793333 0.866667 0.000000
0.850000 0.866667 0.000000
0.000000 0.933333 0.000000
0.056667 0.933333 0.000000
0.113333 0.933333 0.000000
0.170000 0.933333 0.000000
0.226667 0.933333 0.000000
0.283333 0.933333 0.000000
0.340000 0.933333 0.000000
0.396667 0.933333 0.000000
0.453333 0.933333 0.000000
0.510000 0.933333 0.000000
0.566667 0.933333 0.000000
0.623333 0.933333 0.000000
0.680000 0.933333 0.000000
0.736667 0.933333 0.000000
0.793333 0.933333 0.000000
0.850000 0.933333 0.000000
0.000000 1.000000 0.000000
0.056667 1.000000 0.000000
0.113333 1.000000 0.000000
0.170000 1.000000 0.000000
0.226667 1.000000 0.000000
0.283333 1.000000 0.000000
0.340000 1.000000 0.000000
0.396667 1.000000 0.000000
0.453333 1.000000 0.000000
0.510000 1.000000 0.000000
0.566667 1.000000 0.000000
0.623333 1.000000 0.000000
0.680000 1.000000 0.000000
0.736667 1.000000 0.000000
0.793333 1.000000 0.000000
0.850000 1.000000 0.000000
0.000000 0.000000 0.080000
0.056667 0.000000 0.080000
0.113333 0.000000 0.080000
0.170000 0.000000 0.080000
0.226667 0.000000 0.080000
0.283333 0.000000 0.080000
0.340000 0.000000 0.080000
0.396667 0.000000 0.080000
0.453333 0.000000 0.080000
0.510000 0.000000 0.080000
0.566667 0.000000 0.080000
0.623333 0.000000 0.080000
0.680000 0.000000 0.080000
0.736667 0.000000 0.080000
0.793333 0.000000 0.080000
0.850000 0.000000 0.080000
0.000000 0.066667 0.080000
0.056667 0.066667 0.080000
0.113333 0.066667 0.080000
0.170000 0.066667 0.080000
0.226667 0.066667 0.080000
0.283333 0.066667 0.080000
0.340000 0.066667 0.080000
0.396667 0.066667 0.080000
0.453333 0.066667 0.080000
0.510000 0.066667 0.080000
0.566667 0.066667 0.080000
0.623333 0.066667 0.080000
0.680000 0.066667 0.080000
0.736667 0.066667 0.080000
0.793333 0.066667 0.080000
0.850000 0.066667 0.080000
0.000000 0.133333 0.080000
0.056667 0.133333 0.080000
0.113333 0.133333 0.080000
0.170000 0.133333 0.080000
0.226667 0.133333 0.080000
0.283333 0.133333 0.080000
0.340000 0.133333 0.080000
0.396667 0.133333 0.080000
0.453333 0.133333 0.080000
0.510000 0.133333 0.080000
0.566667 0.133333 0.080000
0.623333 0.133333 0.080000
0.680000 0.133333 0.080000
0.736667 0.133333 0.080000
0.793333 0.133333 0.080000
0.850000 0.133333 0.080000
0.000000 0.200000 0.080000
0.056667 0.200000 0.080000
0.113333 0.200000 0.080000
0.170000 0.200000 0.080000
0.226667 0.200000 0.080000
0.283333 0.200000 0.080000
0.340000 0.200000 0.080000
0.396667 0.200000 0.080000
0.453333 0.200000 0.080000
0.510000 0.200000 0.080000
0.566667 0.200000 0.080000
0.623333 0.200000 0.080000
0.680000 0.200000 0.080000
0.736667 0.200000 0.080000
0.793333 0.200000 0.080000
0.850000 0.200000 0.080000
0.000000 0.266667 0.080000
0.056667 0.266667 0.080000
0.113333 0.266667 0.080000
0.170000 0.266667 0.080000
0.226667 0.266667 0.080000
0.283333 0.266667 0.080000
0.340000 0.266667 0.080000
0.396667 0.266667 0.080000
0.453333 0.266667 0.080000
0.510000 0.266667 0.080000
0.566667 0.266667 0.080000
0.623333 0.266667 0.080000
0.680000 0.266667 0.080000
0.736667 0.266667 0.080000
0.793333 0.266667 0.080000
0.850000 0.266667 0.080000
0.000000 0.333333 0.080000
0.056667 0.333333 0.080000
0.113333 0.333333 0.080000
0.170000 0.333333 0.080000
0.226667 0.333333 0.080000
0.283333 0.333333 0.080000
0.340000 0.333333 0.080000
0.396667 0.333333 0.080000
0.453333 0.333333 0.080000
0.510000 0.333333 0.080000
0.566667 0.333333 0.080000
0.623333 0.333333 0.080000
0.680000 0.333333 0.080000
0.736667 0.333333 0.080000
0.793333 0.333333 0.080000
0.850000 0.333333 0.080000
0.000000 0.400000 0.080000
0.056667 0.400000 0.080000
0.113333 0.400000 0.080000
0.170000 0.400000 0.080000
0.226667 0.400000 0.080000
0.283333 0.400000 0.080000
0.340000 0.400000 0.080000
0.396667 0.400000 0.080000
0.453333 0.400000 0.080000
0.510000 0.400000 0.080000
0.566667 0.400000 0.080000
0.623333 0.400000 0.080000
0.680000 0.400000 0.080000
0.736667 0.400000 0.080000
0.793333 0.400000 0.080000
0.850000 0.400000 0.080000
0.000000 0.466667 0.080000
0.056667 0.466667 0.080000
0.113333 0.466667 0.080000
0.170000 0.466667 0.080000
0.226667 0.466667 0.080000
0.283333 0.466667 0.080000
0.340000 0.466667 0.080000
0.396667 0.466667 0.080000
0.453333 0.466667 0.080000
0.510000 0.466667 0.080000
0.566667 0.466667 0.080000
0.623333 0.466667 0.080000
0.680000 0.466667 0.080000
0.736667 0.466667 0.080000
0.793333 0.466667 0.080000
0.850000 0.466667 0.080000
0.000000 0.533333 0.080000
0.056667 0.533333 0.080000
0.113333 0.533333 0.080000
0.170000 0.533333 0.080000
0.226667 0.533333 0.080000
0.283333 0.533333 0.080000
0.340000 0.533333 0.080000
0.396667 0.533333 0.080000
0.453333 0.533333 0.080000
0.510000 0.533333 0.080000
0.566667 0.533333 0.080000
0.623333 0.533333 0.080000
0.680000 0.533333 0.080000
0.736667 0.533333 0.080000
0.793333 0.533333 0.080000
0.850000 0.533333 0.080000
0.000000 0.600000 0.080000
0.056667 0.600000 0.080000
0.113333 0.600000 0.080000
0.170000 0.600000 0.080000
0.226667 0.600000 0.080000
0.283333 0.600000 0.080000
0.340000 0.600000 0.080000
0.396667 0.600000 0.080000
0.453333 0.600000 0.080000
0.510000 0.600000 0.080000
0.566667 0.600000 0.080000
0.623333 0.600000 0.080000
0.680000 0.600000 0.080000
0.736667 0.600000 0.080000
0.793333 0.600000 0.080000
0.850000 0.600000 0.080000
0.000000 0.666667 0.080000
0.056667 0.666667 0.080000
0.113333 0.666667 0.080000
0.170000 0.666667 0.080000
0.226667 0.666667 0.080000
0.283333 0.666667 0.080000
0.340000 0.666667 0.080000
0.396667 0.666667 0.080000
0.453333 0.666667 0.080000
0.510000 0.666667 0.080000
0.566667 0.666667 0.080000
0.623333 0.666667 0.080000
0.680000 0.666667 0.080000
0.736667 0.666667 0.080000
0.793333 0.666667 0.080000
0.850000 0.666667 0.080000
0.000000 0.733333 0.080000
0.056667 0.733333 0.080000
0.113333 0.733333 0.080000
0.170000 0.733333 0.080000
0.226667 0.733333 0.080000
0.283333 0.733333 0.080000
0.340000 0.733333 0.080000
0.396667 0.733333 0.080000
0.453333 0.733333 0.080000
0.510000 0.733333 0.080000
0.566667 0.733333 0.080000
0.623333 0.733333 0.080000
0.680000 0.733333 0.080000
0.736667 0.733333 0.080000
0.793333 0.733333 0.080000
0.850000 0.733333 0.080000
0.000000 0.800000 0.080000
0.056667 0.800000 0.080000
0.113333 0.800000 0.080000
0.170000 0.800000 0.080000
0.226667 0.800000 0.080000
0.283333 0.800000 0.080000
0.340000 0.800000 0.080000
0.396667 0.800000 0.080000
0.453333 0.800000 0.080000
0.510000 0.800000 0.080000
0.566667 0.800000 0.080000
0.623333 0.800000 0.080000
0.680000 0.800000 0.080000
0.736667 0.800000 0.080000
0.793333 0.800000 0.080000
0.850000 0.800000 0.080000
0.000000 0.866667 0.080000
0.056667 0.866667 0.080000
0.113333 0.866667 0.080000
0.170000 0.866667 0.080000
0.226667 0.866667 0.080000
0.283333 0.866667 0.080000
0.340000 0.866667 0.080000
0.396667 0.866667 0.080000
0.453333 0.866667 0.080000
0.510000 0.866667 0.080000
0.566667 0.866667 0.080000
0.623333 0.866667 0.080000
0.680000 0.866667 0.080000
0.736667 0.866667 0.080000
0.793333 0.866667 0.080000
0.850000 0.866667 0.080000
0.000000 0.933333 0.080000
0.056667 0.933333 0.080000
0.113333 0.933333 0.080000
0.170000 0.933333 0.080000
0.226667 0.933333 0.080000
0.283333 0.933333 0.080000
0.340000 0.933333 0.080000
0.396667 0.933333 0.080000
0.453333 0.933333 0.080000
0.510000 0.933333 0.080000
0.566667 0.933333 0.080000
0.623333 0.933333 0.080000
0.680000 0.933333 0.080000
0.736667 0.933333 0.080000
0.793333 0.933333 0.080000
0.850000 0.933333 0.080000
0.000000 1.000000 0.080000
0.056667 1.000000 0.080000
0.113333 1.000000 0.080000
0.170000 1.000000 0.080000
0.226667 1.000000 0.080000
0.283333 1.000000 0.080000
0.340000 1.000000 0.080000
0.396667 1.000000 0.080000
0.453333 1.000000 0.080000
0.510000 1.000000 0.080000
0.566667 1.000000 0.080000
0.623333 1.000000 0.080000
0.680000 1.000000 0.080000
0.736667 1.000000 0.080000
0.793333 1.000000 0.080000
0.850000 1.000000 0.080000
0.000000 0.000000 0.160000
0.056667 0.000000 0.160000
0.113333 0.000000 0.160000
0.170000 0.000000 0.160000
0.226667 0.000000 0.160000
0.283333 0.000000 0.160000
0.340000 0.000000 0.160000
0.396667 0.000000 0.160000
0.453333 0.000000 0.160000
0.510000 0.000000 0.160000
0.566667 0.000000 0.160000
0.623333 0.000000 0.160000
0.680000 0.000000 0.160000
0.736667 0.000000 0.160000
0.793333 0.000000 0.160000
0.850000 0.000000 0.160000
0.000000 0.066667 0.160000
0.056667 0.066667 0.160000
0.113333 0.066667 0.160000
0.170000 0.066667 0.160000
0.226667 0.066667 0.160000
0.283333 0.066667 0.160000
0.340000 0.066667 0.160000
0.396667 0.066667 0.160000
0.453333 0.066667 0.160000
0.510000 0.066667 0.160000
0.566667 0.066667 0.160000
0.623333 0.066667 0.160000
0.680000 0.066667 0.160000
0.736667 0.066667 0.160000
0.793333 0.066667 0.160000
0.850000 0.066667 0.160000
0.000000 0.133333 0.160000
0.056667 0.133333 0.160000
0.113333 0.133333 0.160000
0.170000 0.133333 0.160000
0.226667 0.133333 0.160000
0.283333 0.133333 0.160000
0.340000 0.133333 0.160000
0.396667 0.133333 0.160000
0.453333 0.133333 0.160000
0.510000 0.133333 0.160000
0.566667 0.133333 0.160000
0.623333 0.133333 0.160000
0.680000 0.133333 0.160000
0.736667 0.133333 0.160000
0.793333 0.133333 0.160000
0.850000 0.133333 0.160000
0.000000 0.200000 0.160000
0.056667 0.200000 0.160000
0.113333 0.200000 0.160000
0.170000 0.200000 0.160000
0.226667 0.200000 0.160000
0.283333 0.200000 0.160000
0.340000 0.200000 0.160000
0.396667 0.200000 0.160000
0.453333 0.200000 0.160000
0.510000 0.200000 0.160000
0.566667 0.200000 0.160000
0.623333 0.200000 0.160000
0.680000 0.200000 0.160000
0.736667 0.200000 0.160000
0.793333 0.200000 0.160000
0.850000 0.200000 0.160000
0.000000 0.266667 0.160000
0.056667 0.266667 0.160000
0.113333 0.266667 0.160000
0.170000 0.266667 0.160000
0.226667 0.266667 0.160000
0.283333 0.266667 0.160000
0.340000 0.266667 0.160000
0.396667 0.266667 0.160000
0.453333 0.266667 0.160000
0.510000 0.266667 0.160000
0.566667 0.266667 0.160000
0.623333 0.266667 0.160000
0.680000 0.266667 0.160000
0.736667 0.266667 0.160000
0.793333 0.266667 0.160000
0.850000 0.266667 0.160000
0.000000 0.333333 0.160000
0.056667 0.333333 0.160000
0.113333 0.333333 0.160000
0.170000 0.333333 0.160000
0.226667 0.333333 0.160000
0.283333 0.333333 0.160000
0.340000 0.333333 0.160000
0.396667 0.333333 0.160000
0.453333 0.333333 0.160000
0.510000 0.333333 0.160000
0.566667 0.333333 0.160000
0.623333 0.333333 0.160000
0.680000 0.333333 0.160000
0.736667 0.333333 0.160000
0.793333 0.333333 0.160000
0.850000 0.333333 0.160000
0.000000 0.400000 0.160000
0.056667 0.400000 0.160000
0.113333 0.400000 0.160000
0.170000 0.400000 0.160000
0.226667 0.400000 0.160000
0.283333 0.400000 0.160000
0.340000 0.400000 0.160000
0.396667 0.400000 0.160000
0.453333 0.400000 0.160000
0.510000 0.400000 0.160000
0.566667 0.400000 0.160000
0.623333 0.400000 0.160000
0.680000 0.400000 0.160000
0.736667 0.400000 0.160000
0.793333 0.400000 0.160000
0.850000 0.400000 0.160000
0.000000 0.466667 0.160000
0.056667 0.466667 0.160000
0.113333 0.466667 0.160000
0.170000 0.466667 0.160000
0.226667 0.466667 0.160000
0.283333 0.466667 0.160000
0.340000 0.466667 0.160000
0.396667 0.466667 0.160000
0.453333 0.466667 0.160000
0.510000 0.466667 0.160000
0.566667 0.466667 0.160000
0.623333 0.466667 0.160000
0.680000 0.466667 0.160000
0.736667 0.466667 0.160000
0.793333 0.466667 0.160000
0.850000 0.466667 0.160000
0.000000 0.533333 0.160000
0.056667 0.533333 0.160000
0.113333 0.533333 0.160000
0.170000 0.533333 0.160000
0.226667 0.533333 0.160000
0.283333 0.533333 0.160000
0.340000 0.533333 0.160000
0.396667 0.533333 0.160000
0.453333 0.533333 0.160000
0.510000 0.533333 0.160000
0.566667 0.533333 0.160000
0.623333 0.533333 0.160000
0.680000 0.533333 0.160000
0.736667 0.533333 0.160000
0.793333 0.533333 0.160000
0.850000 0.533333 0.160000
0.000000 0.600000 0.160000
0.056667 0.600000 0.160000
0.113333 0.600000 0.160000
0.170000 0.600000 0.160000
0.226667 0.600000 0.160000
0.283333 0.600000 0.160000
0.340000 0.600000 0.160000
0.396667 0.600000 0.160000
0.453333 0.600000 0.160000
0.510000 0.600000 0.160000
0.566667 0.600000 0.160000
0.623333 0.600000 0.160000
0.680000 0.600000 0.160000
0.736667 0.600000 0.160000
0.793333 0.600000 0.160000
0.850000 0.600000 0.160000
0.000000 0.666667 0.160000
0.056667 0.666667 0.160000
0.113333 0.666667 0.160000
0.170000 0.666667 0.160000
0.226667 0.666667 0.160000
0.283333 0.666667 0.160000
0.340000 0.666667 0.160000
0.396667 0.666667 0.160000
0.453333 0.666667 0.160000
0.510000 0.666667 0.160000
0.566667 0.666667 0.160000
0.623333 0.666667 0.160000
0.680000 0.666667 0.160000
0.736667 0.666667 0.160000
0.793333 0.666667 0.160000
0.850000 0.666667 0.160000
0.000000 0.733333 0.160000
0.056667 0.733333 0.160000
0.113333 0.733333 0.160000
0.170000 0.733333 0.160000
0.226667 0.733333 0.160000
0.283333 0.733333 0.160000
0.340000 0.733333 0.160000
0.396667 0.733333 0.160000
0.453333 0.733333 0.160000
0.510000 0.733333 0.160000
0.566667 0.733333 0.160000
0.623333 0.733333 0.160000
0.680000 0.733333 0.160000
0.736667 0.733333 0.160000
0.793333 0.733333 0.160000
0.850000 0.733333 0.160000
0.000000 0.800000 0.160000
0.056667 0.800000 0.160000
0.113333 0.800000 0.160000
0.170000 0.800000 0.160000
0.226667 0.800000 0.160000
0.283333 0.800000 0.160000
0.340000 0.800000 0.160000
0.396667 0.800000 0.160000
0.453333 0.800000 0.160000
0.510000 0.800000 0.160000
0.566667 0.800000 0.160000
0.623333 0.800000 0.160000
0.680000 0.800000 0.160000
0.736667 0.800000 0.160000
0.793333 0.800000 0.160000
0.850000 0.800000 0.160000
0.000000 0.866667 0.160000
0.056667 0.866667 0.160000
0.113333 0.866667 0.160000
0.170000 0.866667 0.160000
0.226667 0.866667 0.160000
0.283333 0.866667 0.160000
0.340000 0.866667 0.160000
0.396667 0.866667 0.160000
0.453333 0.866667 0.160000
0.510000 0.866667 0.160000
0.566667 0.866667 0.160000
0.623333 0.866667 0.160000
0.680000 0.866667 0.160000
0.736667 0.866667 0.160000
0.793333 0.866667 0.160000
0.850000 0.866667 0.160000
0.000000 0.933333 0.160000
0.056667 0.933333 0.160000
0.113333 0.933333 0.160000
0.170000 0.933333 0.160000
0.226667 0.933333 0.160000
0.283333 0.933333 0.160000
0.340000 0.933333 0.160000
0.396667 0.933333 0.160000
0.453333 0.933333 0.160000
0.510000 0.933333 0.160000
0.566667 0.933333 0.160000
0.623333 0.933333 0.160000
0.680000 0.933333 0.160000
0.736667 0.933333 0.160000
0.793333 0.933333 0.160000
0.850000 0.933333 0.160000
0.000000 1.000000 0.160000
0.056667 1.000000 0.160000
0.113333 1.000000 0.160000
0.170000 1.000000 0.160000
0.226667 1.000000 0.160000
0.283333 1.000000 0.160000
0.340000 1.000000 0.160000
0.396667 1.000000 0.160000
0.453333 1.000000 0.160000
0.510000 1.000000 0.160000
0.566667 1.000000 0.160000
0.623333 1.000000 0.160000
0.680000 1.000000 0.160000
0.736667 1.000000 0.160000
0.793333 1.000000 0.160000
0.850000 1.000000 0.160000
0.000000 0.000000 0.240000
0.056667 0.000000 0.240000
0.113333 0.000000 0.240000
0.170000 0.000000 0.240000
0.226667 0.000000 0.240000
0.283333 0.000000 0.240000
0.340000 0.000000 0.240000
0.396667 0.000000 0.240000
0.453333 0.000000 0.240000
0.510000 0.000000 0.240000
0.566667 0.000000 0.240000
0.623333 0.000000 0.240000
0.680000 0.000000 0.240000
0.736667 0.000000 0.240000
0.793333 0.000000 0.240000
0.850000 0.000000 0.240000
0.000000 0.066667 0.240000
0.056667 0.066667 0.240000
0.113333 0.066667 0.240000
0.170000 0.066667 0.240000
0.226667 0.066667 0.240000
0.283333 0.066667 0.240000
0.340000 0.066667 0.240000
0.396667 0.066667 0.240000
0.453333 0.066667 0.240000
0.510000 0.066667 0.240000
0.566667 0.066667 0.240000
0.623333 0.066667 0.240000
0.680000 0.066667 0.240000
0.736667 0.066667 0.240000
0.793333 0.066667 0.240000
0.850000 0.066667 0.240000
0.000000 0.133333 0.240000
0.056667 0.133333 0.240000
0.113333 0.133333 0.240000
0.170000 0.133333 0.240000
0.226667 0.133333 0.240000
0.283333 0.133333 0.240000
0.340000 0.133333 0.240000
0.396667 0.133333 0.240000
0.453333 0.133333 0.240000
0.510000 0.133333 0.240000
0.566667 0.133333 0.240000
0.623333 0.133333 0.240000
0.680000 0.133333 0.240000
0.736667 0.133333 0.240000
0.793333 0.133333 0.240000
0.850000 0.133333 0.240000
0.000000 0.200000 0.240000
0.056667 0.200000 0.240000
0.113333 0.200000 0.240000
0.170000 0.200000 0.240000
0.226667 0.200000 0.240000
0.283333 0.200000 0.240000
0.340000 0.200000 0.240000
0.396667 0.200000 0.240000
0.453333 0.200000 0.240000
0.510000 0.200000 0.240000
0.566667 0.200000 0.240000
0.623333 0.200000 0.240000
0.680000 0.200000 0.240000
0.736667 0.200000 0.240000
0.793333 0.200000 0.240000
0.850000 0.200000 0.240000
0.000000 0.266667 0.240000
0.056667 0.266667 0.240000
0.113333 0.266667 0.240000
0.170000 0.266667 0.240000
0.226667 0.266667 0.240000
0.283333 0.266667 0.240000
0.340000 0.266667 0.240000
0.396667 0.266667 0.240000
0.453333 0.266667 0.240000
0.510000 0.266667 0.240000
0.566667 0.266667 0.240000
0.623333 0.266667 0.240000
0.680000 0.266667 0.240000
0.736667 0.266667 0.240000
0.793333 0.266667 0.240000
0.850000 0.266667 0.240000
0.000000 0.333333 0.240000
0.056667 0.333333 0.240000
0.113333 0.333333 0.240000
0.170000 0.333333 0.240000
0.226667 0.333333 0.240000
0.283333 0.333333 0.240000
0.340000 0.333333 0.240000
0.396667 0.333333 0.240000
0.453333 0.333333 0.240000
0.510000 0.333333 0.240000
0.566667 0.333333 0.240000
0.623333 0.333333 0.240000
0.680000 0.333333 0.240000
0.736667 0.333333 0.240000
0.793333 0.333333 0.240000
0.850000 0.333333 0.240000
0.000000 0.400000 0.240000
0.056667 0.400000 0.240000
0.113333 0.400000 0.240000
0.170000 0.400000 0.240000
0.226667 0.400000 0.240000
0.283333 0.400000 0.240000
0.340000 0.400000 0.240000
0.396667 0.400000 0.240000
0.453333 0.400000 0.240000
0.510000 0.400000 0.240000
0.566667 0.400000 0.240000
0.623333 0.400000 0.240000
0.680000 0.400000 0.240000
0.736667 0.400000 0.240000
0.793333 0.400000 0.240000
0.850000 0.400000 0.240000
0.000000 0.466667 0.240000
0.056667 0.466667 0.240000
0.113333 0.466667 0.240000
0.170000 0.466667 0.240000
0.226667 0.466667 0.240000
0.283333 0.466667 0.240000
0.340000 0.466667 0.240000
