luts/Cool_Tone.cube
TITLE "Cool_Tone"
LUT_3D_SIZE 6
0.000000 0.000000 0.000000
0.170000 0.000000 0.000000
0.340000 0.000000 0.000000
0.510000 0.000000 0.000000
0.680000 0.000000 0.000000
0.850000 0.000000 0.000000
0.000000 0.200000 0.000000
0.170000 0.200000 0.000000
0.340000 0.200000 0.000000
0.510000 0.200000 0.000000
0.680000 0.200000 0.000000
0.850000 0.200000 0.000000
0.000000 0.400000 0.000000
0.170000 0.400000 0.000000
0.340000 0.400000 0.000000
0.510000 0.400000 0.000000
0.680000 0.400000 0.000000
0.850000 0.400000 0.000000
0.000000 0.600000 0.000000
0.170000 0.600000 0.000000
0.340000 0.600000 0.000000
0.510000 0.600000 0.000000
0.680000 0.600000 0.000000
0.850000 0.600000 0.000000
0.000000 0.800000 0.000000
0.170000 0.800000 0.000000
0.340000 0.800000 0.000000
0.510000 0.800000 0.000000
0.680000 0.800000 0.000000
0.850000 0.800000 0.000000
0.000000 1.000000 0.000000
0.170000 1.000000 0.000000
0.340000 1.000000 0.000000
0.510000 1.000000 0.000000
0.680000 1.000000 0.000000
0.850000 1.000000 0.000000
0.000000 0.000000 0.240000
0.170000 0.000000 0.240000
0.340000 0.000000 0.240000
0.510000 0.000000 0.240000
0.680000 0.000000 0.240000
0.850000 0.000000 0.240000
0.000000 0.200000 0.240000
0.170000 0.200000 0.240000
0.340000 0.200000 0.240000
0.510000 0.200000 0.240000
0.680000 0.200000 0.240000
0.850000 0.200000 0.240000
0.000000 0.400000 0.240000
0.170000 0.400000 0.240000
0.340000 0.400000 0.240000
0.510000 0.400000 0.240000
0.680000 0.400000 0.240000
0.850000 0.400000 0.240000
0.000000 0.600000 0.240000
0.170000 0.600000 0.240000
0.340000 0.600000 0.240000
0.510000 0.600000 0.240000
0.680000 0.600000 0.240000
0.850000 0.600000 0.240000
0.000000 0.800000 0.240000
0.170000 0.800000 0.240000
0.340000 0.800000 0.240000
0.510000 0.800000 0.240000
0.680000 0.800000 0.240000
0.850000 0.800000 0.240000
0.000000 1.000000 0.240000
0.170000 1.000000 0.240000
0.340000 1.000000 0.240000
0.510000 1.000000 0.240000
0.680000 1.000000 0.240000
0.850000 1.000000 0.240000
0.000000 0.000000 0.480000
0.170000 0.000000 0.480000
0.340000 0.000000 0.480000
0.510000 0.000000 0.480000
0.680000 0.000000 0.480000
0.850000 0.000000 0.480000
0.000000 0.200000 0.480000
0.170000 0.200000 0.480000
0.340000 0.200000 0.480000
0.510000 0.200000 0.480000
0.680000 0.200000 0.480000
0.850000 0.200000 0.480000
0.000000 0.400000 0.480000
0.170000 0.400000 0.480000
0.340000 0.400000 0.480000
0.510000 0.400000 0.480000
0.680000 0.400000 0.480000
0.850000 0.400000 0.480000
0.000000 0.600000 0.480000
0.170000 0.600000 0.480000
0.340000 0.600000 0.480000
0.510000 0.600000 0.480000
0.680000 0.600000 0.480000
0.850000 0.600000 0.480000
0.000000 0.800000 0.480000
0.170000 0.800000 0.480000
0.340000 0.800000 0.480000
0.510000 0.800000 0.480000
0.680000 0.800000 0.480000
0.850000 0.800000 0.480000
0.000000 1.000000 0.480000
0.170000 1.000000 0.480000
0.340000 1.000000 0.480000
0.510000 1.000000 0.480000
0.680000 1.000000 0.480000
0.850000 1.000000 0.480000
0.000000 0.000000 0.720000
0.170000 0.000000 0.720000
0.340000 0.000000 0.720000
0.510000 0.000000 0.720000
0.680000 0.000000 0.720000
0.850000 0.000000 0.720000
0.000000 0.200000 0.720000
0.170000 0.200000 0.720000
0.340000 0.200000 0.720000
0.510000 0.200000 0.720000
0.680000 0.200000 0.720000
0.850000 0.200000 0.720000
0.000000 0.400000 0.720000
0.170000 0.400000 0.720000
0.340000 0.400000 0.720000
0.510000 0.400000 0.720000
0.680000 0.400000 0.720000
0.850000 0.400000 0.720000
0.000000 0.600000 0.720000
0.170000 0.600000 0.720000
0.340000 0.600000 0.720000
0.510000 0.600000 0.720000
0.680000 0.600000 0.720000
0.850000 0.600000 0.720000
0.000000 0.800000 0.720000
0.170000 0.800000 0.720000
0.340000 0.800000 0.720000
0.510000 0.800000 0.720000
0.680000 0.800000 0.720000
0.850000 0.800000 0.720000
0.000000 1.000000 0.720000
0.170000 1.000000 0.720000
0.340000 1.000000 0.720000
0.510000 1.000000 0.720000
0.680000 1.000000 0.720000
0.850000 1.000000 0.720000
0.000000 0.000000 0.960000
0.170000 0.000000 0.960000
0.340000 0.000000 0.960000
0.510000 0.000000 0.960000
0.680000 0.000000 0.960000
0.850000 0.000000 0.960000
0.000000 0.200000 0.960000
0.170000 0.200000 0.960000
0.340000 0.200000 0.960000
0.510000 0.200000 0.960000
0.680000 0.200000 0.960000
0.850000 0.200000 0.960000
0.000000 0.400000 0.960000
0.170000 0.400000 0.960000
0.340000 0.400000 0.960000
0.510000 0.400000 0.960000
0.680000 0.400000 0.960000
0.850000 0.400000 0.960000
0.000000 0.600000 0.960000
0.170000 0.600000 0.960000
0.340000 0.600000 0.960000
0.510000 0.600000 0.960000
0.680000 0.600000 0.960000
0.850000 0.600000 0.960000
0.000000 0.800000 0.960000
0.170000 0.800000 0.960000
0.340000 0.800000 0.960000
0.510000 0.800000 0.960000
0.680000 0.800000 0.960000
0.850000 0.800000 0.960000
0.000000 1.000000 0.960000
0.170000 1.000000 0.960000
0.340000 1.000000 0.960000
0.510000 1.000000 0.960000
0.680000 1.000000 0.960000
0.850000 1.000000 0.960000
0.000000 0.000000 1.000000
0.170000 0.000000 1.000000
0.340000 0.000000 1.000000
0.510000 0.000000 1.000000
0.680000 0.000000 1.000000
0.850000 0.000000 1.000000
0.000000 0.200000 1.000000
0.170000 0.200000 1.000000
0.340000 0.200000 1.000000
0.510000 0.200000 1.000000
0.680000 0.200000 1.000000
0.850000 0.200000 1.000000
0.000000 0.400000 1.000000
0.170000 0.400000 1.000000
0.340000 0.400000 1.000000
0.510000 0.400000 1.000000
0.680000 0.400000 1.000000
0.850000 0.400000 1.000000
0.000000 0.600000 1.000000
0.170000 0.600000 1.000000
0.340000 0.600000 1.000000
0.510000 0.600000 1.000000
0.680000 0.600000 1.000000
0.850000 0.600000 1.000000
0.000000 0.800000 1.000000
0.170000 0.800000 1.000000
0.340000 0.800000 1.000000
0.510000 0.800000 1.000000
0.680000 0.800000 1.000000
0.850000 0.800000 1.000000
0.000000 1.000000 1.000000
0.170000 1.000000 1.000000
0.340000 1.000000 1.000000
0.510000 1.000000 1.000000
0.680000 1.000000 1.000000
0.850000 1.000000 1.000000
