luts/Fuji_Classic_Chrome.cube
TITLE "Fuji_Classic_Chrome"
LUT_3D_SIZE 6
0.000000 0.000000 0.000000
0.114693 0.000000 0.000000
0.304385 0.000000 0.000000
0.494077 0.000000 0.000000
0.683770 0.000000 0.000000
0.873463 0.013541 0.010963
0.000000 0.137440 0.000000
0.148445 0.155148 0.000000
0.338138 0.172857 0.000000
0.527830 0.190565 0.010330
0.717523 0.208273 0.027523
0.907215 0.225981 0.044715
0.000000 0.349880 0.000000
0.182198 0.367588 0.009698
0.371890 0.385297 0.026890
0.561582 0.403005 0.044083
0.751275 0.420713 0.061275
0.940968 0.438422 0.078468
0.026257 0.562320 0.026257
0.215950 0.580028 0.043450
0.405643 0.597737 0.060643
0.595335 0.615445 0.077835
0.785028 0.633153 0.095027
0.974720 0.650862 0.112220
0.060010 0.774760 0.060010
0.249702 0.792469 0.077203
0.439395 0.810177 0.094395
0.629087 0.827885 0.111588
0.816378 0.843113 0.128402
0.985412 0.843561 0.142635
0.093763 0.987200 0.093763
0.283455 1.000000 0.110955
0.472107 1.000000 0.127866
0.648169 1.000000 0.142123
0.816669 1.000000 0.155695
0.977607 1.000000 0.168582
0.000000 0.000000 0.104055
0.121248 0.000000 0.121248
0.310940 0.000000 0.138440
0.500632 0.000000 0.155633
0.690325 0.002585 0.172825
0.880018 0.020293 0.190018
0.000000 0.144192 0.137808
0.155000 0.161900 0.155000
0.344693 0.179608 0.172193
0.534385 0.197317 0.189385
0.724078 0.215025 0.206578
0.913770 0.232733 0.223770
0.000000 0.356632 0.171560
0.188753 0.374340 0.188753
0.378445 0.392048 0.205945
0.568137 0.409757 0.223138
0.757830 0.427465 0.240330
0.947522 0.445173 0.257523
0.032813 0.569072 0.205313
0.222505 0.586780 0.222505
0.412198 0.604488 0.239698
0.601890 0.622197 0.256890
0.791583 0.639905 0.274083
0.981275 0.657613 0.291275
0.066565 0.781512 0.239065
0.256258 0.799220 0.256258
0.445950 0.816929 0.273450
0.635642 0.834637 0.290643
0.816641 0.843367 0.304592
0.984103 0.843546 0.315125
0.100318 0.993952 0.272818
0.290010 1.000000 0.290010
0.475001 1.000000 0.304192
0.649492 1.000000 0.314750
0.816419 1.000000 0.324622
0.975785 1.000000 0.333809
0.000000 0.000000 0.283110
0.127803 0.000000 0.300303
0.317495 0.000000 0.317495
0.507188 0.000000 0.334688
0.696880 0.009336 0.351880
0.886572 0.027045 0.369073
0.000000 0.150943 0.316863
0.161555 0.168652 0.334055
0.351248 0.186360 0.351248
0.540940 0.204068 0.368440
0.730633 0.221776 0.385633
0.920325 0.239485 0.402825
0.005615 0.363383 0.350615
0.195308 0.381092 0.367808
0.385000 0.398800 0.385000
0.574692 0.416508 0.402193
0.764385 0.434217 0.419385
0.954078 0.451925 0.436578
0.039367 0.575824 0.384368
0.229060 0.593532 0.401560
0.418753 0.611240 0.418753
0.608445 0.628948 0.435945
0.798138 0.646657 0.453138
0.987830 0.664365 0.470330
0.073120 0.788264 0.418120
0.262813 0.805972 0.435313
0.452505 0.823680 0.452505
0.642197 0.841388 0.469698
0.816805 0.843518 0.478061
0.982694 0.843428 0.484894
0.106873 1.000000 0.451873
0.296565 1.000000 0.469065
0.477797 1.000000 0.477797
0.650715 1.000000 0.484655
0.816070 1.000000 0.490827
0.973863 0.992010 0.496314
0.000000 0.000000 0.462165
0.134358 0.000000 0.479357
0.324050 0.000000 0.496550
0.513742 0.000000 0.513742
0.703435 0.016088 0.530935
0.893127 0.033796 0.548127
0.000000 0.157695 0.495917
0.168110 0.175403 0.513110
0.357803 0.193112 0.530303
0.547495 0.210820 0.547495
0.737187 0.228528 0.564687
0.926880 0.246236 0.581880
0.012170 0.370135 0.529670
0.201863 0.387843 0.546862
0.391555 0.405552 0.564055
0.581248 0.423260 0.581248
0.770940 0.440968 0.598440
0.960633 0.458676 0.615632
0.045922 0.582575 0.563422
0.235615 0.600283 0.580615
0.425308 0.617992 0.597807
0.615000 0.635700 0.615000
0.804693 0.653408 0.632192
0.987888 0.666732 0.645142
0.079675 0.795015 0.597175
0.269367 0.812724 0.614367
0.459060 0.830432 0.631560
0.644990 0.843221 0.644990
0.816869 0.843567 0.648808
0.981186 0.843208 0.651941
0.113428 1.000000 0.630927
0.301584 1.000000 0.644836
0.480492 1.000000 0.648680
0.651838 1.000000 0.651838
0.815621 1.000000 0.654310
0.971842 0.983840 0.656098
0.000000 0.000000 0.641220
0.140913 0.000000 0.658413
0.330605 0.000000 0.675605
0.520297 0.005131 0.692798
0.709990 0.022840 0.709990
0.899682 0.040548 0.727183
0.000000 0.164447 0.674973
0.174665 0.182155 0.692165
0.364358 0.199863 0.709358
0.554050 0.217572 0.726550
0.743743 0.235280 0.743743
0.933435 0.252988 0.760935
0.018725 0.376887 0.708725
0.208418 0.394595 0.725918
0.398110 0.412303 0.743110
0.587802 0.430012 0.760303
0.777495 0.447720 0.777495
0.967187 0.465428 0.794688
0.052478 0.589327 0.742478
0.242170 0.607035 0.759670
0.431863 0.624743 0.776863
0.621555 0.642452 0.794055
0.811248 0.660160 0.811248
0.986793 0.668288 0.816731
0.086230 0.801767 0.776230
0.275923 0.819475 0.793423
0.465615 0.837183 0.810615
0.646526 0.843436 0.816715
0.816833 0.843513 0.816833
0.979578 0.842885 0.816266
0.119982 1.000000 0.809983
0.305752 1.000000 0.816697
0.483088 1.000000 0.816841
0.652861 1.000000 0.816299
0.815072 0.997098 0.815072
0.969721 0.975670 0.813160
0.000000 0.000000 0.820275
0.147468 0.000000 0.837468
0.337160 0.000000 0.854660
0.526852 0.011883 0.871852
0.716545 0.029591 0.889045
0.906237 0.047300 0.906237
0.000000 0.171198 0.854027
0.181220 0.188907 0.871220
0.370913 0.206615 0.888412
0.560605 0.224323 0.905605
0.750298 0.242031 0.922797
0.939990 0.259740 0.939990
0.025280 0.383638 0.887780
0.214973 0.401347 0.904972
0.404665 0.419055 0.922165
0.594357 0.436763 0.939357
0.784050 0.454472 0.956550
0.973742 0.472180 0.973742
0.059033 0.596078 0.921532
0.248725 0.613787 0.938725
0.438418 0.631495 0.955917
0.628110 0.649203 0.973110
0.816330 0.665711 0.988520
0.985599 0.669741 0.985599
0.092785 0.808519 0.955285
0.282478 0.826227 0.972477
0.471666 0.843035 0.988614
0.647963 0.843549 0.985718
0.816698 0.843357 0.982137
0.977870 0.842459 0.977870
0.126495 1.000000 0.988708
0.309821 1.000000 0.985837
0.485584 1.000000 0.982281
0.653785 1.000000 0.978039
0.814424 0.988928 0.973112
0.967500 0.967500 0.967500
