luts/Fuji_Classic_Chrome.cube
TITLE "Fuji_Classic_Chrome"
LUT_3D_SIZE 16
0.000000 0.000000 0.000000
0.000000 0.000000 0.000000
0.051462 0.000000 0.000000
0.114693 0.000000 0.000000
0.177923 0.000000 0.000000
0.241154 0.000000 0.000000
0.304385 0.000000 0.000000
0.367616 0.000000 0.000000
0.430847 0.000000 0.000000
0.494077 0.000000 0.000000
0.557308 0.000000 0.000000
0.620539 0.000000 0.000000
0.683770 0.000000 0.000000
0.747001 0.001736 0.000000
0.810232 0.007639 0.005232
0.873463 0.013541 0.010963
0.000000 0.000000 0.000000
0.000000 0.001716 0.000000
0.062713 0.007619 0.000000
0.125943 0.013522 0.000000
0.189174 0.019424 0.000000
0.252405 0.025327 0.000000
0.315636 0.031230 0.000000
0.378867 0.037133 0.000000
0.442097 0.043035 0.000000
0.505328 0.048938 0.000000
0.568559 0.054841 0.000000
0.631790 0.060744 0.000000
0.695021 0.066646 0.005021
0.758252 0.072549 0.010752
0.821482 0.078452 0.016483
0.884713 0.084355 0.022213
0.000000 0.066627 0.000000
0.010733 0.072529 0.000000
0.073963 0.078432 0.000000
0.137194 0.084335 0.000000
0.200425 0.090238 0.000000
0.263656 0.096141 0.000000
0.326887 0.102043 0.000000
0.390118 0.107946 0.000000
0.453348 0.113849 0.000000
0.516579 0.119752 0.000000
0.579810 0.125654 0.004810
0.643041 0.131557 0.010541
0.706272 0.137460 0.016272
0.769502 0.143363 0.022003
0.832733 0.149265 0.027733
0.895964 0.155168 0.033464
0.000000 0.137440 0.000000
0.021983 0.143343 0.000000
0.085214 0.149246 0.000000
0.148445 0.155148 0.000000
0.211676 0.161051 0.000000
0.274907 0.166954 0.000000
0.338138 0.172857 0.000000
0.401368 0.178759 0.000000
0.464599 0.184662 0.004599
0.527830 0.190565 0.010330
0.591061 0.196468 0.016061
0.654292 0.202370 0.021792
0.717523 0.208273 0.027523
0.780753 0.214176 0.033253
0.843984 0.220079 0.038984
0.907215 0.225981 0.044715
0.000000 0.208253 0.000000
0.033234 0.214156 0.000000
0.096465 0.220059 0.000000
0.159696 0.225962 0.000000
0.222927 0.231864 0.000000
0.286158 0.237767 0.000000
0.349388 0.243670 0.004388
0.412619 0.249573 0.010119
0.475850 0.255476 0.015850
0.539081 0.261378 0.021581
0.602312 0.267281 0.027312
0.665542 0.273184 0.033043
0.728773 0.279087 0.038773
0.792004 0.284989 0.044504
0.855235 0.290892 0.050235
0.918466 0.296795 0.055966
0.000000 0.279067 0.000000
0.044485 0.284970 0.000000
0.107716 0.290872 0.000000
0.170947 0.296775 0.000000
0.234178 0.302678 0.004178
0.297408 0.308581 0.009908
0.360639 0.314483 0.015639
0.423870 0.320386 0.021370
0.487101 0.326289 0.027101
0.550332 0.332192 0.032832
0.613563 0.338094 0.038563
0.676793 0.343997 0.044293
0.740024 0.349900 0.050024
0.803255 0.355803 0.055755
0.866486 0.361705 0.061486
0.929717 0.367608 0.067217
0.000000 0.349880 0.000000
0.055736 0.355783 0.000000
0.118967 0.361686 0.003967
0.182198 0.367588 0.009698
0.245428 0.373491 0.015428
0.308659 0.379394 0.021159
0.371890 0.385297 0.026890
0.435121 0.391199 0.032621
0.498352 0.397102 0.038352
0.561582 0.403005 0.044083
0.624813 0.408908 0.049813
0.688044 0.414810 0.055544
0.751275 0.420713 0.061275
0.814506 0.426616 0.067006
0.877737 0.432519 0.072737
0.940968 0.438422 0.078468
0.003756 0.420694 0.003756
0.066987 0.426596 0.009487
0.130218 0.432499 0.015218
0.193448 0.438402 0.020948
0.256679 0.444305 0.026679
0.319910 0.450207 0.032410
0.383141 0.456110 0.038141
0.446372 0.462013 0.043872
0.509602 0.467916 0.049603
0.572833 0.473818 0.055333
0.636064 0.479721 0.061064
0.699295 0.485624 0.066795
0.762526 0.491527 0.072526
0.825757 0.497429 0.078257
0.888987 0.503332 0.083987
0.952218 0.509235 0.089718
0.015007 0.491507 0.015007
0.078238 0.497410 0.020738
0.141468 0.503312 0.026468
0.204699 0.509215 0.032199
0.267930 0.515118 0.037930
0.331161 0.521021 0.043661
0.394392 0.526923 0.049392
0.457622 0.532826 0.055123
0.520853 0.538729 0.060853
0.584084 0.544632 0.066584
0.647315 0.550534 0.072315
0.710546 0.556437 0.078046
0.773777 0.562340 0.083777
0.837008 0.568243 0.089508
0.900238 0.574145 0.095238
0.963469 0.580048 0.100969
0.026257 0.562320 0.026257
0.089488 0.568223 0.031988
0.152719 0.574126 0.037719
0.215950 0.580028 0.043450
0.279181 0.585931 0.049181
0.342412 0.591834 0.054912
0.405643 0.597737 0.060643
0.468873 0.603640 0.066373
0.532104 0.609542 0.072104
0.595335 0.615445 0.077835
0.658566 0.621348 0.083566
0.721797 0.627251 0.089297
0.785028 0.633153 0.095027
0.848258 0.639056 0.100758
0.911489 0.644959 0.106489
0.974720 0.650862 0.112220
0.037508 0.633134 0.037508
0.100739 0.639036 0.043239
0.163970 0.644939 0.048970
0.227201 0.650842 0.054701
0.290432 0.656745 0.060432
0.353663 0.662647 0.066163
0.416893 0.668550 0.071893
0.480124 0.674453 0.077624
0.543355 0.680356 0.083355
0.606586 0.686258 0.089086
0.669817 0.692161 0.094817
0.733047 0.698064 0.100547
0.796278 0.703967 0.106278
0.859509 0.709869 0.112009
0.922740 0.715772 0.117740
0.985971 0.721675 0.123471
0.048759 0.703947 0.048759
0.111990 0.709850 0.054490
0.175221 0.715752 0.060221
0.238452 0.721655 0.065952
0.301683 0.727558 0.071683
0.364913 0.733461 0.077413
0.428144 0.739363 0.083144
0.491375 0.745266 0.088875
0.554606 0.751169 0.094606
0.617837 0.757072 0.100337
0.681067 0.762975 0.106067
0.744298 0.768877 0.111798
0.807529 0.774780 0.117529
0.870760 0.780683 0.123260
0.931023 0.784086 0.128581
0.987427 0.784704 0.133398
0.060010 0.774760 0.060010
0.123241 0.780663 0.065741
0.186472 0.786566 0.071472
0.249702 0.792469 0.077203
0.312933 0.798371 0.082933
0.376164 0.804274 0.088664
0.439395 0.810177 0.094395
0.502626 0.816080 0.100126
0.565857 0.821982 0.105857
0.629087 0.827885 0.111588
0.692318 0.833788 0.117318
0.755549 0.839691 0.123049
0.816378 0.843113 0.128402
0.873563 0.843341 0.133223
0.929908 0.843490 0.137967
0.985412 0.843561 0.142635
0.071261 0.845574 0.071261
0.134492 0.851476 0.076992
0.197722 0.857379 0.082723
0.260953 0.863282 0.088453
0.324184 0.869185 0.094184
0.387415 0.875087 0.099915
0.450646 0.880990 0.105646
0.513877 0.886893 0.111377
0.577108 0.892796 0.117108
0.640338 0.898698 0.122838
0.701677 0.902169 0.128223
0.759643 0.902006 0.133047
0.816769 0.901765 0.137793
0.873054 0.901445 0.142464
0.928499 0.901047 0.147059
0.983104 0.900570 0.151577
0.082512 0.916387 0.082512
0.145743 0.922290 0.088243
0.208973 0.928193 0.093973
0.272204 0.934095 0.099704
0.335435 0.939998 0.105435
0.398666 0.945901 0.111166
0.461897 0.951804 0.116897
0.525127 0.957706 0.122628
0.586920 0.961254 0.128045
0.645667 0.960700 0.132870
0.703573 0.960068 0.137620
0.760640 0.959358 0.142294
0.816866 0.958569 0.146891
0.872252 0.957701 0.151412
0.926797 0.956756 0.155857
0.980502 0.955732 0.160226
0.093763 0.987200 0.093763
0.156993 0.993103 0.099493
0.220224 0.999006 0.105224
0.283455 1.000000 0.110955
0.346686 1.000000 0.116686
0.409917 1.000000 0.122417
0.472107 1.000000 0.127866
0.531634 1.000000 0.132694
0.590322 1.000000 0.137447
0.648169 1.000000 0.142123
0.705176 1.000000 0.146723
0.761343 1.000000 0.151247
0.816669 1.000000 0.155695
0.871155 1.000000 0.160067
0.924801 1.000000 0.164363
0.977607 1.000000 0.168582
0.000000 0.000000 0.000000
0.000000 0.000000 0.000000
0.053647 0.000000 0.000000
0.116878 0.000000 0.001878
0.180108 0.000000 0.007608
0.243339 0.000000 0.013339
0.306570 0.000000 0.019070
0.369801 0.000000 0.024801
0.433032 0.000000 0.030532
0.496262 0.000000 0.036263
0.559493 0.000000 0.041993
0.622724 0.000000 0.047724
0.685955 0.000000 0.053455
0.749186 0.003986 0.059186
0.812417 0.009889 0.064917
0.875647 0.015792 0.070648
0.000000 0.000000 0.000000
0.001667 0.003967 0.001667
0.064898 0.009869 0.007398
0.128128 0.015772 0.013128
0.191359 0.021675 0.018859
0.254590 0.027578 0.024590
0.317821 0.033480 0.030321
0.381052 0.039383 0.036052
0.444283 0.045286 0.041783
0.507513 0.051189 0.047513
0.570744 0.057091 0.053244
0.633975 0.062994 0.058975
0.697206 0.068897 0.064706
0.760437 0.074800 0.070437
0.823667 0.080703 0.076168
0.886898 0.086605 0.081898
0.000000 0.068877 0.007187
0.012918 0.074780 0.012918
0.076148 0.080683 0.018648
0.139379 0.086586 0.024379
0.202610 0.092488 0.030110
0.265841 0.098391 0.035841
0.329072 0.104294 0.041572
0.392302 0.110197 0.047303
0.455533 0.116099 0.053033
0.518764 0.122002 0.058764
0.581995 0.127905 0.064495
0.645226 0.133808 0.070226
0.708457 0.139710 0.075957
0.771688 0.145613 0.081688
0.834918 0.151516 0.087418
0.898149 0.157419 0.093149
0.000000 0.139691 0.018438
0.024168 0.145593 0.024168
0.087399 0.151496 0.029899
0.150630 0.157399 0.035630
0.213861 0.163302 0.041361
0.277092 0.169204 0.047092
0.340323 0.175107 0.052822
0.403553 0.181010 0.058553
0.466784 0.186913 0.064284
0.530015 0.192815 0.070015
0.593246 0.198718 0.075746
0.656477 0.204621 0.081477
0.719708 0.210524 0.087208
0.782938 0.216426 0.092938
0.846169 0.222329 0.098669
0.909400 0.228232 0.104400
0.000000 0.210504 0.029688
0.035419 0.216407 0.035419
0.098650 0.222309 0.041150
0.161881 0.228212 0.046881
0.225112 0.234115 0.052612
0.288343 0.240018 0.058343
0.351573 0.245921 0.064073
0.414804 0.251823 0.069804
0.478035 0.257726 0.075535
0.541266 0.263629 0.081266
0.604497 0.269532 0.086997
0.667727 0.275434 0.092728
0.730958 0.281337 0.098458
0.794189 0.287240 0.104189
0.857420 0.293143 0.109920
0.920651 0.299045 0.115651
0.000000 0.281317 0.040939
0.046670 0.287220 0.046670
0.109901 0.293123 0.052401
0.173132 0.299026 0.058132
0.236363 0.304928 0.063863
0.299593 0.310831 0.069593
0.362824 0.316734 0.075324
0.426055 0.322637 0.081055
0.489286 0.328539 0.086786
0.552517 0.334442 0.092517
0.615748 0.340345 0.098248
0.678978 0.346248 0.103978
0.742209 0.352150 0.109709
0.805440 0.358053 0.115440
0.868671 0.363956 0.121171
0.931902 0.369859 0.126902
0.000000 0.352131 0.052190
0.057921 0.358033 0.057921
0.121152 0.363936 0.063652
0.184383 0.369839 0.069383
0.247613 0.375742 0.075113
0.310844 0.381644 0.080844
0.374075 0.387547 0.086575
0.437306 0.393450 0.092306
0.500537 0.399353 0.098037
0.563767 0.405256 0.103768
0.626998 0.411158 0.109498
0.690229 0.417061 0.115229
0.753460 0.422964 0.120960
0.816691 0.428867 0.126691
0.879922 0.434769 0.132422
0.943153 0.440672 0.138153
0.005941 0.422944 0.063441
0.069172 0.428847 0.069172
0.132403 0.434750 0.074902
0.195633 0.440652 0.080633
0.258864 0.446555 0.086364
0.322095 0.452458 0.092095
0.385326 0.458361 0.097826
0.448557 0.464263 0.103557
0.511787 0.470166 0.109288
0.575018 0.476069 0.115018
0.638249 0.481972 0.120749
0.701480 0.487874 0.126480
0.764711 0.493777 0.132211
0.827942 0.499680 0.137942
0.891172 0.505583 0.143673
0.954403 0.511485 0.149403
0.017192 0.493757 0.074692
0.080423 0.499660 0.080423
0.143653 0.505563 0.086153
0.206884 0.511466 0.091884
0.270115 0.517368 0.097615
0.333346 0.523271 0.103346
0.396577 0.529174 0.109077
0.459807 0.535077 0.114808
0.523038 0.540979 0.120538
0.586269 0.546882 0.126269
0.649500 0.552785 0.132000
0.712731 0.558688 0.137731
0.775962 0.564591 0.143462
0.839193 0.570493 0.149193
0.902423 0.576396 0.154923
0.965654 0.582299 0.160654
0.028442 0.564571 0.085943
0.091673 0.570474 0.091673
0.154904 0.576376 0.097404
0.218135 0.582279 0.103135
0.281366 0.588182 0.108866
0.344597 0.594085 0.114597
0.407828 0.599987 0.120328
0.471058 0.605890 0.126058
0.534289 0.611793 0.131789
0.597520 0.617696 0.137520
0.660751 0.623598 0.143251
0.723982 0.629501 0.148982
0.787213 0.635404 0.154713
0.850443 0.641307 0.160443
0.913674 0.647209 0.166174
0.976905 0.653112 0.171905
0.039693 0.635384 0.097193
0.102924 0.641287 0.102924
0.166155 0.647190 0.108655
0.229386 0.653092 0.114386
0.292617 0.658995 0.120117
0.355847 0.664898 0.125848
0.419078 0.670801 0.131578
0.482309 0.676703 0.137309
0.545540 0.682606 0.143040
0.608771 0.688509 0.148771
0.672002 0.694412 0.154502
0.735232 0.700314 0.160233
0.798463 0.706217 0.165963
0.861694 0.712120 0.171694
0.924925 0.718023 0.177425
0.988156 0.723926 0.183156
0.050944 0.706197 0.108444
0.114175 0.712100 0.114175
0.177406 0.718003 0.119906
0.240637 0.723906 0.125637
0.303868 0.729809 0.131368
0.367098 0.735711 0.137098
0.430329 0.741614 0.142829
0.493560 0.747517 0.148560
0.556791 0.753420 0.154291
0.620022 0.759322 0.160022
0.683253 0.765225 0.165753
0.746483 0.771128 0.171483
0.809714 0.777031 0.177214
0.872945 0.782933 0.182945
0.930829 0.784331 0.187598
0.987058 0.784919 0.192005
0.062195 0.777011 0.119695
0.125426 0.782914 0.125426
0.188657 0.788816 0.131157
0.251888 0.794719 0.136888
0.315118 0.800622 0.142618
0.378349 0.806525 0.148349
0.441580 0.812427 0.154080
0.504811 0.818330 0.159811
0.568042 0.824233 0.165542
0.631272 0.830136 0.171273
0.694503 0.836038 0.177003
0.757734 0.841941 0.182734
0.816477 0.843209 0.187435
0.873487 0.843407 0.191844
0.929657 0.843526 0.196177
0.984987 0.843567 0.200434
0.073446 0.847824 0.130946
0.136677 0.853727 0.136677
0.199908 0.859630 0.142408
0.263138 0.865532 0.148138
0.326369 0.871435 0.153869
0.389600 0.877338 0.159600
0.452831 0.883241 0.165331
0.516062 0.889144 0.171062
0.579293 0.895046 0.176793
0.642523 0.900949 0.182523
0.702069 0.902116 0.187271
0.759860 0.901923 0.191683
0.816811 0.901652 0.196019
0.872921 0.901302 0.200279
0.928192 0.900874 0.204462
0.982622 0.900368 0.208569
0.084697 0.918638 0.142197
0.147928 0.924540 0.147928
0.211158 0.930443 0.153658
0.274389 0.936346 0.159389
0.337620 0.942249 0.165120
0.400851 0.948151 0.170851
0.464082 0.954054 0.176582
0.527312 0.959957 0.182313
0.587604 0.961052 0.187107
0.646176 0.960468 0.191522
0.703908 0.959806 0.195861
0.760799 0.959066 0.200123
0.816851 0.958247 0.204309
0.872062 0.957350 0.208420
0.926432 0.956375 0.212454
0.979963 0.955320 0.216412
0.095948 0.989451 0.153448
0.159178 0.995354 0.159178
0.222409 1.000000 0.164909
0.285640 1.000000 0.170640
0.348871 1.000000 0.176371
0.412102 1.000000 0.182102
0.473083 1.000000 0.186943
0.532436 1.000000 0.191361
0.590948 1.000000 0.195702
0.648621 1.000000 0.199968
0.705453 1.000000 0.204157
0.761445 1.000000 0.208270
0.816597 1.000000 0.212307
0.870909 1.000000 0.216267
0.924380 1.000000 0.220152
0.977011 1.000000 0.223960
0.000000 0.000000 0.044370
0.000000 0.000000 0.050101
0.055832 0.000000 0.055832
0.119063 0.000000 0.061563
0.182293 0.000000 0.067293
0.245524 0.000000 0.073024
0.308755 0.000000 0.078755
0.371986 0.000000 0.084486
0.435217 0.000000 0.090217
0.498447 0.000000 0.095948
0.561678 0.000000 0.101678
0.624909 0.000000 0.107409
0.688140 0.000334 0.113140
0.751371 0.006237 0.118871
0.814602 0.012140 0.124602
0.877833 0.018042 0.130333
0.000000 0.000314 0.055621
0.003852 0.006217 0.061352
0.067083 0.012120 0.067083
0.130313 0.018023 0.072813
0.193544 0.023925 0.078544
0.256775 0.029828 0.084275
0.320006 0.035731 0.090006
0.383237 0.041634 0.095737
0.446468 0.047537 0.101467
0.509698 0.053439 0.107198
0.572929 0.059342 0.112929
0.636160 0.065245 0.118660
0.699391 0.071148 0.124391
0.762622 0.077050 0.130122
0.825852 0.082953 0.135853
0.889083 0.088856 0.141583
0.000000 0.071128 0.066872
0.015103 0.077031 0.072603
0.078333 0.082933 0.078333
0.141564 0.088836 0.084064
0.204795 0.094739 0.089795
0.268026 0.100642 0.095526
0.331257 0.106544 0.101257
0.394487 0.112447 0.106988
0.457718 0.118350 0.112718
0.520949 0.124253 0.118449
0.584180 0.130155 0.124180
0.647411 0.136058 0.129911
0.710642 0.141961 0.135642
0.773872 0.147864 0.141373
0.837103 0.153766 0.147103
0.900334 0.159669 0.152834
0.000000 0.141941 0.078123
0.026353 0.147844 0.083853
0.089584 0.153747 0.089584
0.152815 0.159649 0.095315
0.216046 0.165552 0.101046
0.279277 0.171455 0.106777
0.342508 0.177358 0.112508
0.405738 0.183260 0.118238
0.468969 0.189163 0.123969
0.532200 0.195066 0.129700
0.595431 0.200969 0.135431
0.658662 0.206872 0.141162
0.721893 0.212774 0.146893
0.785123 0.218677 0.152623
0.848354 0.224580 0.158354
0.911585 0.230483 0.164085
0.000000 0.212755 0.089373
0.037604 0.218657 0.095104
0.100835 0.224560 0.100835
0.164066 0.230463 0.106566
0.227297 0.236366 0.112297
0.290527 0.242268 0.118028
0.353758 0.248171 0.123758
0.416989 0.254074 0.129489
0.480220 0.259977 0.135220
0.543451 0.265879 0.140951
0.606682 0.271782 0.146682
0.669912 0.277685 0.152413
0.733143 0.283588 0.158143
0.796374 0.289490 0.163874
0.859605 0.295393 0.169605
0.922836 0.301296 0.175336
0.000000 0.283568 0.100624
0.048855 0.289471 0.106355
0.112086 0.295373 0.112086
0.175317 0.301276 0.117817
0.238548 0.307179 0.123547
0.301778 0.313082 0.129278
0.365009 0.318984 0.135009
0.428240 0.324887 0.140740
0.491471 0.330790 0.146471
0.554702 0.336693 0.152202
0.617932 0.342595 0.157933
0.681163 0.348498 0.163663
0.744394 0.354401 0.169394
0.807625 0.360304 0.175125
0.870856 0.366207 0.180856
0.934087 0.372109 0.186587
0.000000 0.354381 0.111875
0.060106 0.360284 0.117606
0.123337 0.366187 0.123337
0.186568 0.372090 0.129068
0.249798 0.377992 0.134798
0.313029 0.383895 0.140529
0.376260 0.389798 0.146260
0.439491 0.395701 0.151991
0.502722 0.401603 0.157722
0.565952 0.407506 0.163453
0.629183 0.413409 0.169183
0.692414 0.419312 0.174914
0.755645 0.425214 0.180645
0.818876 0.431117 0.186376
0.882107 0.437020 0.192107
0.945337 0.442923 0.197838
0.008126 0.425195 0.123126
0.071357 0.431097 0.128857
0.134588 0.437000 0.134588
0.197818 0.442903 0.140318
0.261049 0.448806 0.146049
0.324280 0.454708 0.151780
0.387511 0.460611 0.157511
0.450742 0.466514 0.163242
0.513972 0.472417 0.168973
0.577203 0.478319 0.174703
0.640434 0.484222 0.180434
0.703665 0.490125 0.186165
0.766896 0.496028 0.191896
0.830127 0.501930 0.197627
0.893357 0.507833 0.203358
0.956588 0.513736 0.209088
0.019377 0.496008 0.134377
0.082608 0.501911 0.140107
0.145838 0.507813 0.145838
0.209069 0.513716 0.151569
0.272300 0.519619 0.157300
0.335531 0.525522 0.163031
0.398762 0.531425 0.168762
0.461992 0.537327 0.174492
0.525223 0.543230 0.180223
0.588454 0.549133 0.185954
0.651685 0.555036 0.191685
0.714916 0.560938 0.197416
0.778147 0.566841 0.203147
0.841378 0.572744 0.208878
0.904608 0.578647 0.214608
0.967839 0.584549 0.220339
0.030628 0.566821 0.145627
0.093858 0.572724 0.151358
0.157089 0.578627 0.157089
0.220320 0.584530 0.162820
0.283551 0.590432 0.168551
0.346782 0.596335 0.174282
0.410013 0.602238 0.180013
0.473243 0.608141 0.185743
0.536474 0.614043 0.191474
0.599705 0.619946 0.197205
0.662936 0.625849 0.202936
0.726167 0.631752 0.208667
0.789397 0.637654 0.214398
0.852628 0.643557 0.220128
0.915859 0.649460 0.225859
0.979090 0.655363 0.231590
0.041878 0.637635 0.156878
0.105109 0.643537 0.162609
0.168340 0.649440 0.168340
0.231571 0.655343 0.174071
0.294802 0.661246 0.179802
0.358032 0.667148 0.185533
0.421263 0.673051 0.191263
0.484494 0.678954 0.196994
0.547725 0.684857 0.202725
0.610956 0.690760 0.208456
0.674187 0.696662 0.214187
0.737417 0.702565 0.219917
0.800648 0.708468 0.225648
0.863879 0.714371 0.231379
0.927110 0.720273 0.237110
0.988514 0.724837 0.242393
0.053129 0.708448 0.168129
0.116360 0.714351 0.173860
0.179591 0.720254 0.179591
0.242822 0.726156 0.185322
0.306053 0.732059 0.191053
0.369283 0.737962 0.196783
0.432514 0.743865 0.202514
0.495745 0.749767 0.208245
0.558976 0.755670 0.213976
0.622207 0.761573 0.219707
0.685437 0.767476 0.225438
0.748668 0.773378 0.231168
0.811899 0.779281 0.236899
0.873730 0.783928 0.242242
0.930625 0.784565 0.246313
0.986679 0.785123 0.250309
0.064380 0.779261 0.179380
0.127611 0.785164 0.185111
0.190842 0.791067 0.190842
0.254073 0.796970 0.196572
0.317303 0.802872 0.202303
0.380534 0.808775 0.208034
0.443765 0.814678 0.213765
0.506996 0.820581 0.219496
0.570227 0.826483 0.225227
0.633458 0.832386 0.230958
0.696688 0.838289 0.236688
0.758889 0.843047 0.242091
0.816565 0.843294 0.246165
0.873400 0.843462 0.250163
0.929395 0.843551 0.254085
0.984550 0.843562 0.257931
0.075631 0.850075 0.190631
0.138862 0.855978 0.196362
0.202093 0.861880 0.202093
0.265323 0.867783 0.207823
0.328554 0.873686 0.213554
0.391785 0.879589 0.219285
0.455016 0.885491 0.225016
0.518247 0.891394 0.230747
0.581478 0.897297 0.236478
0.643992 0.902196 0.241939
0.702449 0.902052 0.246016
0.760065 0.901829 0.250017
0.816841 0.901528 0.253942
0.872777 0.901148 0.257790
0.927873 0.900690 0.261563
0.982128 0.900154 0.265259
0.086882 0.920888 0.201882
0.150112 0.926791 0.207613
0.213343 0.932694 0.213343
0.276574 0.938596 0.219074
0.339805 0.944499 0.224805
0.403036 0.950402 0.230536
0.466267 0.956305 0.236267
0.529039 0.961374 0.241788
0.588276 0.960839 0.245868
0.646674 0.960225 0.249871
0.704231 0.959533 0.253799
0.760948 0.958763 0.257650
0.816824 0.957915 0.261425
0.871861 0.956987 0.265125
0.926057 0.955982 0.268747
0.979413 0.954898 0.272294
0.098133 0.991701 0.213133
0.161363 0.997604 0.218863
0.224594 1.000000 0.224594
0.287825 1.000000 0.230325
0.351056 1.000000 0.236056
0.414029 1.000000 0.241636
0.474048 1.000000 0.245719
0.533226 1.000000 0.249725
0.591564 1.000000 0.253656
0.649062 1.000000 0.257510
0.705719 1.000000 0.261288
0.761537 1.000000 0.264990
0.816514 1.000000 0.268615
0.870651 1.000000 0.272165
0.923947 1.000000 0.275638
0.976403 1.000000 0.279036
0.000000 0.000000 0.104055
0.000000 0.000000 0.109786
0.058017 0.000000 0.115517
0.121248 0.000000 0.121248
0.184478 0.000000 0.126978
0.247709 0.000000 0.132709
0.310940 0.000000 0.138440
0.374171 0.000000 0.144171
0.437402 0.000000 0.149902
0.500632 0.000000 0.155633
0.563863 0.000000 0.161363
0.627094 0.000000 0.167094
0.690325 0.002585 0.172825
0.753556 0.008488 0.178556
0.816787 0.014390 0.184287
0.880018 0.020293 0.190018
0.000000 0.002565 0.115306
0.006037 0.008468 0.121037
0.069268 0.014371 0.126768
0.132498 0.020273 0.132498
0.195729 0.026176 0.138229
0.258960 0.032079 0.143960
0.322191 0.037982 0.149691
0.385422 0.043884 0.155422
0.448653 0.049787 0.161153
0.511883 0.055690 0.166883
0.575114 0.061593 0.172614
0.638345 0.067495 0.178345
0.701576 0.073398 0.184076
0.764807 0.079301 0.189807
0.828037 0.085204 0.195538
0.891268 0.091106 0.201268
0.000000 0.073378 0.126557
0.017288 0.079281 0.132288
0.080518 0.085184 0.138018
0.143749 0.091087 0.143749
0.206980 0.096989 0.149480
0.270211 0.102892 0.155211
0.333442 0.108795 0.160942
0.396672 0.114698 0.166673
0.459903 0.120600 0.172403
0.523134 0.126503 0.178134
0.586365 0.132406 0.183865
0.649596 0.138309 0.189596
0.712827 0.144211 0.195327
0.776057 0.150114 0.201058
0.839288 0.156017 0.206788
0.902519 0.161920 0.212519
0.000000 0.144192 0.137808
0.028538 0.150094 0.143538
0.091769 0.155997 0.149269
0.155000 0.161900 0.155000
0.218231 0.167803 0.160731
0.281462 0.173706 0.166462
0.344693 0.179608 0.172193
0.407923 0.185511 0.177923
0.471154 0.191414 0.183654
0.534385 0.197317 0.189385
0.597616 0.203219 0.195116
0.660847 0.209122 0.200847
0.724078 0.215025 0.206578
0.787308 0.220928 0.212308
0.850539 0.226830 0.218039
0.913770 0.232733 0.223770
0.000000 0.215005 0.149058
0.039789 0.220908 0.154789
0.103020 0.226811 0.160520
0.166251 0.232713 0.166251
0.229482 0.238616 0.171982
0.292712 0.244519 0.177713
0.355943 0.250422 0.183443
0.419174 0.256324 0.189174
0.482405 0.262227 0.194905
0.545636 0.268130 0.200636
0.608867 0.274033 0.206367
0.672097 0.279935 0.212098
0.735328 0.285838 0.217828
0.798559 0.291741 0.223559
0.861790 0.297644 0.229290
0.925021 0.303546 0.235021
0.000000 0.285818 0.160309
0.051040 0.291721 0.166040
0.114271 0.297624 0.171771
0.177502 0.303527 0.177502
0.240733 0.309429 0.183233
0.303963 0.315332 0.188963
0.367194 0.321235 0.194694
0.430425 0.327138 0.200425
0.493656 0.333041 0.206156
0.556887 0.338943 0.211887
0.620117 0.344846 0.217618
0.683348 0.350749 0.223348
0.746579 0.356652 0.229079
0.809810 0.362554 0.234810
0.873041 0.368457 0.240541
0.936272 0.374360 0.246272
0.000000 0.356632 0.171560
0.062291 0.362535 0.177291
0.125522 0.368437 0.183022
0.188753 0.374340 0.188753
0.251983 0.380243 0.194483
0.315214 0.386146 0.200214
0.378445 0.392048 0.205945
0.441676 0.397951 0.211676
0.504907 0.403854 0.217407
0.568137 0.409757 0.223138
0.631368 0.415659 0.228868
0.694599 0.421562 0.234599
0.757830 0.427465 0.240330
0.821061 0.433368 0.246061
0.884292 0.439270 0.251792
0.947522 0.445173 0.257523
0.010311 0.427445 0.182811
0.073542 0.433348 0.188542
0.136773 0.439251 0.194273
0.200003 0.445153 0.200003
0.263234 0.451056 0.205734
0.326465 0.456959 0.211465
0.389696 0.462862 0.217196
