luts/High_Contrast_BW.cube
TITLE "High_Contrast_BW"
LUT_3D_SIZE 16
0.000000 0.000000 0.000000
0.000000 0.000000 0.000000
0.000000 0.000000 0.000000
0.000000 0.000000 0.000000
0.000000 0.000000 0.000000
0.000000 0.000000 0.000000
0.000060 0.000060 0.000060
0.001971 0.001971 0.001971
0.006568 0.006568 0.006568
0.013851 0.013851 0.013851
0.023820 0.023820 0.023820
0.036475 0.036475 0.036475
0.051816 0.051816 0.051816
0.069843 0.069843 0.069843
0.090556 0.090556 0.090556
0.113955 0.113955 0.113955
0.000000 0.000000 0.000000
0.000000 0.000000 0.000000
0.000000 0.000000 0.000000
0.000000 0.000000 0.000000
0.000041 0.000041 0.000041
0.001853 0.001853 0.001853
0.006351 0.006351 0.006351
0.013536 0.013536 0.013536
0.023406 0.023406 0.023406
0.035962 0.035962 0.035962
0.051204 0.051204 0.051204
0.069132 0.069132 0.069132
0.089747 0.089747 0.089747
0.113047 0.113047 0.113047
0.139033 0.139033 0.139033
0.167705 0.167705 0.167705
0.000000 0.000000 0.000000
0.000000 0.000000 0.000000
0.000026 0.000026 0.000026
0.001739 0.001739 0.001739
0.006138 0.006138 0.006138
0.013224 0.013224 0.013224
0.022995 0.022995 0.022995
0.035453 0.035453 0.035453
0.050596 0.050596 0.050596
0.068425 0.068425 0.068425
0.088941 0.088941 0.088941
0.112142 0.112142 0.112142
0.138030 0.138030 0.138030
0.166603 0.166603 0.166603
0.197862 0.197862 0.197862
0.231808 0.231808 0.231808
0.000014 0.000014 0.000014
0.001628 0.001628 0.001628
0.005929 0.005929 0.005929
0.012915 0.012915 0.012915
0.022588 0.022588 0.022588
0.034947 0.034947 0.034947
0.049991 0.049991 0.049991
0.067722 0.067722 0.067722
0.088138 0.088138 0.088138
0.111241 0.111241 0.111241
0.137030 0.137030 0.137030
0.165504 0.165504 0.165504
0.196665 0.196665 0.196665
0.230511 0.230511 0.230511
0.267044 0.267044 0.267044
0.306263 0.306263 0.306263
0.005723 0.005723 0.005723
0.012611 0.012611 0.012611
0.022185 0.022185 0.022185
0.034444 0.034444 0.034444
0.049390 0.049390 0.049390
0.067022 0.067022 0.067022
0.087340 0.087340 0.087340
0.110343 0.110343 0.110343
0.136033 0.136033 0.136033
0.164409 0.164409 0.164409
0.195471 0.195471 0.195471
0.229219 0.229219 0.229219
0.265652 0.265652 0.265652
0.304772 0.304772 0.304772
0.346578 0.346578 0.346578
0.391070 0.391070 0.391070
0.021785 0.021785 0.021785
0.033946 0.033946 0.033946
0.048793 0.048793 0.048793
0.066326 0.066326 0.066326
0.086545 0.086545 0.086545
0.109450 0.109450 0.109450
0.135041 0.135041 0.135041
0.163318 0.163318 0.163318
0.194281 0.194281 0.194281
0.227930 0.227930 0.227930
0.264264 0.264264 0.264264
0.303285 0.303285 0.303285
0.344992 0.344992 0.344992
0.389385 0.389385 0.389385
0.436464 0.436464 0.436464
0.486229 0.486229 0.486229
0.048199 0.048199 0.048199
0.065633 0.065633 0.065633
0.085753 0.085753 0.085753
0.108559 0.108559 0.108559
0.134052 0.134052 0.134052
0.162230 0.162230 0.162230
0.193094 0.193094 0.193094
0.226644 0.226644 0.226644
0.262880 0.262880 0.262880
0.301802 0.301802 0.301802
0.343411 0.343411 0.343411
0.387705 0.387705 0.387705
0.434685 0.434685 0.434685
0.484351 0.484351 0.484351
0.535403 0.535403 0.535403
0.584019 0.584019 0.584019
0.084965 0.084965 0.084965
0.107673 0.107673 0.107673
0.133066 0.133066 0.133066
0.161145 0.161145 0.161145
0.191911 0.191911 0.191911
0.225362 0.225362 0.225362
0.261499 0.261499 0.261499
0.300323 0.300323 0.300323
0.341832 0.341832 0.341832
0.386028 0.386028 0.386028
0.432909 0.432909 0.432909
0.482476 0.482476 0.482476
0.533564 0.533564 0.533564
0.582278 0.582278 0.582278
0.628306 0.628306 0.628306
0.671648 0.671648 0.671648
0.132084 0.132084 0.132084
0.160065 0.160065 0.160065
0.190731 0.190731 0.190731
0.224084 0.224084 0.224084
0.260122 0.260122 0.260122
0.298847 0.298847 0.298847
0.340258 0.340258 0.340258
0.384354 0.384354 0.384354
0.431137 0.431137 0.431137
0.480605 0.480605 0.480605
0.531720 0.531720 0.531720
0.580533 0.580533 0.580533
0.626660 0.626660 0.626660
0.670101 0.670101 0.670101
0.710855 0.710855 0.710855
0.748924 0.748924 0.748924
0.189556 0.189556 0.189556
0.222809 0.222809 0.222809
0.258749 0.258749 0.258749
0.297375 0.297375 0.297375
0.338686 0.338686 0.338686
0.382684 0.382684 0.382684
0.429368 0.429368 0.429368
0.478738 0.478738 0.478738
0.529873 0.529873 0.529873
0.578785 0.578785 0.578785
0.625010 0.625010 0.625010
0.668550 0.668550 0.668550
0.709404 0.709404 0.709404
0.747571 0.747571 0.747571
0.783053 0.783053 0.783053
0.815848 0.815848 0.815848
0.257379 0.257379 0.257379
0.295906 0.295906 0.295906
0.337119 0.337119 0.337119
0.381018 0.381018 0.381018
0.427603 0.427603 0.427603
0.476874 0.476874 0.476874
0.528023 0.528023 0.528023
0.577033 0.577033 0.577033
0.623357 0.623357 0.623357
0.666996 0.666996 0.666996
0.707948 0.707948 0.707948
0.746215 0.746215 0.746215
0.781795 0.781795 0.781795
0.814689 0.814689 0.814689
0.844898 0.844898 0.844898
0.872420 0.872420 0.872420
0.335555 0.335555 0.335555
0.379355 0.379355 0.379355
0.425841 0.425841 0.425841
0.475014 0.475014 0.475014
0.526168 0.526168 0.526168
0.575278 0.575278 0.575278
0.621701 0.621701 0.621701
0.665438 0.665438 0.665438
0.706489 0.706489 0.706489
0.744854 0.744854 0.744854
0.780534 0.780534 0.780534
0.813527 0.813527 0.813527
0.843834 0.843834 0.843834
0.871455 0.871455 0.871455
0.896390 0.896390 0.896390
0.918640 0.918640 0.918640
0.424084 0.424084 0.424084
0.473157 0.473157 0.473157
0.524310 0.524310 0.524310
0.573518 0.573518 0.573518
0.620040 0.620040 0.620040
0.663877 0.663877 0.663877
0.705027 0.705027 0.705027
0.743491 0.743491 0.743491
0.779269 0.779269 0.779269
0.812361 0.812361 0.812361
0.842767 0.842767 0.842767
0.870487 0.870487 0.870487
0.895521 0.895521 0.895521
0.917869 0.917869 0.917869
0.937531 0.937531 0.937531
0.954507 0.954507 0.954507
0.522449 0.522449 0.522449
0.571756 0.571756 0.571756
0.618377 0.618377 0.618377
0.662311 0.662311 0.662311
0.703560 0.703560 0.703560
0.742123 0.742123 0.742123
0.778000 0.778000 0.778000
0.811191 0.811191 0.811191
0.841696 0.841696 0.841696
0.869514 0.869514 0.869514
0.894647 0.894647 0.894647
0.917094 0.917094 0.917094
0.936855 0.936855 0.936855
0.953930 0.953930 0.953930
0.968319 0.968319 0.968319
0.980021 0.980021 0.980021
0.616709 0.616709 0.616709
0.660743 0.660743 0.660743
0.702090 0.702090 0.702090
0.740752 0.740752 0.740752
0.776728 0.776728 0.776728
0.810017 0.810017 0.810017
0.840621 0.840621 0.840621
0.868539 0.868539 0.868539
0.893770 0.893770 0.893770
0.916316 0.916316 0.916316
0.936176 0.936176 0.936176
0.953349 0.953349 0.953349
0.967837 0.967837 0.967837
0.979638 0.979638 0.979638
0.988754 0.988754 0.988754
0.995184 0.995184 0.995184
0.700617 0.700617 0.700617
0.739377 0.739377 0.739377
0.775452 0.775452 0.775452
0.808840 0.808840 0.808840
0.839543 0.839543 0.839543
0.867559 0.867559 0.867559
0.892890 0.892890 0.892890
0.915534 0.915534 0.915534
0.935492 0.935492 0.935492
0.952765 0.952765 0.952765
0.967351 0.967351 0.967351
0.979252 0.979252 0.979252
0.988466 0.988466 0.988466
0.994995 0.994995 0.994995
0.998837 0.998837 0.998837
1.000000 1.000000 1.000000
0.000000 0.000000 0.000000
0.000000 0.000000 0.000000
0.000000 0.000000 0.000000
0.000000 0.000000 0.000000
0.000000 0.000000 0.000000
0.000000 0.000000 0.000000
0.000472 0.000472 0.000472
0.003407 0.003407 0.003407
0.009028 0.009028 0.009028
0.017335 0.017335 0.017335
0.028328 0.028328 0.028328
0.042007 0.042007 0.042007
0.058373 0.058373 0.058373
0.077424 0.077424 0.077424
0.099161 0.099161 0.099161
0.123584 0.123584 0.123584
0.000000 0.000000 0.000000
0.000000 0.000000 0.000000
0.000000 0.000000 0.000000
0.000000 0.000000 0.000000
0.000415 0.000415 0.000415
0.003251 0.003251 0.003251
0.008774 0.008774 0.008774
0.016982 0.016982 0.016982
0.027876 0.027876 0.027876
0.041457 0.041457 0.041457
0.057723 0.057723 0.057723
0.076675 0.076675 0.076675
0.098314 0.098314 0.098314
0.122638 0.122638 0.122638
0.149648 0.149648 0.149648
0.179345 0.179345 0.179345
0.000000 0.000000 0.000000
0.000000 0.000000 0.000000
0.000362 0.000362 0.000362
0.003099 0.003099 0.003099
0.008523 0.008523 0.008523
0.016632 0.016632 0.016632
0.027428 0.027428 0.027428
0.040909 0.040909 0.040909
0.057077 0.057077 0.057077
0.075930 0.075930 0.075930
0.097470 0.097470 0.097470
0.121695 0.121695 0.121695
0.148607 0.148607 0.148607
0.178204 0.178204 0.178204
0.210488 0.210488 0.210488
0.245458 0.245458 0.245458
0.000312 0.000312 0.000312
0.002951 0.002951 0.002951
0.008276 0.008276 0.008276
0.016287 0.016287 0.016287
0.026983 0.026983 0.026983
0.040366 0.040366 0.040366
0.056435 0.056435 0.056435
0.075189 0.075189 0.075189
0.096630 0.096630 0.096630
0.120757 0.120757 0.120757
0.147569 0.147569 0.147569
0.177068 0.177068 0.177068
0.209253 0.209253 0.209253
0.244123 0.244123 0.244123
0.281680 0.281680 0.281680
0.321923 0.321923 0.321923
0.008032 0.008032 0.008032
0.015944 0.015944 0.015944
0.026542 0.026542 0.026542
0.039826 0.039826 0.039826
0.055796 0.055796 0.055796
0.074452 0.074452 0.074452
0.095794 0.095794 0.095794
0.119821 0.119821 0.119821
0.146535 0.146535 0.146535
0.175935 0.175935 0.175935
0.208021 0.208021 0.208021
0.242793 0.242793 0.242793
0.280251 0.280251 0.280251
0.320395 0.320395 0.320395
0.363225 0.363225 0.363225
0.408741 0.408741 0.408741
0.026105 0.026105 0.026105
0.039290 0.039290 0.039290
0.055161 0.055161 0.055161
0.073718 0.073718 0.073718
0.094961 0.094961 0.094961
0.118890 0.118890 0.118890
0.145505 0.145505 0.145505
0.174806 0.174806 0.174806
0.206793 0.206793 0.206793
0.241466 0.241466 0.241466
0.278825 0.278825 0.278825
0.318870 0.318870 0.318870
0.361601 0.361601 0.361601
0.407019 0.407019 0.407019
0.455122 0.455122 0.455122
0.505876 0.505876 0.505876
0.054529 0.054529 0.054529
0.072987 0.072987 0.072987
0.094132 0.094132 0.094132
0.117962 0.117962 0.117962
0.144478 0.144478 0.144478
0.173680 0.173680 0.173680
0.205569 0.205569 0.205569
0.240143 0.240143 0.240143
0.277403 0.277403 0.277403
0.317350 0.317350 0.317350
0.359982 0.359982 0.359982
0.405300 0.405300 0.405300
0.453304 0.453304 0.453304
0.503979 0.503979 0.503979
0.554256 0.554256 0.554256
0.601847 0.601847 0.601847
0.093306 0.093306 0.093306
0.117038 0.117038 0.117038
0.143455 0.143455 0.143455
0.172559 0.172559 0.172559
0.204348 0.204348 0.204348
0.238823 0.238823 0.238823
0.275985 0.275985 0.275985
0.315832 0.315832 0.315832
0.358366 0.358366 0.358366
0.403585 0.403585 0.403585
0.451491 0.451491 0.451491
0.502078 0.502078 0.502078
0.552454 0.552454 0.552454
0.600144 0.600144 0.600144
0.645147 0.645147 0.645147
0.687465 0.687465 0.687465
0.142436 0.142436 0.142436
0.171440 0.171440 0.171440
0.203131 0.203131 0.203131
0.237508 0.237508 0.237508
0.274570 0.274570 0.274570
0.314319 0.314319 0.314319
0.356753 0.356753 0.356753
0.401874 0.401874 0.401874
0.449681 0.449681 0.449681
0.500173 0.500173 0.500173
0.550648 0.550648 0.550648
0.598437 0.598437 0.598437
0.643539 0.643539 0.643539
0.685956 0.685956 0.685956
0.725687 0.725687 0.725687
0.762731 0.762731 0.762731
0.201917 0.201917 0.201917
0.236195 0.236195 0.236195
0.273159 0.273159 0.273159
0.312809 0.312809 0.312809
0.355145 0.355145 0.355145
0.400167 0.400167 0.400167
0.447874 0.447874 0.447874
0.498268 0.498268 0.498268
0.548839 0.548839 0.548839
0.596726 0.596726 0.596726
0.641928 0.641928 0.641928
0.684443 0.684443 0.684443
0.724273 0.724273 0.724273
0.761416 0.761416 0.761416
0.795874 0.795874 0.795874
0.827645 0.827645 0.827645
0.271752 0.271752 0.271752
0.311303 0.311303 0.311303
0.353540 0.353540 0.353540
0.398463 0.398463 0.398463
0.446072 0.446072 0.446072
0.496367 0.496367 0.496367
0.547026 0.547026 0.547026
0.595012 0.595012 0.595012
0.640312 0.640312 0.640312
0.682927 0.682927 0.682927
0.722855 0.722855 0.722855
0.760097 0.760097 0.760097
0.794654 0.794654 0.794654
0.826524 0.826524 0.826524
0.855708 0.855708 0.855708
0.882206 0.882206 0.882206
0.351938 0.351938 0.351938
0.396762 0.396762 0.396762
0.444273 0.444273 0.444273
0.494469 0.494469 0.494469
0.545209 0.545209 0.545209
0.593294 0.593294 0.593294
0.638693 0.638693 0.638693
0.681406 0.681406 0.681406
0.721434 0.721434 0.721434
0.758775 0.758775 0.758775
0.793430 0.793430 0.793430
0.825399 0.825399 0.825399
0.854682 0.854682 0.854682
0.881279 0.881279 0.881279
0.905190 0.905190 0.905190
0.926415 0.926415 0.926415
0.442477 0.442477 0.442477
0.492574 0.492574 0.492574
0.543389 0.543389 0.543389
0.591573 0.591573 0.591573
0.637071 0.637071 0.637071
0.679883 0.679883 0.679883
0.720009 0.720009 0.720009
0.757449 0.757449 0.757449
0.792202 0.792202 0.792202
0.824270 0.824270 0.824270
0.853652 0.853652 0.853652
0.880348 0.880348 0.880348
0.904358 0.904358 0.904358
0.925682 0.925682 0.925682
0.944320 0.944320 0.944320
0.960272 0.960272 0.960272
0.541565 0.541565 0.541565
0.589848 0.589848 0.589848
0.635444 0.635444 0.635444
0.678355 0.678355 0.678355
0.718580 0.718580 0.718580
0.756119 0.756119 0.756119
0.790971 0.790971 0.790971
0.823138 0.823138 0.823138
0.852619 0.852619 0.852619
0.879414 0.879414 0.879414
0.903522 0.903522 0.903522
0.924945 0.924945 0.924945
0.943682 0.943682 0.943682
0.959733 0.959733 0.959733
0.973097 0.973097 0.973097
0.983776 0.983776 0.983776
0.633815 0.633815 0.633815
0.676824 0.676824 0.676824
0.717148 0.717148 0.717148
0.754785 0.754785 0.754785
0.789737 0.789737 0.789737
0.822002 0.822002 0.822002
0.851582 0.851582 0.851582
0.878476 0.878476 0.878476
0.902683 0.902683 0.902683
0.924205 0.924205 0.924205
0.943040 0.943040 0.943040
0.959190 0.959190 0.959190
0.972653 0.972653 0.972653
0.983431 0.983431 0.983431
0.991522 0.991522 0.991522
0.996928 0.996928 0.996928
0.715712 0.715712 0.715712
0.753448 0.753448 0.753448
0.788499 0.788499 0.788499
0.820863 0.820863 0.820863
0.850541 0.850541 0.850541
0.877534 0.877534 0.877534
0.901840 0.901840 0.901840
0.923460 0.923460 0.923460
0.942395 0.942395 0.942395
0.958643 0.958643 0.958643
0.972205 0.972205 0.972205
0.983082 0.983082 0.983082
0.991272 0.991272 0.991272
0.996776 0.996776 0.996776
0.999595 0.999595 0.999595
1.000000 1.000000 1.000000
0.000000 0.000000 0.000000
0.000000 0.000000 0.000000
0.000000 0.000000 0.000000
0.000000 0.000000 0.000000
0.000000 0.000000 0.000000
0.000000 0.000000 0.000000
0.001274 0.001274 0.001274
0.005233 0.005233 0.005233
0.011879 0.011879 0.011879
0.021210 0.021210 0.021210
0.033227 0.033227 0.033227
0.047930 0.047930 0.047930
0.065319 0.065319 0.065319
0.085395 0.085395 0.085395
0.108156 0.108156 0.108156
0.133603 0.133603 0.133603
0.000000 0.000000 0.000000
0.000000 0.000000 0.000000
0.000000 0.000000 0.000000
0.000000 0.000000 0.000000
0.001180 0.001180 0.001180
0.005040 0.005040 0.005040
0.011586 0.011586 0.011586
0.020819 0.020819 0.020819
0.032737 0.032737 0.032737
0.047342 0.047342 0.047342
0.064632 0.064632 0.064632
0.084609 0.084609 0.084609
0.107271 0.107271 0.107271
0.132619 0.132619 0.132619
0.160654 0.160654 0.160654
0.191374 0.191374 0.191374
0.000000 0.000000 0.000000
0.000000 0.000000 0.000000
0.001089 0.001089 0.001089
0.004850 0.004850 0.004850
0.011298 0.011298 0.011298
0.020432 0.020432 0.020432
0.032251 0.032251 0.032251
0.046757 0.046757 0.046757
0.063948 0.063948 0.063948
0.083826 0.083826 0.083826
0.106390 0.106390 0.106390
0.131639 0.131639 0.131639
0.159575 0.159575 0.159575
0.190196 0.190196 0.190196
0.223504 0.223504 0.223504
0.259498 0.259498 0.259498
0.001002 0.001002 0.001002
0.004664 0.004664 0.004664
0.011013 0.011013 0.011013
0.020048 0.020048 0.020048
0.031769 0.031769 0.031769
0.046176 0.046176 0.046176
0.063268 0.063268 0.063268
0.083047 0.083047 0.083047
0.105512 0.105512 0.105512
0.130663 0.130663 0.130663
0.158500 0.158500 0.158500
0.189022 0.189022 0.189022
0.222231 0.222231 0.222231
0.258126 0.258126 0.258126
0.296707 0.296707 0.296707
0.337974 0.337974 0.337974
0.010732 0.010732 0.010732
0.019668 0.019668 0.019668
0.031290 0.031290 0.031290
0.045598 0.045598 0.045598
0.062592 0.062592 0.062592
0.082272 0.082272 0.082272
0.104638 0.104638 0.104638
0.129690 0.129690 0.129690
0.157428 0.157428 0.157428
0.187852 0.187852 0.187852
0.220962 0.220962 0.220962
0.256758 0.256758 0.256758
0.295240 0.295240 0.295240
0.336408 0.336408 0.336408
0.380262 0.380262 0.380262
0.426802 0.426802 0.426802
0.030815 0.030815 0.030815
0.045024 0.045024 0.045024
0.061919 0.061919 0.061919
0.081500 0.081500 0.081500
0.103767 0.103767 0.103767
0.128721 0.128721 0.128721
0.156360 0.156360 0.156360
0.186685 0.186685 0.186685
0.219696 0.219696 0.219696
0.255393 0.255393 0.255393
0.293776 0.293776 0.293776
0.334846 0.334846 0.334846
0.378601 0.378601 0.378601
0.425042 0.425042 0.425042
0.474169 0.474169 0.474169
0.525324 0.525324 0.525324
0.061250 0.061250 0.061250
0.080732 0.080732 0.080732
0.102901 0.102901 0.102901
0.127755 0.127755 0.127755
0.155295 0.155295 0.155295
0.185522 0.185522 0.185522
0.218434 0.218434 0.218434
0.254032 0.254032 0.254032
0.292317 0.292317 0.292317
0.333287 0.333287 0.333287
0.376944 0.376944 0.376944
0.423286 0.423286 0.423286
0.472314 0.472314 0.472314
0.523465 0.523465 0.523465
0.572718 0.572718 0.572718
0.619285 0.619285 0.619285
0.102038 0.102038 0.102038
0.126793 0.126793 0.126793
0.154235 0.154235 0.154235
0.184362 0.184362 0.184362
0.217176 0.217176 0.217176
0.252675 0.252675 0.252675
0.290861 0.290861 0.290861
0.331732 0.331732 0.331732
0.375290 0.375290 0.375290
0.421533 0.421533 0.421533
0.470463 0.470463 0.470463
0.521602 0.521602 0.521602
0.570953 0.570953 0.570953
0.617619 0.617619 0.617619
0.661599 0.661599 0.661599
0.702893 0.702893 0.702893
0.153177 0.153177 0.153177
0.183206 0.183206 0.183206
0.215921 0.215921 0.215921
0.251322 0.251322 0.251322
0.289408 0.289408 0.289408
0.330181 0.330181 0.330181
0.373640 0.373640 0.373640
0.419785 0.419785 0.419785
0.468615 0.468615 0.468615
0.519735 0.519735 0.519735
0.569185 0.569185 0.569185
0.615950 0.615950 0.615950
0.660028 0.660028 0.660028
0.701421 0.701421 0.701421
0.740128 0.740128 0.740128
0.776148 0.776148 0.776148
0.214670 0.214670 0.214670
0.249972 0.249972 0.249972
0.287960 0.287960 0.287960
0.328633 0.328633 0.328633
0.371993 0.371993 0.371993
0.418039 0.418039 0.418039
0.466771 0.466771 0.466771
0.517864 0.517864 0.517864
0.567414 0.567414 0.567414
0.614277 0.614277 0.614277
0.658454 0.658454 0.658454
0.699946 0.699946 0.699946
0.738751 0.738751 0.738751
0.774871 0.774871 0.774871
0.808304 0.808304 0.808304
0.839051 0.839051 0.839051
0.286514 0.286514 0.286514
0.327090 0.327090 0.327090
0.370351 0.370351 0.370351
0.416298 0.416298 0.416298
0.464931 0.464931 0.464931
0.515990 0.515990 0.515990
0.565638 0.565638 0.565638
0.612601 0.612601 0.612601
0.656877 0.656877 0.656877
0.698467 0.698467 0.698467
0.737371 0.737371 0.737371
0.773589 0.773589 0.773589
0.807122 0.807122 0.807122
0.837968 0.837968 0.837968
0.866128 0.866128 0.866128
0.891602 0.891602 0.891602
0.368711 0.368711 0.368711
0.414560 0.414560 0.414560
0.463094 0.463094 0.463094
0.514112 0.514112 0.514112
0.563859 0.563859 0.563859
0.610920 0.610920 0.610920
0.655295 0.655295 0.655295
0.696984 0.696984 0.696984
0.735987 0.735987 0.735987
0.772304 0.772304 0.772304
0.805935 0.805935 0.805935
0.836881 0.836881 0.836881
0.865140 0.865140 0.865140
0.890713 0.890713 0.890713
0.913600 0.913600 0.913600
0.933801 0.933801 0.933801
0.461261 0.461261 0.461261
0.512231 0.512231 0.512231
0.562077 0.562077 0.562077
0.609237 0.609237 0.609237
0.653710 0.653710 0.653710
0.695498 0.695498 0.695498
0.734600 0.734600 0.734600
0.771016 0.771016 0.771016
0.804746 0.804746 0.804746
0.835790 0.835790 0.835790
0.864147 0.864147 0.864147
0.889819 0.889819 0.889819
0.912805 0.912805 0.912805
0.933105 0.933105 0.933105
0.950719 0.950719 0.950719
0.965647 0.965647 0.965647
0.560291 0.560291 0.560291
0.607549 0.607549 0.607549
0.652122 0.652122 0.652122
0.694009 0.694009 0.694009
0.733209 0.733209 0.733209
0.769724 0.769724 0.769724
0.803553 0.803553 0.803553
0.834695 0.834695 0.834695
0.863152 0.863152 0.863152
0.888922 0.888922 0.888922
0.912007 0.912007 0.912007
0.932406 0.932406 0.932406
0.950118 0.950118 0.950118
0.965145 0.965145 0.965145
0.977486 0.977486 0.977486
0.987140 0.987140 0.987140
0.650530 0.650530 0.650530
0.692515 0.692515 0.692515
0.731815 0.731815 0.731815
0.768428 0.768428 0.768428
0.802356 0.802356 0.802356
0.833597 0.833597 0.833597
0.862152 0.862152 0.862152
0.888022 0.888022 0.888022
0.911205 0.911205 0.911205
0.931703 0.931703 0.931703
0.949514 0.949514 0.949514
0.964640 0.964640 0.964640
0.977079 0.977079 0.977079
0.986833 0.986833 0.986833
0.993900 0.993900 0.993900
0.998281 0.998281 0.998281
0.730416 0.730416 0.730416
0.767129 0.767129 0.767129
0.801155 0.801155 0.801155
0.832495 0.832495 0.832495
0.861150 0.861150 0.861150
0.887118 0.887118 0.887118
0.910400 0.910400 0.910400
0.930996 0.930996 0.930996
0.948907 0.948907 0.948907
0.964131 0.964131 0.964131
0.976669 0.976669 0.976669
0.986521 0.986521 0.986521
0.993688 0.993688 0.993688
0.998168 0.998168 0.998168
0.999962 0.999962 0.999962
1.000000 1.000000 1.000000
0.000000 0.000000 0.000000
0.000000 0.000000 0.000000
0.000000 0.000000 0.000000
0.000000 0.000000 0.000000
0.000000 0.000000 0.000000
0.000170 0.000170 0.000170
0.002467 0.002467 0.002467
0.007450 0.007450 0.007450
0.015119 0.015119 0.015119
0.025475 0.025475 0.025475
0.038516 0.038516 0.038516
0.054243 0.054243 0.054243
0.072657 0.072657 0.072657
0.093756 0.093756 0.093756
0.117541 0.117541 0.117541
0.144013 0.144013 0.144013
0.000000 0.000000 0.000000
0.000000 0.000000 0.000000
0.000000 0.000000 0.000000
0.000136 0.000136 0.000136
0.002335 0.002335 0.002335
0.007219 0.007219 0.007219
0.014790 0.014790 0.014790
0.025046 0.025046 0.025046
0.037989 0.037989 0.037989
0.053617 0.053617 0.053617
0.071932 0.071932 0.071932
0.092932 0.092932 0.092932
0.116619 0.116619 0.116619
0.142991 0.142991 0.142991
0.172050 0.172050 0.172050
0.203794 0.203794 0.203794
0.000000 0.000000 0.000000
0.000107 0.000107 0.000107
0.002206 0.002206 0.002206
0.006992 0.006992 0.006992
0.014464 0.014464 0.014464
0.024621 0.024621 0.024621
0.037465 0.037465 0.037465
0.052995 0.052995 0.052995
0.071210 0.071210 0.071210
0.092112 0.092112 0.092112
0.115700 0.115700 0.115700
0.141973 0.141973 0.141973
0.170933 0.170933 0.170933
0.202579 0.202579 0.202579
0.236911 0.236911 0.236911
0.273928 0.273928 0.273928
0.002081 0.002081 0.002081
0.006768 0.006768 0.006768
0.014141 0.014141 0.014141
0.024200 0.024200 0.024200
0.036945 0.036945 0.036945
0.052376 0.052376 0.052376
0.070493 0.070493 0.070493
0.091295 0.091295 0.091295
0.114784 0.114784 0.114784
0.140959 0.140959 0.140959
0.169820 0.169820 0.169820
0.201367 0.201367 0.201367
0.235600 0.235600 0.235600
0.272519 0.272519 0.272519
0.312124 0.312124 0.312124
0.354415 0.354415 0.354415
0.013822 0.013822 0.013822
0.023782 0.023782 0.023782
0.036428 0.036428 0.036428
0.051760 0.051760 0.051760
0.069779 0.069779 0.069779
0.090483 0.090483 0.090483
0.113873 0.113873 0.113873
0.139949 0.139949 0.139949
0.168711 0.168711 0.168711
0.200159 0.200159 0.200159
0.234293 0.234293 0.234293
0.271113 0.271113 0.271113
0.310619 0.310619 0.310619
0.352811 0.352811 0.352811
0.397689 0.397689 0.397689
0.445253 0.445253 0.445253
0.035916 0.035916 0.035916
0.051149 0.051149 0.051149
0.069068 0.069068 0.069068
0.089673 0.089673 0.089673
0.112965 0.112965 0.112965
0.138942 0.138942 0.138942
0.167605 0.167605 0.167605
0.198954 0.198954 0.198954
0.232990 0.232990 0.232990
0.269711 0.269711 0.269711
0.309118 0.309118 0.309118
0.351211 0.351211 0.351211
0.395991 0.395991 0.395991
0.443456 0.443456 0.443456
0.493607 0.493607 0.493607
0.544382 0.544382 0.544382
0.068361 0.068361 0.068361
0.088868 0.088868 0.088868
0.112060 0.112060 0.112060
0.137939 0.137939 0.137939
0.166503 0.166503 0.166503
0.197753 0.197753 0.197753
0.231690 0.231690 0.231690
0.268312 0.268312 0.268312
0.307621 0.307621 0.307621
0.349615 0.349615 0.349615
0.394296 0.394296 0.394296
0.441662 0.441662 0.441662
0.491715 0.491715 0.491715
0.542560 0.542560 0.542560
0.590789 0.590789 0.590789
0.636332 0.636332 0.636332
0.111159 0.111159 0.111159
0.136939 0.136939 0.136939
0.165405 0.165405 0.165405
0.196556 0.196556 0.196556
0.230394 0.230394 0.230394
0.266917 0.266917 0.266917
0.306127 0.306127 0.306127
