luts/High_Contrast_BW.cube
TITLE "High_Contrast_BW"
LUT_3D_SIZE 6
0.000000 0.000000 0.000000
0.000000 0.000000 0.000000
0.000060 0.000060 0.000060
0.013851 0.013851 0.013851
0.051816 0.051816 0.051816
0.113955 0.113955 0.113955
0.000014 0.000014 0.000014
0.012915 0.012915 0.012915
0.049991 0.049991 0.049991
0.111241 0.111241 0.111241
0.196665 0.196665 0.196665
0.306263 0.306263 0.306263
0.048199 0.048199 0.048199
0.108559 0.108559 0.108559
0.193094 0.193094 0.193094
0.301802 0.301802 0.301802
0.434685 0.434685 0.434685
0.584019 0.584019 0.584019
0.189556 0.189556 0.189556
0.297375 0.297375 0.297375
0.429368 0.429368 0.429368
0.578785 0.578785 0.578785
0.709404 0.709404 0.709404
0.815848 0.815848 0.815848
0.424084 0.424084 0.424084
0.573518 0.573518 0.573518
0.705027 0.705027 0.705027
0.812361 0.812361 0.812361
0.895521 0.895521 0.895521
0.954507 0.954507 0.954507
0.700617 0.700617 0.700617
0.808840 0.808840 0.808840
0.892890 0.892890 0.892890
0.952765 0.952765 0.952765
0.988466 0.988466 0.988466
1.000000 1.000000 1.000000
0.000000 0.000000 0.000000
0.000000 0.000000 0.000000
0.002467 0.002467 0.002467
0.025475 0.025475 0.025475
0.072657 0.072657 0.072657
0.144013 0.144013 0.144013
0.002081 0.002081 0.002081
0.024200 0.024200 0.024200
0.070493 0.070493 0.070493
0.140959 0.140959 0.140959
0.235600 0.235600 0.235600
0.354415 0.354415 0.354415
0.068361 0.068361 0.068361
0.137939 0.137939 0.137939
0.231690 0.231690 0.231690
0.349615 0.349615 0.349615
0.491715 0.491715 0.491715
0.636332 0.636332 0.636332
0.227812 0.227812 0.227812
0.344849 0.344849 0.344849
0.486059 0.486059 0.486059
0.631437 0.631437 0.631437
0.752839 0.752839 0.752839
0.850067 0.850067 0.850067
0.480435 0.480435 0.480435
0.626510 0.626510 0.626510
0.748801 0.748801 0.748801
0.846918 0.846918 0.846918
0.920862 0.920862 0.920862
0.970631 0.970631 0.970631
0.744731 0.744731 0.744731
0.843737 0.843737 0.843737
0.918570 0.918570 0.918570
0.969228 0.969228 0.969228
0.995713 0.995713 0.995713
1.000000 1.000000 1.000000
0.000000 0.000000 0.000000
0.000000 0.000000 0.000000
0.008388 0.008388 0.008388
0.040612 0.040612 0.040612
0.097011 0.097011 0.097011
0.177584 0.177584 0.177584
0.007663 0.007663 0.007663
0.038999 0.038999 0.038999
0.094508 0.094508 0.094508
0.174192 0.174192 0.174192
0.278049 0.278049 0.278049
0.406081 0.406081 0.406081
0.092038 0.092038 0.092038
0.170832 0.170832 0.170832
0.273800 0.273800 0.273800
0.400942 0.400942 0.400942
0.549662 0.549662 0.549662
0.685131 0.685131 0.685131
0.269584 0.269584 0.269584
0.395836 0.395836 0.395836
0.544217 0.544217 0.544217
0.680576 0.680576 0.680576
0.792761 0.792761 0.792761
0.880772 0.880772 0.880772
0.538739 0.538739 0.538739
0.675987 0.675987 0.675987
0.789062 0.789062 0.789062
0.877962 0.877962 0.877962
0.942689 0.942689 0.942689
0.983241 0.983241 0.983241
0.785330 0.785330 0.785330
0.875120 0.875120 0.875120
0.940736 0.940736 0.940736
0.982177 0.982177 0.982177
0.999445 0.999445 0.999445
1.000000 1.000000 1.000000
0.000000 0.000000 0.000000
0.000555 0.000555 0.000555
0.017823 0.017823 0.017823
0.059264 0.059264 0.059264
0.124880 0.124880 0.124880
0.214670 0.214670 0.214670
0.016759 0.016759 0.016759
0.057311 0.057311 0.057311
0.122038 0.122038 0.122038
0.210938 0.210938 0.210938
0.324013 0.324013 0.324013
0.461261 0.461261 0.461261
0.119228 0.119228 0.119228
0.207239 0.207239 0.207239
0.319424 0.319424 0.319424
0.455783 0.455783 0.455783
0.604164 0.604164 0.604164
0.730416 0.730416 0.730416
0.314869 0.314869 0.314869
0.450338 0.450338 0.450338
0.599058 0.599058 0.599058
0.726200 0.726200 0.726200
0.829168 0.829168 0.829168
0.907962 0.907962 0.907962
0.593919 0.593919 0.593919
0.721951 0.721951 0.721951
0.825808 0.825808 0.825808
0.905492 0.905492 0.905492
0.961001 0.961001 0.961001
0.992337 0.992337 0.992337
0.822416 0.822416 0.822416
0.902989 0.902989 0.902989
0.959388 0.959388 0.959388
0.991612 0.991612 0.991612
1.000000 1.000000 1.000000
1.000000 1.000000 1.000000
0.000000 0.000000 0.000000
0.004287 0.004287 0.004287
0.030772 0.030772 0.030772
0.081430 0.081430 0.081430
0.156263 0.156263 0.156263
0.255269 0.255269 0.255269
0.029369 0.029369 0.029369
0.079138 0.079138 0.079138
0.153082 0.153082 0.153082
0.251199 0.251199 0.251199
0.373490 0.373490 0.373490
0.519565 0.519565 0.519565
0.149933 0.149933 0.149933
0.247161 0.247161 0.247161
0.368563 0.368563 0.368563
0.513941 0.513941 0.513941
0.655151 0.655151 0.655151
0.772188 0.772188 0.772188
0.363668 0.363668 0.363668
0.508285 0.508285 0.508285
0.650385 0.650385 0.650385
0.768310 0.768310 0.768310
0.862061 0.862061 0.862061
0.931639 0.931639 0.931639
0.645585 0.645585 0.645585
0.764400 0.764400 0.764400
0.859041 0.859041 0.859041
0.929507 0.929507 0.929507
0.975800 0.975800 0.975800
0.997919 0.997919 0.997919
0.855987 0.855987 0.855987
0.927343 0.927343 0.927343
0.974525 0.974525 0.974525
0.997533 0.997533 0.997533
1.000000 1.000000 1.000000
1.000000 1.000000 1.000000
0.000000 0.000000 0.000000
0.011534 0.011534 0.011534
0.047235 0.047235 0.047235
0.107110 0.107110 0.107110
0.191160 0.191160 0.191160
0.299383 0.299383 0.299383
0.045493 0.045493 0.045493
0.104479 0.104479 0.104479
0.187639 0.187639 0.187639
0.294973 0.294973 0.294973
0.426482 0.426482 0.426482
0.575916 0.575916 0.575916
0.184152 0.184152 0.184152
0.290596 0.290596 0.290596
0.421215 0.421215 0.421215
0.570632 0.570632 0.570632
0.702625 0.702625 0.702625
0.810444 0.810444 0.810444
0.415981 0.415981 0.415981
0.565315 0.565315 0.565315
0.698198 0.698198 0.698198
0.806906 0.806906 0.806906
0.891441 0.891441 0.891441
0.951801 0.951801 0.951801
0.693737 0.693737 0.693737
0.803335 0.803335 0.803335
0.888759 0.888759 0.888759
0.950009 0.950009 0.950009
0.987085 0.987085 0.987085
0.999986 0.999986 0.999986
0.886045 0.886045 0.886045
0.948184 0.948184 0.948184
0.986149 0.986149 0.986149
0.999940 0.999940 0.999940
1.000000 1.000000 1.000000
1.000000 1.000000 1.000000
