luts/Vintage_Film.cube
TITLE "Vintage_Film"
LUT_3D_SIZE 6
0.052500 0.050000 0.047500
0.210045 0.067043 0.063691
0.367590 0.084086 0.079882
0.525135 0.101129 0.096073
0.682681 0.118172 0.112263
0.840226 0.135215 0.128454
0.087632 0.216459 0.079286
0.245177 0.233502 0.095477
0.402722 0.250545 0.111668
0.560267 0.267588 0.127859
0.717813 0.284631 0.144049
0.875358 0.301674 0.160240
0.122764 0.382918 0.111072
0.280309 0.399961 0.127263
0.437854 0.417004 0.143454
0.595399 0.434047 0.159645
0.752945 0.451090 0.175835
0.910490 0.468133 0.192026
0.157896 0.549377 0.142858
0.315441 0.566420 0.159049
0.472986 0.583463 0.175240
0.630531 0.600506 0.191431
0.788076 0.617549 0.207622
0.945622 0.634592 0.223812
0.193028 0.715836 0.174644
0.350573 0.732879 0.190835
0.508118 0.749922 0.207026
0.665663 0.766965 0.223217
0.823208 0.784008 0.239408
0.980754 0.801051 0.255598
0.228160 0.882295 0.206430
0.385705 0.899338 0.222621
0.543250 0.916381 0.238812
0.700795 0.933424 0.255003
0.858340 0.950467 0.271194
1.000000 0.967510 0.287384
0.059323 0.056498 0.180023
0.216868 0.073541 0.196214
0.374413 0.090584 0.212405
0.531958 0.107627 0.228596
0.689504 0.124670 0.244786
0.847049 0.141713 0.260977
0.094455 0.222957 0.211809
0.252000 0.240000 0.228000
0.409545 0.257043 0.244191
0.567090 0.274086 0.260382
0.724635 0.291129 0.276573
0.882181 0.308172 0.292763
0.129587 0.389416 0.243595
0.287132 0.406459 0.259786
0.444677 0.423502 0.275977
0.602222 0.440545 0.292168
0.759767 0.457588 0.308359
0.917313 0.474631 0.324549
0.164719 0.555875 0.275381
0.322264 0.572918 0.291572
0.479809 0.589961 0.307763
0.637354 0.607004 0.323954
0.794899 0.624047 0.340145
0.952445 0.641090 0.356335
0.199851 0.722334 0.307167
0.357396 0.739377 0.323358
0.514941 0.756420 0.339549
0.672486 0.773463 0.355740
0.830031 0.790506 0.371931
0.987576 0.807549 0.388122
0.234983 0.888793 0.338953
0.392528 0.905836 0.355144
0.550073 0.922879 0.371335
0.707618 0.939922 0.387526
0.865163 0.956965 0.403717
1.000000 0.974008 0.419908
0.066146 0.062996 0.312546
0.223691 0.080039 0.328737
0.381236 0.097082 0.344928
0.538781 0.114125 0.361119
0.696326 0.131168 0.377310
0.853872 0.148211 0.393500
0.101278 0.229455 0.344332
0.258823 0.246498 0.360523
0.416368 0.263541 0.376714
0.573913 0.280584 0.392905
0.731458 0.297627 0.409096
0.889003 0.314670 0.425286
0.136410 0.395914 0.376118
0.293955 0.412957 0.392309
0.451500 0.430000 0.408500
0.609045 0.447043 0.424691
0.766590 0.464086 0.440882
0.924135 0.481129 0.457073
0.171542 0.562373 0.407904
0.329087 0.579416 0.424095
0.486632 0.596459 0.440286
0.644177 0.613502 0.456477
0.801722 0.630545 0.472668
0.959267 0.647588 0.488859
0.206674 0.728832 0.439690
0.364219 0.745875 0.455881
0.521764 0.762918 0.472072
0.679309 0.779961 0.488263
0.836854 0.797004 0.504454
0.994399 0.814047 0.520645
0.241806 0.895291 0.471476
0.399351 0.912334 0.487667
0.556896 0.929377 0.503858
0.714441 0.946420 0.520049
0.871986 0.963463 0.536240
1.000000 0.980506 0.552431
0.072969 0.069494 0.445069
0.230514 0.086537 0.461260
0.388059 0.103580 0.477451
0.545604 0.120623 0.493642
0.703149 0.137666 0.509833
0.860694 0.154709 0.526024
0.108101 0.235953 0.476855
0.265646 0.252996 0.493046
0.423191 0.270039 0.509237
0.580736 0.287082 0.525428
0.738281 0.304125 0.541619
0.895826 0.321168 0.557810
0.143233 0.402412 0.508641
0.300778 0.419455 0.524832
0.458323 0.436498 0.541023
0.615868 0.453541 0.557214
0.773413 0.470584 0.573405
0.930958 0.487627 0.589596
0.178365 0.568871 0.540427
0.335910 0.585914 0.556618
0.493455 0.602957 0.572809
0.651000 0.620000 0.589000
0.808545 0.637043 0.605191
0.966090 0.654086 0.621382
0.213497 0.735330 0.572214
0.371042 0.752373 0.588404
0.528587 0.769416 0.604595
0.686132 0.786459 0.620786
0.843677 0.803502 0.636977
1.000000 0.820545 0.653168
0.248628 0.901789 0.604000
0.406174 0.918832 0.620190
0.563719 0.935875 0.636381
0.721264 0.952918 0.652572
0.878809 0.969961 0.668763
1.000000 0.987004 0.684954
0.079792 0.075992 0.577592
0.237337 0.093035 0.593783
0.394882 0.110078 0.609974
0.552427 0.127121 0.626165
0.709972 0.144164 0.642356
0.867517 0.161207 0.658547
0.114924 0.242451 0.609378
0.272469 0.259494 0.625569
0.430014 0.276537 0.641760
0.587559 0.293580 0.657951
0.745104 0.310623 0.674142
0.902649 0.327666 0.690333
0.150055 0.408910 0.641165
0.307601 0.425953 0.657355
0.465146 0.442996 0.673546
0.622691 0.460039 0.689737
0.780236 0.477082 0.705928
0.937781 0.494125 0.722119
0.185187 0.575369 0.672951
0.342733 0.592412 0.689141
0.500278 0.609455 0.705332
0.657823 0.626498 0.721523
0.815368 0.643541 0.737714
0.972913 0.660584 0.753905
0.220319 0.741828 0.704737
0.377865 0.758871 0.720927
0.535410 0.775914 0.737118
0.692955 0.792957 0.753309
0.850500 0.810000 0.769500
1.000000 0.827043 0.785691
0.255451 0.908287 0.736523
0.412996 0.925330 0.752713
0.570542 0.942373 0.768904
0.728087 0.959416 0.785095
0.885632 0.976459 0.801286
1.000000 0.993502 0.817477
0.086615 0.082490 0.710116
0.244160 0.099533 0.726306
0.401705 0.116576 0.742497
0.559250 0.133619 0.758688
0.716795 0.150662 0.774879
0.874340 0.167705 0.791070
0.121746 0.248949 0.741902
0.279292 0.265992 0.758092
0.436837 0.283035 0.774283
0.594382 0.300078 0.790474
0.751927 0.317121 0.806665
0.909472 0.334164 0.822856
0.156878 0.415408 0.773688
0.314424 0.432451 0.789878
0.471969 0.449494 0.806069
0.629514 0.466537 0.822260
0.787059 0.483580 0.838451
0.944604 0.500623 0.854642
0.192010 0.581867 0.805474
0.349555 0.598910 0.821664
0.507101 0.615953 0.837855
0.664646 0.632996 0.854046
0.822191 0.650039 0.870237
0.979736 0.667082 0.886428
0.227142 0.748326 0.837260
0.384687 0.765369 0.853451
0.542233 0.782412 0.869641
0.699778 0.799455 0.885832
0.857323 0.816498 0.902023
1.000000 0.833541 0.918214
0.262274 0.914785 0.869046
0.419819 0.931828 0.885237
0.577365 0.948871 0.901427
0.734910 0.965914 0.917618
0.892455 0.982957 0.933809
1.000000 1.000000 0.950000
