luts/Vintage_Film.cube
TITLE "Vintage_Film"
LUT_3D_SIZE 16
0.052500 0.050000 0.047500
0.105015 0.055681 0.052897
0.157530 0.061362 0.058294
0.210045 0.067043 0.063691
0.262560 0.072724 0.069088
0.315075 0.078405 0.074485
0.367590 0.084086 0.079882
0.420105 0.089767 0.085279
0.472620 0.095448 0.090676
0.525135 0.101129 0.096073
0.577650 0.106810 0.101469
0.630166 0.112491 0.106866
0.682681 0.118172 0.112263
0.735196 0.123853 0.117660
0.787711 0.129534 0.123057
0.840226 0.135215 0.128454
0.064211 0.105486 0.058095
0.116726 0.111167 0.063492
0.169241 0.116848 0.068889
0.221756 0.122529 0.074286
0.274271 0.128210 0.079683
0.326786 0.133891 0.085080
0.379301 0.139572 0.090477
0.431816 0.145253 0.095874
0.484331 0.150934 0.101271
0.536846 0.156615 0.106668
0.589361 0.162296 0.112065
0.641876 0.167977 0.117462
0.694391 0.173658 0.122859
0.746906 0.179339 0.128256
0.799421 0.185020 0.133653
0.851936 0.190701 0.139050
0.075921 0.160973 0.068691
0.128436 0.166654 0.074088
0.180951 0.172335 0.079485
0.233466 0.178016 0.084882
0.285981 0.183697 0.090278
0.338497 0.189378 0.095675
0.391012 0.195059 0.101072
0.443527 0.200740 0.106469
0.496042 0.206421 0.111866
0.548557 0.212102 0.117263
0.601072 0.217783 0.122660
0.653587 0.223464 0.128057
0.706102 0.229145 0.133454
0.758617 0.234826 0.138851
0.811132 0.240507 0.144248
0.863647 0.246188 0.149645
0.087632 0.216459 0.079286
0.140147 0.222140 0.084683
0.192662 0.227821 0.090080
0.245177 0.233502 0.095477
0.297692 0.239183 0.100874
0.350207 0.244864 0.106271
0.402722 0.250545 0.111668
0.455237 0.256226 0.117065
0.507752 0.261907 0.122462
0.560267 0.267588 0.127859
0.612782 0.273269 0.133256
0.665297 0.278950 0.138652
0.717813 0.284631 0.144049
0.770328 0.290312 0.149446
0.822843 0.295993 0.154843
0.875358 0.301674 0.160240
0.099343 0.271945 0.089881
0.151858 0.277626 0.095278
0.204373 0.283307 0.100675
0.256888 0.288988 0.106072
0.309403 0.294669 0.111469
0.361918 0.300350 0.116866
0.414433 0.306031 0.122263
0.466948 0.311712 0.127660
0.519463 0.317393 0.133057
0.571978 0.323074 0.138454
0.624493 0.328755 0.143851
0.677008 0.334436 0.149248
0.729523 0.340117 0.154645
0.782038 0.345798 0.160042
0.834553 0.351479 0.165439
0.887068 0.357160 0.170836
0.111053 0.327432 0.100477
0.163568 0.333113 0.105874
0.216083 0.338794 0.111271
0.268598 0.344475 0.116668
0.321113 0.350156 0.122065
0.373628 0.355837 0.127462
0.426144 0.361518 0.132858
0.478659 0.367199 0.138255
0.531174 0.372880 0.143652
0.583689 0.378561 0.149049
0.636204 0.384242 0.154446
0.688719 0.389923 0.159843
0.741234 0.395604 0.165240
0.793749 0.401285 0.170637
0.846264 0.406966 0.176034
0.898779 0.412647 0.181431
0.122764 0.382918 0.111072
0.175279 0.388599 0.116469
0.227794 0.394280 0.121866
0.280309 0.399961 0.127263
0.332824 0.405642 0.132660
0.385339 0.411323 0.138057
0.437854 0.417004 0.143454
0.490369 0.422685 0.148851
0.542884 0.428366 0.154248
0.595399 0.434047 0.159645
0.647914 0.439728 0.165042
0.700429 0.445409 0.170439
0.752945 0.451090 0.175835
0.805460 0.456771 0.181232
0.857975 0.462452 0.186629
0.910490 0.468133 0.192026
0.134475 0.438404 0.121667
0.186990 0.444085 0.127064
0.239505 0.449766 0.132461
0.292020 0.455447 0.137858
0.344535 0.461128 0.143255
0.397050 0.466809 0.148652
0.449565 0.472490 0.154049
0.502080 0.478171 0.159446
0.554595 0.483852 0.164843
0.607110 0.489533 0.170240
0.659625 0.495214 0.175637
0.712140 0.500895 0.181034
0.764655 0.506576 0.186431
0.817170 0.512257 0.191828
0.869685 0.517938 0.197225
0.922200 0.523619 0.202622
0.146185 0.493891 0.132263
0.198700 0.499572 0.137660
0.251215 0.505253 0.143057
0.303730 0.510934 0.148454
0.356245 0.516615 0.153851
0.408760 0.522296 0.159248
0.461275 0.527977 0.164644
0.513791 0.533658 0.170041
0.566306 0.539339 0.175438
0.618821 0.545020 0.180835
0.671336 0.550701 0.186232
0.723851 0.556382 0.191629
0.776366 0.562063 0.197026
0.828881 0.567744 0.202423
0.881396 0.573425 0.207820
0.933911 0.579106 0.213217
0.157896 0.549377 0.142858
0.210411 0.555058 0.148255
0.262926 0.560739 0.153652
0.315441 0.566420 0.159049
0.367956 0.572101 0.164446
0.420471 0.577782 0.169843
0.472986 0.583463 0.175240
0.525501 0.589144 0.180637
0.578016 0.594825 0.186034
0.630531 0.600506 0.191431
0.683046 0.606187 0.196828
0.735561 0.611868 0.202225
0.788076 0.617549 0.207622
0.840592 0.623230 0.213018
0.893107 0.628911 0.218415
0.945622 0.634592 0.223812
0.169607 0.604863 0.153453
0.222122 0.610544 0.158850
0.274637 0.616225 0.164247
0.327152 0.621906 0.169644
0.379667 0.627587 0.175041
0.432182 0.633268 0.180438
0.484697 0.638949 0.185835
0.537212 0.644630 0.191232
0.589727 0.650311 0.196629
0.642242 0.655992 0.202026
0.694757 0.661673 0.207423
0.747272 0.667354 0.212820
0.799787 0.673035 0.218217
0.852302 0.678716 0.223614
0.904817 0.684397 0.229011
0.957332 0.690078 0.234408
0.181317 0.660350 0.164049
0.233832 0.666031 0.169446
0.286347 0.671712 0.174843
0.338862 0.677393 0.180240
0.391377 0.683074 0.185637
0.443892 0.688755 0.191034
0.496407 0.694436 0.196431
0.548922 0.700117 0.201827
0.601438 0.705798 0.207224
0.653953 0.711479 0.212621
0.706468 0.717160 0.218018
0.758983 0.722841 0.223415
0.811498 0.728522 0.228812
0.864013 0.734203 0.234209
0.916528 0.739884 0.239606
0.969043 0.745565 0.245003
0.193028 0.715836 0.174644
0.245543 0.721517 0.180041
0.298058 0.727198 0.185438
0.350573 0.732879 0.190835
0.403088 0.738560 0.196232
0.455603 0.744241 0.201629
0.508118 0.749922 0.207026
0.560633 0.755603 0.212423
0.613148 0.761284 0.217820
0.665663 0.766965 0.223217
0.718178 0.772646 0.228614
0.770693 0.778327 0.234011
0.823208 0.784008 0.239408
0.875723 0.789689 0.244805
0.928239 0.795370 0.250201
0.980754 0.801051 0.255598
0.204738 0.771322 0.185240
0.257254 0.777003 0.190637
0.309769 0.782684 0.196033
0.362284 0.788365 0.201430
0.414799 0.794046 0.206827
0.467314 0.799727 0.212224
0.519829 0.805408 0.217621
0.572344 0.811089 0.223018
0.624859 0.816770 0.228415
0.677374 0.822451 0.233812
0.729889 0.828132 0.239209
0.782404 0.833813 0.244606
0.834919 0.839494 0.250003
0.887434 0.845175 0.255400
0.939949 0.850856 0.260797
0.992464 0.856537 0.266194
0.216449 0.826809 0.195835
0.268964 0.832490 0.201232
0.321479 0.838171 0.206629
0.373994 0.843852 0.212026
0.426509 0.849533 0.217423
0.479024 0.855214 0.222820
0.531539 0.860895 0.228217
0.584054 0.866576 0.233614
0.636569 0.872257 0.239010
0.689085 0.877938 0.244407
0.741600 0.883619 0.249804
0.794115 0.889300 0.255201
0.846630 0.894981 0.260598
0.899145 0.900662 0.265995
0.951660 0.906343 0.271392
1.000000 0.912024 0.276789
0.228160 0.882295 0.206430
0.280675 0.887976 0.211827
0.333190 0.893657 0.217224
0.385705 0.899338 0.222621
0.438220 0.905019 0.228018
0.490735 0.910700 0.233415
0.543250 0.916381 0.238812
0.595765 0.922062 0.244209
0.648280 0.927743 0.249606
0.700795 0.933424 0.255003
0.753310 0.939105 0.260400
0.805825 0.944786 0.265797
0.858340 0.950467 0.271194
0.910855 0.956148 0.276591
0.963370 0.961829 0.281988
1.000000 0.967510 0.287384
0.054774 0.052166 0.091674
0.107289 0.057847 0.097071
0.159804 0.063528 0.102468
0.212319 0.069209 0.107865
0.264834 0.074890 0.113262
0.317350 0.080571 0.118659
0.369865 0.086252 0.124056
0.422380 0.091933 0.129453
0.474895 0.097614 0.134850
0.527410 0.103295 0.140247
0.579925 0.108976 0.145644
0.632440 0.114657 0.151041
0.684955 0.120338 0.156438
0.737470 0.126019 0.161835
0.789985 0.131700 0.167232
0.842500 0.137381 0.172629
0.066485 0.107652 0.102270
0.119000 0.113333 0.107667
0.171515 0.119014 0.113064
0.224030 0.124695 0.118461
0.276545 0.130376 0.123858
0.329060 0.136057 0.129254
0.381575 0.141738 0.134651
0.434090 0.147419 0.140048
0.486605 0.153100 0.145445
0.539120 0.158781 0.150842
0.591635 0.164462 0.156239
0.644151 0.170143 0.161636
0.696666 0.175824 0.167033
0.749181 0.181505 0.172430
0.801696 0.187186 0.177827
0.854211 0.192867 0.183224
0.078196 0.163139 0.112865
0.130711 0.168820 0.118262
0.183226 0.174501 0.123659
0.235741 0.180182 0.129056
0.288256 0.185863 0.134453
0.340771 0.191544 0.139850
0.393286 0.197225 0.145247
0.445801 0.202906 0.150644
0.498316 0.208587 0.156041
0.550831 0.214268 0.161438
0.603346 0.219949 0.166835
0.655861 0.225630 0.172232
0.708376 0.231311 0.177628
0.760891 0.236992 0.183025
0.813406 0.242673 0.188422
0.865921 0.248354 0.193819
0.089906 0.218625 0.123460
0.142421 0.224306 0.128857
0.194936 0.229987 0.134254
0.247451 0.235668 0.139651
0.299966 0.241349 0.145048
0.352481 0.247030 0.150445
0.404997 0.252711 0.155842
0.457512 0.258392 0.161239
0.510027 0.264073 0.166636
0.562542 0.269754 0.172033
0.615057 0.275435 0.177430
0.667572 0.281116 0.182827
0.720087 0.286797 0.188224
0.772602 0.292478 0.193621
0.825117 0.298159 0.199018
0.877632 0.303840 0.204415
0.101617 0.274111 0.134056
0.154132 0.279792 0.139453
0.206647 0.285473 0.144850
0.259162 0.291154 0.150247
0.311677 0.296835 0.155644
0.364192 0.302516 0.161041
0.416707 0.308197 0.166437
0.469222 0.313878 0.171834
0.521737 0.319559 0.177231
0.574252 0.325240 0.182628
0.626767 0.330921 0.188025
0.679282 0.336602 0.193422
0.731797 0.342283 0.198819
0.784313 0.347964 0.204216
0.836828 0.353645 0.209613
0.889343 0.359326 0.215010
0.113328 0.329598 0.144651
0.165843 0.335279 0.150048
0.218358 0.340960 0.155445
0.270873 0.346641 0.160842
0.323388 0.352322 0.166239
0.375903 0.358003 0.171636
0.428418 0.363684 0.177033
0.480933 0.369365 0.182430
0.533448 0.375046 0.187827
0.585963 0.380727 0.193224
0.638478 0.386408 0.198621
0.690993 0.392089 0.204018
0.743508 0.397770 0.209415
0.796023 0.403451 0.214811
0.848538 0.409132 0.220208
0.901053 0.414813 0.225605
0.125038 0.385084 0.155246
0.177553 0.390765 0.160643
0.230068 0.396446 0.166040
0.282583 0.402127 0.171437
0.335098 0.407808 0.176834
0.387613 0.413489 0.182231
0.440128 0.419170 0.187628
0.492644 0.424851 0.193025
0.545159 0.430532 0.198422
0.597674 0.436213 0.203819
0.650189 0.441894 0.209216
0.702704 0.447575 0.214613
0.755219 0.453256 0.220010
0.807734 0.458937 0.225407
0.860249 0.464618 0.230804
0.912764 0.470299 0.236201
0.136749 0.440570 0.165842
0.189264 0.446251 0.171239
0.241779 0.451932 0.176636
0.294294 0.457613 0.182033
0.346809 0.463294 0.187430
0.399324 0.468975 0.192827
0.451839 0.474656 0.198224
0.504354 0.480337 0.203620
0.556869 0.486018 0.209017
0.609384 0.491699 0.214414
0.661899 0.497380 0.219811
0.714414 0.503061 0.225208
0.766929 0.508742 0.230605
0.819445 0.514423 0.236002
0.871960 0.520104 0.241399
0.924475 0.525785 0.246796
0.148459 0.496057 0.176437
0.200975 0.501738 0.181834
0.253490 0.507419 0.187231
0.306005 0.513100 0.192628
0.358520 0.518781 0.198025
0.411035 0.524462 0.203422
0.463550 0.530143 0.208819
0.516065 0.535824 0.214216
0.568580 0.541505 0.219613
0.621095 0.547186 0.225010
0.673610 0.552867 0.230407
0.726125 0.558548 0.235804
0.778640 0.564229 0.241201
0.831155 0.569910 0.246598
0.883670 0.575591 0.251994
0.936185 0.581272 0.257391
0.160170 0.551543 0.187033
0.212685 0.557224 0.192429
0.265200 0.562905 0.197826
0.317715 0.568586 0.203223
0.370230 0.574267 0.208620
0.422745 0.579948 0.214017
0.475260 0.585629 0.219414
0.527776 0.591310 0.224811
0.580291 0.596991 0.230208
0.632806 0.602672 0.235605
0.685321 0.608353 0.241002
0.737836 0.614034 0.246399
0.790351 0.619715 0.251796
0.842866 0.625396 0.257193
0.895381 0.631077 0.262590
0.947896 0.636758 0.267987
0.171881 0.607029 0.197628
0.224396 0.612710 0.203025
0.276911 0.618391 0.208422
0.329426 0.624072 0.213819
0.381941 0.629753 0.219216
0.434456 0.635434 0.224613
0.486971 0.641115 0.230010
0.539486 0.646796 0.235407
0.592001 0.652477 0.240803
0.644516 0.658158 0.246200
0.697031 0.663839 0.251597
0.749546 0.669520 0.256994
0.802061 0.675201 0.262391
0.854576 0.680882 0.267788
0.907092 0.686563 0.273185
0.959607 0.692244 0.278582
0.183591 0.662516 0.208223
0.236106 0.668197 0.213620
0.288622 0.673878 0.219017
0.341137 0.679559 0.224414
0.393652 0.685240 0.229811
0.446167 0.690921 0.235208
0.498682 0.696602 0.240605
0.551197 0.702283 0.246002
0.603712 0.707964 0.251399
0.656227 0.713645 0.256796
0.708742 0.719326 0.262193
0.761257 0.725007 0.267590
0.813772 0.730688 0.272987
0.866287 0.736369 0.278384
0.918802 0.742050 0.283781
0.971317 0.747731 0.289177
0.195302 0.718002 0.218819
0.247817 0.723683 0.224216
0.300332 0.729364 0.229612
0.352847 0.735045 0.235009
0.405362 0.740726 0.240406
0.457877 0.746407 0.245803
0.510392 0.752088 0.251200
0.562907 0.757769 0.256597
0.615423 0.763450 0.261994
0.667938 0.769131 0.267391
0.720453 0.774812 0.272788
0.772968 0.780493 0.278185
0.825483 0.786174 0.283582
0.877998 0.791855 0.288979
0.930513 0.797536 0.294376
0.983028 0.803217 0.299773
0.207013 0.773488 0.229414
0.259528 0.779169 0.234811
0.312043 0.784850 0.240208
0.364558 0.790531 0.245605
0.417073 0.796212 0.251002
0.469588 0.801893 0.256399
0.522103 0.807574 0.261796
0.574618 0.813255 0.267193
0.627133 0.818936 0.272590
0.679648 0.824617 0.277986
0.732163 0.830298 0.283383
0.784678 0.835979 0.288780
0.837193 0.841660 0.294177
0.889708 0.847341 0.299574
0.942223 0.853022 0.304971
0.994739 0.858703 0.310368
0.218723 0.828975 0.240009
0.271238 0.834656 0.245406
0.323753 0.840337 0.250803
0.376269 0.846018 0.256200
0.428784 0.851699 0.261597
0.481299 0.857380 0.266994
0.533814 0.863061 0.272391
0.586329 0.868742 0.277788
0.638844 0.874423 0.283185
0.691359 0.880104 0.288582
0.743874 0.885785 0.293979
0.796389 0.891466 0.299376
0.848904 0.897147 0.304773
0.901419 0.902828 0.310170
0.953934 0.908509 0.315567
1.000000 0.914190 0.320964
0.230434 0.884461 0.250605
0.282949 0.890142 0.256002
0.335464 0.895823 0.261399
0.387979 0.901504 0.266795
0.440494 0.907185 0.272192
0.493009 0.912866 0.277589
0.545524 0.918547 0.282986
0.598039 0.924228 0.288383
0.650554 0.929909 0.293780
0.703070 0.935590 0.299177
0.755585 0.941271 0.304574
0.808100 0.946952 0.309971
0.860615 0.952633 0.315368
0.913130 0.958314 0.320765
0.965645 0.963995 0.326162
1.000000 0.969676 0.331559
0.057049 0.054332 0.135849
0.109564 0.060013 0.141246
0.162079 0.065694 0.146643
0.214594 0.071375 0.152040
0.267109 0.077056 0.157437
0.319624 0.082737 0.162833
0.372139 0.088418 0.168230
0.424654 0.094099 0.173627
0.477169 0.099780 0.179024
0.529684 0.105461 0.184421
0.582199 0.111142 0.189818
0.634714 0.116823 0.195215
0.687229 0.122504 0.200612
0.739744 0.128185 0.206009
0.792259 0.133866 0.211406
0.844774 0.139547 0.216803
0.068759 0.109818 0.146444
0.121274 0.115499 0.151841
0.173789 0.121180 0.157238
0.226304 0.126861 0.162635
0.278819 0.132542 0.168032
0.331334 0.138223 0.173429
0.383850 0.143904 0.178826
0.436365 0.149585 0.184223
0.488880 0.155266 0.189620
0.541395 0.160947 0.195017
0.593910 0.166628 0.200414
0.646425 0.172309 0.205811
0.698940 0.177990 0.211207
0.751455 0.183671 0.216604
0.803970 0.189352 0.222001
0.856485 0.195033 0.227398
0.080470 0.165305 0.157039
0.132985 0.170986 0.162436
0.185500 0.176667 0.167833
0.238015 0.182348 0.173230
0.290530 0.188029 0.178627
0.343045 0.193710 0.184024
0.395560 0.199391 0.189421
0.448075 0.205072 0.194818
0.500590 0.210753 0.200215
0.553105 0.216434 0.205612
0.605620 0.222115 0.211009
0.658135 0.227796 0.216406
0.710650 0.233477 0.221803
0.763166 0.239158 0.227200
0.815681 0.244839 0.232597
0.868196 0.250520 0.237994
0.092181 0.220791 0.167635
0.144696 0.226472 0.173032
0.197211 0.232153 0.178429
0.249726 0.237834 0.183826
0.302241 0.243515 0.189223
0.354756 0.249196 0.194620
0.407271 0.254877 0.200016
0.459786 0.260558 0.205413
0.512301 0.266239 0.210810
0.564816 0.271920 0.216207
0.617331 0.277601 0.221604
0.669846 0.283282 0.227001
0.722361 0.288963 0.232398
0.774876 0.294644 0.237795
0.827391 0.300325 0.243192
0.879906 0.306006 0.248589
0.103891 0.276277 0.178230
0.156406 0.281958 0.183627
0.208921 0.287639 0.189024
0.261436 0.293320 0.194421
0.313951 0.299001 0.199818
0.366466 0.304682 0.205215
0.418981 0.310363 0.210612
0.471497 0.316044 0.216009
0.524012 0.321725 0.221406
0.576527 0.327406 0.226803
0.629042 0.333087 0.232200
0.681557 0.338768 0.237597
0.734072 0.344449 0.242994
0.786587 0.350130 0.248390
0.839102 0.355811 0.253787
0.891617 0.361492 0.259184
0.115602 0.331764 0.188825
0.168117 0.337445 0.194222
0.220632 0.343126 0.199619
0.273147 0.348807 0.205016
0.325662 0.354488 0.210413
0.378177 0.360169 0.215810
0.430692 0.365850 0.221207
0.483207 0.371531 0.226604
0.535722 0.377212 0.232001
0.588237 0.382893 0.237398
0.640752 0.388574 0.242795
0.693267 0.394255 0.248192
0.745782 0.399936 0.253589
0.798298 0.405617 0.258986
0.850813 0.411298 0.264383
0.903328 0.416979 0.269780
0.127312 0.387250 0.199421
0.179828 0.392931 0.204818
0.232343 0.398612 0.210215
0.284858 0.404293 0.215612
0.337373 0.409974 0.221009
0.389888 0.415655 0.226406
0.442403 0.421336 0.231803
0.494918 0.427017 0.237199
0.547433 0.432698 0.242596
0.599948 0.438379 0.247993
0.652463 0.444060 0.253390
0.704978 0.449741 0.258787
0.757493 0.455422 0.264184
0.810008 0.461103 0.269581
0.862523 0.466784 0.274978
0.915038 0.472465 0.280375
0.139023 0.442736 0.210016
0.191538 0.448417 0.215413
0.244053 0.454098 0.220810
0.296568 0.459779 0.226207
0.349083 0.465460 0.231604
0.401598 0.471141 0.237001
0.454113 0.476822 0.242398
0.506628 0.482503 0.247795
0.559144 0.488184 0.253192
0.611659 0.493865 0.258589
0.664174 0.499546 0.263986
0.716689 0.505227 0.269383
0.769204 0.510908 0.274780
0.821719 0.516589 0.280177
0.874234 0.522270 0.285573
0.926749 0.527951 0.290970
0.150734 0.498223 0.220612
0.203249 0.503904 0.226008
0.255764 0.509585 0.231405
0.308279 0.515266 0.236802
0.360794 0.520947 0.242199
0.413309 0.526628 0.247596
0.465824 0.532309 0.252993
0.518339 0.537990 0.258390
0.570854 0.543671 0.263787
0.623369 0.549352 0.269184
0.675884 0.555033 0.274581
0.728399 0.560714 0.279978
0.780914 0.566395 0.285375
0.833429 0.572076 0.290772
0.885945 0.577757 0.296169
0.938460 0.583438 0.301566
0.162444 0.553709 0.231207
0.214959 0.559390 0.236604
0.267475 0.565071 0.242001
0.319990 0.570752 0.247398
0.372505 0.576433 0.252795
0.425020 0.582114 0.258192
0.477535 0.587795 0.263589
0.530050 0.593476 0.268986
0.582565 0.599157 0.274382
0.635080 0.604838 0.279779
0.687595 0.610519 0.285176
0.740110 0.616200 0.290573
0.792625 0.621881 0.295970
0.845140 0.627562 0.301367
0.897655 0.633243 0.306764
0.950170 0.638924 0.312161
0.174155 0.609195 0.241802
0.226670 0.614876 0.247199
0.279185 0.620557 0.252596
0.331700 0.626238 0.257993
0.384215 0.631919 0.263390
0.436730 0.637600 0.268787
0.489245 0.643281 0.274184
0.541760 0.648962 0.279581
0.594275 0.654643 0.284978
0.646791 0.660324 0.290375
0.699306 0.666005 0.295772
0.751821 0.671686 0.301169
0.804336 0.677367 0.306566
0.856851 0.683048 0.311963
0.909366 0.688729 0.317360
0.961881 0.694410 0.322756
0.185866 0.664682 0.252398
0.238381 0.670363 0.257795
0.290896 0.676044 0.263191
0.343411 0.681725 0.268588
0.395926 0.687406 0.273985
0.448441 0.693087 0.279382
0.500956 0.698768 0.284779
0.553471 0.704449 0.290176
0.605986 0.710130 0.295573
0.658501 0.715811 0.300970
0.711016 0.721492 0.306367
0.763531 0.727173 0.311764
0.816046 0.732854 0.317161
0.868561 0.738535 0.322558
0.921076 0.744216 0.327955
0.973591 0.749897 0.333352
0.197576 0.720168 0.262993
0.250091 0.725849 0.268390
0.302607 0.731530 0.273787
0.355122 0.737211 0.279184
0.407637 0.742892 0.284581
0.460152 0.748573 0.289978
0.512667 0.754254 0.295375
0.565182 0.759935 0.300772
0.617697 0.765616 0.306169
0.670212 0.771297 0.311565
0.722727 0.776978 0.316962
0.775242 0.782659 0.322359
0.827757 0.788340 0.327756
0.880272 0.794021 0.333153
0.932787 0.799702 0.338550
0.985302 0.805383 0.343947
0.209287 0.775654 0.273588
0.261802 0.781335 0.278985
0.314317 0.787016 0.284382
0.366832 0.792697 0.289779
0.419347 0.798378 0.295176
0.471862 0.804059 0.300573
0.524377 0.809740 0.305970
0.576892 0.815421 0.311367
0.629407 0.821102 0.316764
0.681922 0.826783 0.322161
0.734438 0.832464 0.327558
0.786953 0.838145 0.332955
0.839468 0.843826 0.338352
0.891983 0.849507 0.343749
0.944498 0.855188 0.349146
0.997013 0.860869 0.354543
0.220998 0.831141 0.284184
0.273513 0.836822 0.289581
0.326028 0.842503 0.294978
0.378543 0.848184 0.300374
0.431058 0.853865 0.305771
0.483573 0.859546 0.311168
0.536088 0.865227 0.316565
0.588603 0.870908 0.321962
0.641118 0.876589 0.327359
0.693633 0.882270 0.332756
0.746148 0.887951 0.338153
0.798663 0.893632 0.343550
0.851178 0.899313 0.348947
0.903693 0.904994 0.354344
0.956208 0.910675 0.359741
1.000000 0.916356 0.365138
0.232708 0.886627 0.294779
0.285223 0.892308 0.300176
0.337738 0.897989 0.305573
0.390253 0.903670 0.310970
0.442769 0.909351 0.316367
0.495284 0.915032 0.321764
0.547799 0.920713 0.327161
0.600314 0.926394 0.332558
0.652829 0.932075 0.337955
0.705344 0.937756 0.343352
0.757859 0.943437 0.348748
0.810374 0.949118 0.354145
0.862889 0.954799 0.359542
0.915404 0.960480 0.364939
0.967919 0.966161 0.370336
1.000000 0.971842 0.375733
0.059323 0.056498 0.180023
0.111838 0.062179 0.185420
0.164353 0.067860 0.190817
0.216868 0.073541 0.196214
0.269383 0.079222 0.201611
0.321898 0.084903 0.207008
0.374413 0.090584 0.212405
0.426928 0.096265 0.217802
0.479443 0.101946 0.223199
0.531958 0.107627 0.228596
0.584473 0.113308 0.233993
0.636988 0.118989 0.239390
0.689504 0.124670 0.244786
0.742019 0.130351 0.250183
0.794534 0.136032 0.255580
0.847049 0.141713 0.260977
0.071034 0.111984 0.190618
0.123549 0.117665 0.196015
0.176064 0.123346 0.201412
0.228579 0.129027 0.206809
0.281094 0.134708 0.212206
0.333609 0.140389 0.217603
0.386124 0.146070 0.223000
0.438639 0.151751 0.228397
0.491154 0.157432 0.233794
0.543669 0.163113 0.239191
0.596184 0.168794 0.244588
0.648699 0.174475 0.249985
0.701214 0.180156 0.255382
0.753729 0.185837 0.260779
0.806244 0.191518 0.266176
0.858759 0.197199 0.271573
0.082744 0.167471 0.201214
0.135259 0.173152 0.206611
0.187774 0.178833 0.212008
0.240289 0.184514 0.217405
0.292804 0.190195 0.222802
0.345319 0.195876 0.228199
0.397834 0.201557 0.233595
0.450350 0.207238 0.238992
0.502865 0.212919 0.244389
0.555380 0.218600 0.249786
0.607895 0.224281 0.255183
0.660410 0.229962 0.260580
0.712925 0.235643 0.265977
0.765440 0.241324 0.271374
0.817955 0.247005 0.276771
0.870470 0.252686 0.282168
0.094455 0.222957 0.211809
0.146970 0.228638 0.217206
0.199485 0.234319 0.222603
0.252000 0.240000 0.228000
0.304515 0.245681 0.233397
0.357030 0.251362 0.238794
0.409545 0.257043 0.244191
0.462060 0.262724 0.249588
0.514575 0.268405 0.254985
0.567090 0.274086 0.260382
0.619605 0.279767 0.265779
0.672120 0.285448 0.271176
0.724635 0.291129 0.276573
0.777151 0.296810 0.281969
0.829666 0.302491 0.287366
0.882181 0.308172 0.292763
0.106166 0.278443 0.222404
0.158681 0.284124 0.227801
0.211196 0.289805 0.233198
0.263711 0.295486 0.238595
0.316226 0.301167 0.243992
0.368741 0.306848 0.249389
0.421256 0.312529 0.254786
0.473771 0.318210 0.260183
0.526286 0.323891 0.265580
0.578801 0.329572 0.270977
0.631316 0.335253 0.276374
0.683831 0.340934 0.281771
0.736346 0.346615 0.287168
0.788861 0.352296 0.292565
0.841376 0.357977 0.297962
0.893891 0.363658 0.303359
0.117876 0.333930 0.233000
0.170391 0.339611 0.238397
0.222906 0.345292 0.243794
0.275421 0.350973 0.249191
0.327936 0.356654 0.254588
0.380451 0.362335 0.259985
0.432966 0.368016 0.265382
0.485481 0.373697 0.270778
0.537997 0.379378 0.276175
0.590512 0.385059 0.281572
0.643027 0.390740 0.286969
0.695542 0.396421 0.292366
0.748057 0.402102 0.297763
0.800572 0.407783 0.303160
0.853087 0.413464 0.308557
0.905602 0.419145 0.313954
0.129587 0.389416 0.243595
0.182102 0.395097 0.248992
0.234617 0.400778 0.254389
0.287132 0.406459 0.259786
0.339647 0.412140 0.265183
0.392162 0.417821 0.270580
0.444677 0.423502 0.275977
0.497192 0.429183 0.281374
0.549707 0.434864 0.286771
0.602222 0.440545 0.292168
0.654737 0.446226 0.297565
0.707252 0.451907 0.302962
0.759767 0.457588 0.308359
0.812282 0.463269 0.313756
0.864797 0.468950 0.319152
0.917313 0.474631 0.324549
0.141297 0.444902 0.254191
0.193812 0.450583 0.259587
0.246328 0.456264 0.264984
0.298843 0.461945 0.270381
0.351358 0.467626 0.275778
0.403873 0.473307 0.281175
0.456388 0.478988 0.286572
