luts/Warm_Tone.cube
TITLE "Warm_Tone"
LUT_3D_SIZE 16
0.000000 0.000000 0.000000
0.076667 0.000000 0.000000
0.153333 0.000000 0.000000
0.230000 0.000000 0.000000
0.306667 0.000000 0.000000
0.383333 0.000000 0.000000
0.460000 0.000000 0.000000
0.536667 0.000000 0.000000
0.613333 0.000000 0.000000
0.690000 0.000000 0.000000
0.766667 0.000000 0.000000
0.843333 0.000000 0.000000
0.920000 0.000000 0.000000
0.996667 0.000000 0.000000
1.000000 0.000000 0.000000
1.000000 0.000000 0.000000
0.000000 0.070000 0.000000
0.076667 0.070000 0.000000
0.153333 0.070000 0.000000
0.230000 0.070000 0.000000
0.306667 0.070000 0.000000
0.383333 0.070000 0.000000
0.460000 0.070000 0.000000
0.536667 0.070000 0.000000
0.613333 0.070000 0.000000
0.690000 0.070000 0.000000
0.766667 0.070000 0.000000
0.843333 0.070000 0.000000
0.920000 0.070000 0.000000
0.996667 0.070000 0.000000
1.000000 0.070000 0.000000
1.000000 0.070000 0.000000
0.000000 0.140000 0.000000
0.076667 0.140000 0.000000
0.153333 0.140000 0.000000
0.230000 0.140000 0.000000
0.306667 0.140000 0.000000
0.383333 0.140000 0.000000
0.460000 0.140000 0.000000
0.536667 0.140000 0.000000
0.613333 0.140000 0.000000
0.690000 0.140000 0.000000
0.766667 0.140000 0.000000
0.843333 0.140000 0.000000
0.920000 0.140000 0.000000
0.996667 0.140000 0.000000
1.000000 0.140000 0.000000
1.000000 0.140000 0.000000
0.000000 0.210000 0.000000
0.076667 0.210000 0.000000
0.153333 0.210000 0.000000
0.230000 0.210000 0.000000
0.306667 0.210000 0.000000
0.383333 0.210000 0.000000
0.460000 0.210000 0.000000
0.536667 0.210000 0.000000
0.613333 0.210000 0.000000
0.690000 0.210000 0.000000
0.766667 0.210000 0.000000
0.843333 0.210000 0.000000
0.920000 0.210000 0.000000
0.996667 0.210000 0.000000
1.000000 0.210000 0.000000
1.000000 0.210000 0.000000
0.000000 0.280000 0.000000
0.076667 0.280000 0.000000
0.153333 0.280000 0.000000
0.230000 0.280000 0.000000
0.306667 0.280000 0.000000
0.383333 0.280000 0.000000
0.460000 0.280000 0.000000
0.536667 0.280000 0.000000
0.613333 0.280000 0.000000
0.690000 0.280000 0.000000
0.766667 0.280000 0.000000
0.843333 0.280000 0.000000
0.920000 0.280000 0.000000
0.996667 0.280000 0.000000
1.000000 0.280000 0.000000
1.000000 0.280000 0.000000
0.000000 0.350000 0.000000
0.076667 0.350000 0.000000
0.153333 0.350000 0.000000
0.230000 0.350000 0.000000
0.306667 0.350000 0.000000
0.383333 0.350000 0.000000
0.460000 0.350000 0.000000
0.536667 0.350000 0.000000
0.613333 0.350000 0.000000
0.690000 0.350000 0.000000
0.766667 0.350000 0.000000
0.843333 0.350000 0.000000
0.920000 0.350000 0.000000
0.996667 0.350000 0.000000
1.000000 0.350000 0.000000
1.000000 0.350000 0.000000
0.000000 0.420000 0.000000
0.076667 0.420000 0.000000
0.153333 0.420000 0.000000
0.230000 0.420000 0.000000
0.306667 0.420000 0.000000
0.383333 0.420000 0.000000
0.460000 0.420000 0.000000
0.536667 0.420000 0.000000
0.613333 0.420000 0.000000
0.690000 0.420000 0.000000
0.766667 0.420000 0.000000
0.843333 0.420000 0.000000
0.920000 0.420000 0.000000
0.996667 0.420000 0.000000
1.000000 0.420000 0.000000
1.000000 0.420000 0.000000
0.000000 0.490000 0.000000
0.076667 0.490000 0.000000
0.153333 0.490000 0.000000
0.230000 0.490000 0.000000
0.306667 0.490000 0.000000
0.383333 0.490000 0.000000
0.460000 0.490000 0.000000
0.536667 0.490000 0.000000
0.613333 0.490000 0.000000
0.690000 0.490000 0.000000
0.766667 0.490000 0.000000
0.843333 0.490000 0.000000
0.920000 0.490000 0.000000
0.996667 0.490000 0.000000
1.000000 0.490000 0.000000
1.000000 0.490000 0.000000
0.000000 0.560000 0.000000
0.076667 0.560000 0.000000
0.153333 0.560000 0.000000
0.230000 0.560000 0.000000
0.306667 0.560000 0.000000
0.383333 0.560000 0.000000
0.460000 0.560000 0.000000
0.536667 0.560000 0.000000
0.613333 0.560000 0.000000
0.690000 0.560000 0.000000
0.766667 0.560000 0.000000
0.843333 0.560000 0.000000
0.920000 0.560000 0.000000
0.996667 0.560000 0.000000
1.000000 0.560000 0.000000
1.000000 0.560000 0.000000
0.000000 0.630000 0.000000
0.076667 0.630000 0.000000
0.153333 0.630000 0.000000
0.230000 0.630000 0.000000
0.306667 0.630000 0.000000
0.383333 0.630000 0.000000
0.460000 0.630000 0.000000
0.536667 0.630000 0.000000
0.613333 0.630000 0.000000
0.690000 0.630000 0.000000
0.766667 0.630000 0.000000
0.843333 0.630000 0.000000
0.920000 0.630000 0.000000
0.996667 0.630000 0.000000
1.000000 0.630000 0.000000
1.000000 0.630000 0.000000
0.000000 0.700000 0.000000
0.076667 0.700000 0.000000
0.153333 0.700000 0.000000
0.230000 0.700000 0.000000
0.306667 0.700000 0.000000
0.383333 0.700000 0.000000
0.460000 0.700000 0.000000
0.536667 0.700000 0.000000
0.613333 0.700000 0.000000
0.690000 0.700000 0.000000
0.766667 0.700000 0.000000
0.843333 0.700000 0.000000
0.920000 0.700000 0.000000
0.996667 0.700000 0.000000
1.000000 0.700000 0.000000
1.000000 0.700000 0.000000
0.000000 0.770000 0.000000
0.076667 0.770000 0.000000
0.153333 0.770000 0.000000
0.230000 0.770000 0.000000
0.306667 0.770000 0.000000
0.383333 0.770000 0.000000
0.460000 0.770000 0.000000
0.536667 0.770000 0.000000
0.613333 0.770000 0.000000
0.690000 0.770000 0.000000
0.766667 0.770000 0.000000
0.843333 0.770000 0.000000
0.920000 0.770000 0.000000
0.996667 0.770000 0.000000
1.000000 0.770000 0.000000
1.000000 0.770000 0.000000
0.000000 0.840000 0.000000
0.076667 0.840000 0.000000
0.153333 0.840000 0.000000
0.230000 0.840000 0.000000
0.306667 0.840000 0.000000
0.383333 0.840000 0.000000
0.460000 0.840000 0.000000
0.536667 0.840000 0.000000
0.613333 0.840000 0.000000
0.690000 0.840000 0.000000
0.766667 0.840000 0.000000
0.843333 0.840000 0.000000
0.920000 0.840000 0.000000
0.996667 0.840000 0.000000
1.000000 0.840000 0.000000
1.000000 0.840000 0.000000
0.000000 0.910000 0.000000
0.076667 0.910000 0.000000
0.153333 0.910000 0.000000
0.230000 0.910000 0.000000
0.306667 0.910000 0.000000
0.383333 0.910000 0.000000
0.460000 0.910000 0.000000
0.536667 0.910000 0.000000
0.613333 0.910000 0.000000
0.690000 0.910000 0.000000
0.766667 0.910000 0.000000
0.843333 0.910000 0.000000
0.920000 0.910000 0.000000
0.996667 0.910000 0.000000
1.000000 0.910000 0.000000
1.000000 0.910000 0.000000
0.000000 0.980000 0.000000
0.076667 0.980000 0.000000
0.153333 0.980000 0.000000
0.230000 0.980000 0.000000
0.306667 0.980000 0.000000
0.383333 0.980000 0.000000
0.460000 0.980000 0.000000
0.536667 0.980000 0.000000
0.613333 0.980000 0.000000
0.690000 0.980000 0.000000
0.766667 0.980000 0.000000
0.843333 0.980000 0.000000
0.920000 0.980000 0.000000
0.996667 0.980000 0.000000
1.000000 0.980000 0.000000
1.000000 0.980000 0.000000
0.000000 1.000000 0.000000
0.076667 1.000000 0.000000
0.153333 1.000000 0.000000
0.230000 1.000000 0.000000
0.306667 1.000000 0.000000
0.383333 1.000000 0.000000
0.460000 1.000000 0.000000
0.536667 1.000000 0.000000
0.613333 1.000000 0.000000
0.690000 1.000000 0.000000
0.766667 1.000000 0.000000
0.843333 1.000000 0.000000
0.920000 1.000000 0.000000
0.996667 1.000000 0.000000
1.000000 1.000000 0.000000
1.000000 1.000000 0.000000
0.000000 0.000000 0.056667
0.076667 0.000000 0.056667
0.153333 0.000000 0.056667
0.230000 0.000000 0.056667
0.306667 0.000000 0.056667
0.383333 0.000000 0.056667
0.460000 0.000000 0.056667
0.536667 0.000000 0.056667
0.613333 0.000000 0.056667
0.690000 0.000000 0.056667
0.766667 0.000000 0.056667
0.843333 0.000000 0.056667
0.920000 0.000000 0.056667
0.996667 0.000000 0.056667
1.000000 0.000000 0.056667
1.000000 0.000000 0.056667
0.000000 0.070000 0.056667
0.076667 0.070000 0.056667
0.153333 0.070000 0.056667
0.230000 0.070000 0.056667
0.306667 0.070000 0.056667
0.383333 0.070000 0.056667
0.460000 0.070000 0.056667
0.536667 0.070000 0.056667
0.613333 0.070000 0.056667
0.690000 0.070000 0.056667
0.766667 0.070000 0.056667
0.843333 0.070000 0.056667
0.920000 0.070000 0.056667
0.996667 0.070000 0.056667
1.000000 0.070000 0.056667
1.000000 0.070000 0.056667
0.000000 0.140000 0.056667
0.076667 0.140000 0.056667
0.153333 0.140000 0.056667
0.230000 0.140000 0.056667
0.306667 0.140000 0.056667
0.383333 0.140000 0.056667
0.460000 0.140000 0.056667
0.536667 0.140000 0.056667
0.613333 0.140000 0.056667
0.690000 0.140000 0.056667
0.766667 0.140000 0.056667
0.843333 0.140000 0.056667
0.920000 0.140000 0.056667
0.996667 0.140000 0.056667
1.000000 0.140000 0.056667
1.000000 0.140000 0.056667
0.000000 0.210000 0.056667
0.076667 0.210000 0.056667
0.153333 0.210000 0.056667
0.230000 0.210000 0.056667
0.306667 0.210000 0.056667
0.383333 0.210000 0.056667
0.460000 0.210000 0.056667
0.536667 0.210000 0.056667
0.613333 0.210000 0.056667
0.690000 0.210000 0.056667
0.766667 0.210000 0.056667
0.843333 0.210000 0.056667
0.920000 0.210000 0.056667
0.996667 0.210000 0.056667
1.000000 0.210000 0.056667
1.000000 0.210000 0.056667
0.000000 0.280000 0.056667
0.076667 0.280000 0.056667
0.153333 0.280000 0.056667
0.230000 0.280000 0.056667
0.306667 0.280000 0.056667
0.383333 0.280000 0.056667
0.460000 0.280000 0.056667
0.536667 0.280000 0.056667
0.613333 0.280000 0.056667
0.690000 0.280000 0.056667
0.766667 0.280000 0.056667
0.843333 0.280000 0.056667
0.920000 0.280000 0.056667
0.996667 0.280000 0.056667
1.000000 0.280000 0.056667
1.000000 0.280000 0.056667
0.000000 0.350000 0.056667
0.076667 0.350000 0.056667
0.153333 0.350000 0.056667
0.230000 0.350000 0.056667
0.306667 0.350000 0.056667
0.383333 0.350000 0.056667
0.460000 0.350000 0.056667
0.536667 0.350000 0.056667
0.613333 0.350000 0.056667
0.690000 0.350000 0.056667
0.766667 0.350000 0.056667
0.843333 0.350000 0.056667
0.920000 0.350000 0.056667
0.996667 0.350000 0.056667
1.000000 0.350000 0.056667
1.000000 0.350000 0.056667
0.000000 0.420000 0.056667
0.076667 0.420000 0.056667
0.153333 0.420000 0.056667
0.230000 0.420000 0.056667
0.306667 0.420000 0.056667
0.383333 0.420000 0.056667
0.460000 0.420000 0.056667
0.536667 0.420000 0.056667
0.613333 0.420000 0.056667
0.690000 0.420000 0.056667
0.766667 0.420000 0.056667
0.843333 0.420000 0.056667
0.920000 0.420000 0.056667
0.996667 0.420000 0.056667
1.000000 0.420000 0.056667
1.000000 0.420000 0.056667
0.000000 0.490000 0.056667
0.076667 0.490000 0.056667
0.153333 0.490000 0.056667
0.230000 0.490000 0.056667
0.306667 0.490000 0.056667
0.383333 0.490000 0.056667
0.460000 0.490000 0.056667
0.536667 0.490000 0.056667
0.613333 0.490000 0.056667
0.690000 0.490000 0.056667
0.766667 0.490000 0.056667
0.843333 0.490000 0.056667
0.920000 0.490000 0.056667
0.996667 0.490000 0.056667
1.000000 0.490000 0.056667
1.000000 0.490000 0.056667
0.000000 0.560000 0.056667
0.076667 0.560000 0.056667
0.153333 0.560000 0.056667
0.230000 0.560000 0.056667
0.306667 0.560000 0.056667
0.383333 0.560000 0.056667
0.460000 0.560000 0.056667
0.536667 0.560000 0.056667
0.613333 0.560000 0.056667
0.690000 0.560000 0.056667
0.766667 0.560000 0.056667
0.843333 0.560000 0.056667
0.920000 0.560000 0.056667
0.996667 0.560000 0.056667
1.000000 0.560000 0.056667
1.000000 0.560000 0.056667
0.000000 0.630000 0.056667
0.076667 0.630000 0.056667
0.153333 0.630000 0.056667
0.230000 0.630000 0.056667
0.306667 0.630000 0.056667
0.383333 0.630000 0.056667
0.460000 0.630000 0.056667
0.536667 0.630000 0.056667
0.613333 0.630000 0.056667
0.690000 0.630000 0.056667
0.766667 0.630000 0.056667
0.843333 0.630000 0.056667
0.920000 0.630000 0.056667
0.996667 0.630000 0.056667
1.000000 0.630000 0.056667
1.000000 0.630000 0.056667
0.000000 0.700000 0.056667
0.076667 0.700000 0.056667
0.153333 0.700000 0.056667
0.230000 0.700000 0.056667
0.306667 0.700000 0.056667
0.383333 0.700000 0.056667
0.460000 0.700000 0.056667
0.536667 0.700000 0.056667
0.613333 0.700000 0.056667
0.690000 0.700000 0.056667
0.766667 0.700000 0.056667
0.843333 0.700000 0.056667
0.920000 0.700000 0.056667
0.996667 0.700000 0.056667
1.000000 0.700000 0.056667
1.000000 0.700000 0.056667
0.000000 0.770000 0.056667
0.076667 0.770000 0.056667
0.153333 0.770000 0.056667
0.230000 0.770000 0.056667
0.306667 0.770000 0.056667
0.383333 0.770000 0.056667
0.460000 0.770000 0.056667
0.536667 0.770000 0.056667
0.613333 0.770000 0.056667
0.690000 0.770000 0.056667
0.766667 0.770000 0.056667
0.843333 0.770000 0.056667
0.920000 0.770000 0.056667
0.996667 0.770000 0.056667
1.000000 0.770000 0.056667
1.000000 0.770000 0.056667
0.000000 0.840000 0.056667
0.076667 0.840000 0.056667
0.153333 0.840000 0.056667
0.230000 0.840000 0.056667
0.306667 0.840000 0.056667
0.383333 0.840000 0.056667
0.460000 0.840000 0.056667
0.536667 0.840000 0.056667
0.613333 0.840000 0.056667
0.690000 0.840000 0.056667
0.766667 0.840000 0.056667
0.843333 0.840000 0.056667
0.920000 0.840000 0.056667
0.996667 0.840000 0.056667
1.000000 0.840000 0.056667
1.000000 0.840000 0.056667
0.000000 0.910000 0.056667
0.076667 0.910000 0.056667
0.153333 0.910000 0.056667
0.230000 0.910000 0.056667
0.306667 0.910000 0.056667
0.383333 0.910000 0.056667
0.460000 0.910000 0.056667
0.536667 0.910000 0.056667
0.613333 0.910000 0.056667
0.690000 0.910000 0.056667
0.766667 0.910000 0.056667
0.843333 0.910000 0.056667
0.920000 0.910000 0.056667
0.996667 0.910000 0.056667
1.000000 0.910000 0.056667
1.000000 0.910000 0.056667
0.000000 0.980000 0.056667
0.076667 0.980000 0.056667
0.153333 0.980000 0.056667
0.230000 0.980000 0.056667
0.306667 0.980000 0.056667
0.383333 0.980000 0.056667
0.460000 0.980000 0.056667
0.536667 0.980000 0.056667
0.613333 0.980000 0.056667
0.690000 0.980000 0.056667
0.766667 0.980000 0.056667
0.843333 0.980000 0.056667
0.920000 0.980000 0.056667
0.996667 0.980000 0.056667
1.000000 0.980000 0.056667
1.000000 0.980000 0.056667
0.000000 1.000000 0.056667
0.076667 1.000000 0.056667
0.153333 1.000000 0.056667
0.230000 1.000000 0.056667
0.306667 1.000000 0.056667
0.383333 1.000000 0.056667
0.460000 1.000000 0.056667
0.536667 1.000000 0.056667
0.613333 1.000000 0.056667
0.690000 1.000000 0.056667
0.766667 1.000000 0.056667
0.843333 1.000000 0.056667
0.920000 1.000000 0.056667
0.996667 1.000000 0.056667
1.000000 1.000000 0.056667
1.000000 1.000000 0.056667
0.000000 0.000000 0.113333
0.076667 0.000000 0.113333
0.153333 0.000000 0.113333
0.230000 0.000000 0.113333
0.306667 0.000000 0.113333
0.383333 0.000000 0.113333
0.460000 0.000000 0.113333
0.536667 0.000000 0.113333
0.613333 0.000000 0.113333
0.690000 0.000000 0.113333
0.766667 0.000000 0.113333
0.843333 0.000000 0.113333
0.920000 0.000000 0.113333
0.996667 0.000000 0.113333
1.000000 0.000000 0.113333
1.000000 0.000000 0.113333
0.000000 0.070000 0.113333
0.076667 0.070000 0.113333
0.153333 0.070000 0.113333
0.230000 0.070000 0.113333
0.306667 0.070000 0.113333
0.383333 0.070000 0.113333
0.460000 0.070000 0.113333
0.536667 0.070000 0.113333
0.613333 0.070000 0.113333
0.690000 0.070000 0.113333
0.766667 0.070000 0.113333
0.843333 0.070000 0.113333
0.920000 0.070000 0.113333
0.996667 0.070000 0.113333
1.000000 0.070000 0.113333
1.000000 0.070000 0.113333
0.000000 0.140000 0.113333
0.076667 0.140000 0.113333
0.153333 0.140000 0.113333
0.230000 0.140000 0.113333
0.306667 0.140000 0.113333
0.383333 0.140000 0.113333
0.460000 0.140000 0.113333
0.536667 0.140000 0.113333
0.613333 0.140000 0.113333
0.690000 0.140000 0.113333
0.766667 0.140000 0.113333
0.843333 0.140000 0.113333
0.920000 0.140000 0.113333
0.996667 0.140000 0.113333
1.000000 0.140000 0.113333
1.000000 0.140000 0.113333
0.000000 0.210000 0.113333
0.076667 0.210000 0.113333
0.153333 0.210000 0.113333
0.230000 0.210000 0.113333
0.306667 0.210000 0.113333
0.383333 0.210000 0.113333
0.460000 0.210000 0.113333
0.536667 0.210000 0.113333
0.613333 0.210000 0.113333
0.690000 0.210000 0.113333
0.766667 0.210000 0.113333
0.843333 0.210000 0.113333
0.920000 0.210000 0.113333
0.996667 0.210000 0.113333
1.000000 0.210000 0.113333
1.000000 0.210000 0.113333
0.000000 0.280000 0.113333
0.076667 0.280000 0.113333
0.153333 0.280000 0.113333
0.230000 0.280000 0.113333
0.306667 0.280000 0.113333
0.383333 0.280000 0.113333
0.460000 0.280000 0.113333
0.536667 0.280000 0.113333
0.613333 0.280000 0.113333
0.690000 0.280000 0.113333
0.766667 0.280000 0.113333
0.843333 0.280000 0.113333
0.920000 0.280000 0.113333
0.996667 0.280000 0.113333
1.000000 0.280000 0.113333
1.000000 0.280000 0.113333
0.000000 0.350000 0.113333
0.076667 0.350000 0.113333
0.153333 0.350000 0.113333
0.230000 0.350000 0.113333
0.306667 0.350000 0.113333
0.383333 0.350000 0.113333
0.460000 0.350000 0.113333
0.536667 0.350000 0.113333
0.613333 0.350000 0.113333
0.690000 0.350000 0.113333
0.766667 0.350000 0.113333
0.843333 0.350000 0.113333
0.920000 0.350000 0.113333
0.996667 0.350000 0.113333
1.000000 0.350000 0.113333
1.000000 0.350000 0.113333
0.000000 0.420000 0.113333
0.076667 0.420000 0.113333
0.153333 0.420000 0.113333
0.230000 0.420000 0.113333
0.306667 0.420000 0.113333
0.383333 0.420000 0.113333
0.460000 0.420000 0.113333
0.536667 0.420000 0.113333
0.613333 0.420000 0.113333
0.690000 0.420000 0.113333
0.766667 0.420000 0.113333
0.843333 0.420000 0.113333
0.920000 0.420000 0.113333
0.996667 0.420000 0.113333
1.000000 0.420000 0.113333
1.000000 0.420000 0.113333
0.000000 0.490000 0.113333
0.076667 0.490000 0.113333
0.153333 0.490000 0.113333
0.230000 0.490000 0.113333
0.306667 0.490000 0.113333
0.383333 0.490000 0.113333
0.460000 0.490000 0.113333
0.536667 0.490000 0.113333
0.613333 0.490000 0.113333
0.690000 0.490000 0.113333
0.766667 0.490000 0.113333
0.843333 0.490000 0.113333
0.920000 0.490000 0.113333
0.996667 0.490000 0.113333
1.000000 0.490000 0.113333
1.000000 0.490000 0.113333
0.000000 0.560000 0.113333
0.076667 0.560000 0.113333
0.153333 0.560000 0.113333
0.230000 0.560000 0.113333
0.306667 0.560000 0.113333
0.383333 0.560000 0.113333
0.460000 0.560000 0.113333
0.536667 0.560000 0.113333
0.613333 0.560000 0.113333
0.690000 0.560000 0.113333
0.766667 0.560000 0.113333
0.843333 0.560000 0.113333
0.920000 0.560000 0.113333
0.996667 0.560000 0.113333
1.000000 0.560000 0.113333
1.000000 0.560000 0.113333
0.000000 0.630000 0.113333
0.076667 0.630000 0.113333
0.153333 0.630000 0.113333
0.230000 0.630000 0.113333
0.306667 0.630000 0.113333
0.383333 0.630000 0.113333
0.460000 0.630000 0.113333
0.536667 0.630000 0.113333
0.613333 0.630000 0.113333
0.690000 0.630000 0.113333
0.766667 0.630000 0.113333
0.843333 0.630000 0.113333
0.920000 0.630000 0.113333
0.996667 0.630000 0.113333
1.000000 0.630000 0.113333
1.000000 0.630000 0.113333
0.000000 0.700000 0.113333
0.076667 0.700000 0.113333
0.153333 0.700000 0.113333
0.230000 0.700000 0.113333
0.306667 0.700000 0.113333
0.383333 0.700000 0.113333
0.460000 0.700000 0.113333
0.536667 0.700000 0.113333
0.613333 0.700000 0.113333
0.690000 0.700000 0.113333
0.766667 0.700000 0.113333
0.843333 0.700000 0.113333
0.920000 0.700000 0.113333
0.996667 0.700000 0.113333
1.000000 0.700000 0.113333
1.000000 0.700000 0.113333
0.000000 0.770000 0.113333
0.076667 0.770000 0.113333
0.153333 0.770000 0.113333
0.230000 0.770000 0.113333
0.306667 0.770000 0.113333
0.383333 0.770000 0.113333
0.460000 0.770000 0.113333
0.536667 0.770000 0.113333
0.613333 0.770000 0.113333
0.690000 0.770000 0.113333
0.766667 0.770000 0.113333
0.843333 0.770000 0.113333
0.920000 0.770000 0.113333
0.996667 0.770000 0.113333
1.000000 0.770000 0.113333
1.000000 0.770000 0.113333
0.000000 0.840000 0.113333
0.076667 0.840000 0.113333
0.153333 0.840000 0.113333
0.230000 0.840000 0.113333
0.306667 0.840000 0.113333
0.383333 0.840000 0.113333
0.460000 0.840000 0.113333
0.536667 0.840000 0.113333
0.613333 0.840000 0.113333
0.690000 0.840000 0.113333
0.766667 0.840000 0.113333
0.843333 0.840000 0.113333
0.920000 0.840000 0.113333
0.996667 0.840000 0.113333
1.000000 0.840000 0.113333
1.000000 0.840000 0.113333
0.000000 0.910000 0.113333
0.076667 0.910000 0.113333
0.153333 0.910000 0.113333
0.230000 0.910000 0.113333
0.306667 0.910000 0.113333
0.383333 0.910000 0.113333
0.460000 0.910000 0.113333
0.536667 0.910000 0.113333
0.613333 0.910000 0.113333
0.690000 0.910000 0.113333
0.766667 0.910000 0.113333
0.843333 0.910000 0.113333
0.920000 0.910000 0.113333
0.996667 0.910000 0.113333
1.000000 0.910000 0.113333
1.000000 0.910000 0.113333
0.000000 0.980000 0.113333
0.076667 0.980000 0.113333
0.153333 0.980000 0.113333
0.230000 0.980000 0.113333
0.306667 0.980000 0.113333
0.383333 0.980000 0.113333
0.460000 0.980000 0.113333
0.536667 0.980000 0.113333
0.613333 0.980000 0.113333
0.690000 0.980000 0.113333
0.766667 0.980000 0.113333
0.843333 0.980000 0.113333
0.920000 0.980000 0.113333
0.996667 0.980000 0.113333
1.000000 0.980000 0.113333
1.000000 0.980000 0.113333
0.000000 1.000000 0.113333
0.076667 1.000000 0.113333
0.153333 1.000000 0.113333
0.230000 1.000000 0.113333
0.306667 1.000000 0.113333
0.383333 1.000000 0.113333
0.460000 1.000000 0.113333
0.536667 1.000000 0.113333
0.613333 1.000000 0.113333
0.690000 1.000000 0.113333
0.766667 1.000000 0.113333
0.843333 1.000000 0.113333
0.920000 1.000000 0.113333
0.996667 1.000000 0.113333
1.000000 1.000000 0.113333
1.000000 1.000000 0.113333
0.000000 0.000000 0.170000
0.076667 0.000000 0.170000
0.153333 0.000000 0.170000
0.230000 0.000000 0.170000
0.306667 0.000000 0.170000
0.383333 0.000000 0.170000
0.460000 0.000000 0.170000
0.536667 0.000000 0.170000
0.613333 0.000000 0.170000
0.690000 0.000000 0.170000
0.766667 0.000000 0.170000
0.843333 0.000000 0.170000
0.920000 0.000000 0.170000
0.996667 0.000000 0.170000
1.000000 0.000000 0.170000
1.000000 0.000000 0.170000
0.000000 0.070000 0.170000
0.076667 0.070000 0.170000
0.153333 0.070000 0.170000
0.230000 0.070000 0.170000
0.306667 0.070000 0.170000
0.383333 0.070000 0.170000
0.460000 0.070000 0.170000
0.536667 0.070000 0.170000
0.613333 0.070000 0.170000
0.690000 0.070000 0.170000
0.766667 0.070000 0.170000
0.843333 0.070000 0.170000
0.920000 0.070000 0.170000
0.996667 0.070000 0.170000
1.000000 0.070000 0.170000
1.000000 0.070000 0.170000
0.000000 0.140000 0.170000
0.076667 0.140000 0.170000
0.153333 0.140000 0.170000
0.230000 0.140000 0.170000
0.306667 0.140000 0.170000
0.383333 0.140000 0.170000
0.460000 0.140000 0.170000
0.536667 0.140000 0.170000
0.613333 0.140000 0.170000
0.690000 0.140000 0.170000
0.766667 0.140000 0.170000
0.843333 0.140000 0.170000
0.920000 0.140000 0.170000
0.996667 0.140000 0.170000
1.000000 0.140000 0.170000
1.000000 0.140000 0.170000
0.000000 0.210000 0.170000
0.076667 0.210000 0.170000
0.153333 0.210000 0.170000
0.230000 0.210000 0.170000
0.306667 0.210000 0.170000
0.383333 0.210000 0.170000
0.460000 0.210000 0.170000
0.536667 0.210000 0.170000
0.613333 0.210000 0.170000
0.690000 0.210000 0.170000
0.766667 0.210000 0.170000
0.843333 0.210000 0.170000
0.920000 0.210000 0.170000
0.996667 0.210000 0.170000
1.000000 0.210000 0.170000
1.000000 0.210000 0.170000
0.000000 0.280000 0.170000
0.076667 0.280000 0.170000
0.153333 0.280000 0.170000
0.230000 0.280000 0.170000
0.306667 0.280000 0.170000
0.383333 0.280000 0.170000
0.460000 0.280000 0.170000
0.536667 0.280000 0.170000
0.613333 0.280000 0.170000
0.690000 0.280000 0.170000
0.766667 0.280000 0.170000
0.843333 0.280000 0.170000
0.920000 0.280000 0.170000
0.996667 0.280000 0.170000
1.000000 0.280000 0.170000
1.000000 0.280000 0.170000
0.000000 0.350000 0.170000
0.076667 0.350000 0.170000
0.153333 0.350000 0.170000
0.230000 0.350000 0.170000
0.306667 0.350000 0.170000
0.383333 0.350000 0.170000
0.460000 0.350000 0.170000
0.536667 0.350000 0.170000
0.613333 0.350000 0.170000
0.690000 0.350000 0.170000
0.766667 0.350000 0.170000
0.843333 0.350000 0.170000
0.920000 0.350000 0.170000
0.996667 0.350000 0.170000
1.000000 0.350000 0.170000
1.000000 0.350000 0.170000
0.000000 0.420000 0.170000
0.076667 0.420000 0.170000
0.153333 0.420000 0.170000
0.230000 0.420000 0.170000
0.306667 0.420000 0.170000
0.383333 0.420000 0.170000
0.460000 0.420000 0.170000
0.536667 0.420000 0.170000
0.613333 0.420000 0.170000
0.690000 0.420000 0.170000
0.766667 0.420000 0.170000
0.843333 0.420000 0.170000
0.920000 0.420000 0.170000
0.996667 0.420000 0.170000
1.000000 0.420000 0.170000
1.000000 0.420000 0.170000
0.000000 0.490000 0.170000
0.076667 0.490000 0.170000
0.153333 0.490000 0.170000
0.230000 0.490000 0.170000
0.306667 0.490000 0.170000
0.383333 0.490000 0.170000
0.460000 0.490000 0.170000
