luts/Warm_Tone.cube
TITLE "Warm_Tone"
LUT_3D_SIZE 6
0.000000 0.000000 0.000000
0.230000 0.000000 0.000000
0.460000 0.000000 0.000000
0.690000 0.000000 0.000000
0.920000 0.000000 0.000000
1.000000 0.000000 0.000000
0.000000 0.210000 0.000000
0.230000 0.210000 0.000000
0.460000 0.210000 0.000000
0.690000 0.210000 0.000000
0.920000 0.210000 0.000000
1.000000 0.210000 0.000000
0.000000 0.420000 0.000000
0.230000 0.420000 0.000000
0.460000 0.420000 0.000000
0.690000 0.420000 0.000000
0.920000 0.420000 0.000000
1.000000 0.420000 0.000000
0.000000 0.630000 0.000000
0.230000 0.630000 0.000000
0.460000 0.630000 0.000000
0.690000 0.630000 0.000000
0.920000 0.630000 0.000000
1.000000 0.630000 0.000000
0.000000 0.840000 0.000000
0.230000 0.840000 0.000000
0.460000 0.840000 0.000000
0.690000 0.840000 0.000000
0.920000 0.840000 0.000000
1.000000 0.840000 0.000000
0.000000 1.000000 0.000000
0.230000 1.000000 0.000000
0.460000 1.000000 0.000000
0.690000 1.000000 0.000000
0.920000 1.000000 0.000000
1.000000 1.000000 0.000000
0.000000 0.000000 0.170000
0.230000 0.000000 0.170000
0.460000 0.000000 0.170000
0.690000 0.000000 0.170000
0.920000 0.000000 0.170000
1.000000 0.000000 0.170000
0.000000 0.210000 0.170000
0.230000 0.210000 0.170000
0.460000 0.210000 0.170000
0.690000 0.210000 0.170000
0.920000 0.210000 0.170000
1.000000 0.210000 0.170000
0.000000 0.420000 0.170000
0.230000 0.420000 0.170000
0.460000 0.420000 0.170000
0.690000 0.420000 0.170000
0.920000 0.420000 0.170000
1.000000 0.420000 0.170000
0.000000 0.630000 0.170000
0.230000 0.630000 0.170000
0.460000 0.630000 0.170000
0.690000 0.630000 0.170000
0.920000 0.630000 0.170000
1.000000 0.630000 0.170000
0.000000 0.840000 0.170000
0.230000 0.840000 0.170000
0.460000 0.840000 0.170000
0.690000 0.840000 0.170000
0.920000 0.840000 0.170000
1.000000 0.840000 0.170000
0.000000 1.000000 0.170000
0.230000 1.000000 0.170000
0.460000 1.000000 0.170000
0.690000 1.000000 0.170000
0.920000 1.000000 0.170000
1.000000 1.000000 0.170000
0.000000 0.000000 0.340000
0.230000 0.000000 0.340000
0.460000 0.000000 0.340000
0.690000 0.000000 0.340000
0.920000 0.000000 0.340000
1.000000 0.000000 0.340000
0.000000 0.210000 0.340000
0.230000 0.210000 0.340000
0.460000 0.210000 0.340000
0.690000 0.210000 0.340000
0.920000 0.210000 0.340000
1.000000 0.210000 0.340000
0.000000 0.420000 0.340000
0.230000 0.420000 0.340000
0.460000 0.420000 0.340000
0.690000 0.420000 0.340000
0.920000 0.420000 0.340000
1.000000 0.420000 0.340000
0.000000 0.630000 0.340000
0.230000 0.630000 0.340000
0.460000 0.630000 0.340000
0.690000 0.630000 0.340000
0.920000 0.630000 0.340000
1.000000 0.630000 0.340000
0.000000 0.840000 0.340000
0.230000 0.840000 0.340000
0.460000 0.840000 0.340000
0.690000 0.840000 0.340000
0.920000 0.840000 0.340000
1.000000 0.840000 0.340000
0.000000 1.000000 0.340000
0.230000 1.000000 0.340000
0.460000 1.000000 0.340000
0.690000 1.000000 0.340000
0.920000 1.000000 0.340000
1.000000 1.000000 0.340000
0.000000 0.000000 0.510000
0.230000 0.000000 0.510000
0.460000 0.000000 0.510000
0.690000 0.000000 0.510000
0.920000 0.000000 0.510000
1.000000 0.000000 0.510000
0.000000 0.210000 0.510000
0.230000 0.210000 0.510000
0.460000 0.210000 0.510000
0.690000 0.210000 0.510000
0.920000 0.210000 0.510000
1.000000 0.210000 0.510000
0.000000 0.420000 0.510000
0.230000 0.420000 0.510000
0.460000 0.420000 0.510000
0.690000 0.420000 0.510000
0.920000 0.420000 0.510000
1.000000 0.420000 0.510000
0.000000 0.630000 0.510000
0.230000 0.630000 0.510000
0.460000 0.630000 0.510000
0.690000 0.630000 0.510000
0.920000 0.630000 0.510000
1.000000 0.630000 0.510000
0.000000 0.840000 0.510000
0.230000 0.840000 0.510000
0.460000 0.840000 0.510000
0.690000 0.840000 0.510000
0.920000 0.840000 0.510000
1.000000 0.840000 0.510000
0.000000 1.000000 0.510000
0.230000 1.000000 0.510000
0.460000 1.000000 0.510000
0.690000 1.000000 0.510000
0.920000 1.000000 0.510000
1.000000 1.000000 0.510000
0.000000 0.000000 0.680000
0.230000 0.000000 0.680000
0.460000 0.000000 0.680000
0.690000 0.000000 0.680000
0.920000 0.000000 0.680000
1.000000 0.000000 0.680000
0.000000 0.210000 0.680000
0.230000 0.210000 0.680000
0.460000 0.210000 0.680000
0.690000 0.210000 0.680000
0.920000 0.210000 0.680000
1.000000 0.210000 0.680000
0.000000 0.420000 0.680000
0.230000 0.420000 0.680000
0.460000 0.420000 0.680000
0.690000 0.420000 0.680000
0.920000 0.420000 0.680000
1.000000 0.420000 0.680000
0.000000 0.630000 0.680000
0.230000 0.630000 0.680000
0.460000 0.630000 0.680000
0.690000 0.630000 0.680000
0.920000 0.630000 0.680000
1.000000 0.630000 0.680000
0.000000 0.840000 0.680000
0.230000 0.840000 0.680000
0.460000 0.840000 0.680000
0.690000 0.840000 0.680000
0.920000 0.840000 0.680000
1.000000 0.840000 0.680000
0.000000 1.000000 0.680000
0.230000 1.000000 0.680000
0.460000 1.000000 0.680000
0.690000 1.000000 0.680000
0.920000 1.000000 0.680000
1.000000 1.000000 0.680000
0.000000 0.000000 0.850000
0.230000 0.000000 0.850000
0.460000 0.000000 0.850000
0.690000 0.000000 0.850000
0.920000 0.000000 0.850000
1.000000 0.000000 0.850000
0.000000 0.210000 0.850000
0.230000 0.210000 0.850000
0.460000 0.210000 0.850000
0.690000 0.210000 0.850000
0.920000 0.210000 0.850000
1.000000 0.210000 0.850000
0.000000 0.420000 0.850000
0.230000 0.420000 0.850000
0.460000 0.420000 0.850000
0.690000 0.420000 0.850000
0.920000 0.420000 0.850000
1.000000 0.420000 0.850000
0.000000 0.630000 0.850000
0.230000 0.630000 0.850000
0.460000 0.630000 0.850000
0.690000 0.630000 0.850000
0.920000 0.630000 0.850000
1.000000 0.630000 0.850000
0.000000 0.840000 0.850000
0.230000 0.840000 0.850000
0.460000 0.840000 0.850000
0.690000 0.840000 0.850000
0.920000 0.840000 0.850000
1.000000 0.840000 0.850000
0.000000 1.000000 0.850000
0.230000 1.000000 0.850000
0.460000 1.000000 0.850000
0.690000 1.000000 0.850000
0.920000 1.000000 0.850000
1.000000 1.000000 0.850000
